(Block-name: Header)
(Block-expand: 0)
(Block-enable: 1)
%
(Header)
(Generated by gcodetools from Inkscape.)
(Using default header. To add your own header create file "header" in the output dir.)
M3
(Header end.)
G21 (All units in mm)

(Start cutting path id: path4-3)
(Change tool to Default tool)

G0 Z10
(Block-name: path4-3)
(Block-expand: 0)
(Block-enable: 0)

(End cutting path id: path4-3)


(Start cutting path id: path4-3)
(Change tool to Default tool)

G0 Z10
G0 X135.084991 Y182.886529

G1 Z-0.125 F100
G1 X134.856191 Y182.941529 Z-0.125 F400
G1 X134.638691 Y183.031529 Z-0.125
G1 X134.437891 Y183.154529 Z-0.125
G1 X134.258891 Y183.307529 Z-0.125
G1 X134.106191 Y183.486529 Z-0.125
G1 X133.983191 Y183.687529 Z-0.125
G1 X133.893191 Y183.904529 Z-0.125
G1 X133.838191 Y184.133529 Z-0.125
G1 X133.819191 Y184.368529 Z-0.125
G1 X133.838191 Y184.603529 Z-0.125
G1 X133.893191 Y184.831529 Z-0.125
G1 X133.983191 Y185.049529 Z-0.125
G1 X134.106191 Y185.250529 Z-0.125
G1 X134.258891 Y185.429529 Z-0.125
G1 X134.437891 Y185.582529 Z-0.125
G1 X134.638691 Y185.705529 Z-0.125
G1 X134.856191 Y185.795529 Z-0.125
G1 X135.084991 Y185.849529 Z-0.125
G1 X135.319691 Y185.868529 Z-0.125
G1 X135.554191 Y185.849529 Z-0.125
G1 X135.783091 Y185.795529 Z-0.125
G1 X136.000691 Y185.705529 Z-0.125
G1 X136.201391 Y185.582529 Z-0.125
G1 X136.380391 Y185.429529 Z-0.125
G1 X136.533291 Y185.250529 Z-0.125
G1 X136.656191 Y185.049529 Z-0.125
G1 X136.746191 Y184.831529 Z-0.125
G1 X136.801191 Y184.603529 Z-0.125
G1 X136.820191 Y184.368529 Z-0.125
G1 X136.801191 Y184.133529 Z-0.125
G1 X136.746191 Y183.904529 Z-0.125
G1 X136.656191 Y183.687529 Z-0.125
G1 X136.533291 Y183.486529 Z-0.125
G1 X136.380391 Y183.307529 Z-0.125
G1 X136.201391 Y183.154529 Z-0.125
G1 X136.000691 Y183.031529 Z-0.125
G1 X135.783091 Y182.941529 Z-0.125
G1 X135.554191 Y182.886529 Z-0.125
G1 X135.319691 Y182.868529 Z-0.125
G1 X135.084991 Y182.886529 Z-0.125
G0 Z10
(Block-name: path4-3 [in,cut])
(Block-expand: 0)
(Block-enable: 1)
g0 x135.301561 y184.261494
g1 z0 f500
g1 x135.286221 y184.265182 f1000
g1 x135.270219 y184.271803
g1 x135.256098 y184.280453
g1 x135.24352 y184.291204
g1 x135.232669 y184.303923
g1 x135.223287 y184.319256
g1 x135.216764 y184.334983
g1 x135.212493 y184.352766
g1 x135.211219 y184.368529
g1 x135.212437 y184.3836
g1 x135.216764 y184.401535
g1 x135.223879 y184.418769
g1 x135.232669 y184.433135
g1 x135.24352 y184.445854
g1 x135.256098 y184.456605
g1 x135.270219 y184.465255
g1 x135.283553 y184.470772
g1 x135.301559 y184.475022
g1 x135.319643 y184.476486
g1 x135.337645 y184.475027
g1 x135.355903 y184.47072
g1 x135.369116 y184.465255
g1 x135.383066 y184.456706
g1 x135.396105 y184.445561
g1 x135.406884 y184.432942
g1 x135.415407 y184.419003
g1 x135.422618 y184.401535
g1 x135.426945 y184.3836
g1 x135.428163 y184.368529
g1 x135.426889 y184.352766
g1 x135.422618 y184.334983
g1 x135.415998 y184.319022
g1 x135.406884 y184.304116
g1 x135.396105 y184.291497
g1 x135.383066 y184.280352
g1 x135.369116 y184.271803
g1 x135.353235 y184.265235
g1 x135.337646 y184.261489
g1 x135.319646 y184.260107
g1 x135.301561 y184.261494
g1 z-6 f500
g1 x135.286221 y184.265182 f1000
g1 x135.270219 y184.271803
g1 x135.256098 y184.280453
g1 x135.24352 y184.291204
g1 x135.232669 y184.303923
g1 x135.223287 y184.319256
g1 x135.216764 y184.334983
g1 x135.212493 y184.352766
g1 x135.211219 y184.368529
g1 x135.212437 y184.3836
g1 x135.216764 y184.401535
g1 x135.223879 y184.418769
g1 x135.232669 y184.433135
g1 x135.24352 y184.445854
g1 x135.256098 y184.456605
g1 x135.270219 y184.465255
g1 x135.283553 y184.470772
g1 x135.301559 y184.475022
g1 x135.319643 y184.476486
g1 x135.337645 y184.475027
g1 x135.355903 y184.47072
g1 x135.369116 y184.465255
g1 x135.383066 y184.456706
g1 x135.396105 y184.445561
g1 x135.406884 y184.432942
g1 x135.415407 y184.419003
g1 x135.422618 y184.401535
g1 x135.426945 y184.3836
g1 x135.428163 y184.368529
g1 x135.426889 y184.352766
g1 x135.422618 y184.334983
g1 x135.415998 y184.319022
g1 x135.406884 y184.304116
g1 x135.396105 y184.291497
g1 x135.383066 y184.280352
g1 x135.369116 y184.271803
g1 x135.353235 y184.265235
g1 x135.337646 y184.261489
g1 x135.319646 y184.260107
g1 x135.301561 y184.261494
g1 z-12 f500
g1 x135.286221 y184.265182 f1000
g1 x135.270219 y184.271803
g1 x135.256098 y184.280453
g1 x135.24352 y184.291204
g1 x135.232669 y184.303923
g1 x135.223287 y184.319256
g1 x135.216764 y184.334983
g1 x135.212493 y184.352766
g1 x135.211219 y184.368529
g1 x135.212437 y184.3836
g1 x135.216764 y184.401535
g1 x135.223879 y184.418769
g1 x135.232669 y184.433135
g1 x135.24352 y184.445854
g1 x135.256098 y184.456605
g1 x135.270219 y184.465255
g1 x135.283553 y184.470772
g1 x135.301559 y184.475022
g1 x135.319643 y184.476486
g1 x135.337645 y184.475027
g1 x135.355903 y184.47072
g1 x135.369116 y184.465255
g1 x135.383066 y184.456706
g1 x135.396105 y184.445561
g1 x135.406884 y184.432942
g1 x135.415407 y184.419003
g1 x135.422618 y184.401535
g1 x135.426945 y184.3836
g1 x135.428163 y184.368529
g1 x135.426889 y184.352766
g1 x135.422618 y184.334983
g1 x135.415998 y184.319022
g1 x135.406884 y184.304116
g1 x135.396105 y184.291497
g1 x135.383066 y184.280352
g1 x135.369116 y184.271803
g1 x135.353235 y184.265235
g1 x135.337646 y184.261489
g1 x135.319646 y184.260107
g1 x135.301561 y184.261494
g1 z-18 f500
g1 x135.286221 y184.265182 f1000
g1 x135.270219 y184.271803
g1 x135.256098 y184.280453
g1 x135.24352 y184.291204
g1 x135.232669 y184.303923
g1 x135.223287 y184.319256
g1 x135.216764 y184.334983
g1 x135.212493 y184.352766
g1 x135.211219 y184.368529
g1 x135.212437 y184.3836
g1 x135.216764 y184.401535
g1 x135.223879 y184.418769
g1 x135.232669 y184.433135
g1 x135.24352 y184.445854
g1 x135.256098 y184.456605
g1 x135.270219 y184.465255
g1 x135.283553 y184.470772
g1 x135.301559 y184.475022
g1 x135.319643 y184.476486
g1 x135.337645 y184.475027
g1 x135.355903 y184.47072
g1 x135.369116 y184.465255
g1 x135.383066 y184.456706
g1 x135.396105 y184.445561
g1 x135.406884 y184.432942
g1 x135.415407 y184.419003
g1 x135.422618 y184.401535
g1 x135.426945 y184.3836
g1 x135.428163 y184.368529
g1 x135.426889 y184.352766
g1 x135.422618 y184.334983
g1 x135.415998 y184.319022
g1 x135.406884 y184.304116
g1 x135.396105 y184.291497
g1 x135.383066 y184.280352
g1 x135.369116 y184.271803
g1 x135.353235 y184.265235
g1 x135.337646 y184.261489
g1 x135.319646 y184.260107
g1 x135.301561 y184.261494
g0 z20
(Block-name: path4-3)
(Block-expand: 0)
(Block-enable: 0)

(End cutting path id: path4-3)


(Start cutting path id: path4-3)
(Change tool to Default tool)

G0 Z10
G0 X135.084991 Y212.886529

G1 Z-0.125 F100
G1 X134.856191 Y212.941529 Z-0.125 F400
G1 X134.638691 Y213.031529 Z-0.125
G1 X134.437891 Y213.154529 Z-0.125
G1 X134.258891 Y213.307529 Z-0.125
G1 X134.106191 Y213.486529 Z-0.125
G1 X133.983191 Y213.687529 Z-0.125
G1 X133.893191 Y213.904529 Z-0.125
G1 X133.838191 Y214.133529 Z-0.125
G1 X133.819191 Y214.368529 Z-0.125
G1 X133.838191 Y214.603529 Z-0.125
G1 X133.893191 Y214.831529 Z-0.125
G1 X133.983191 Y215.049529 Z-0.125
G1 X134.106191 Y215.250529 Z-0.125
G1 X134.258891 Y215.429529 Z-0.125
G1 X134.437891 Y215.582529 Z-0.125
G1 X134.638691 Y215.705529 Z-0.125
G1 X134.856191 Y215.795529 Z-0.125
G1 X135.084991 Y215.849529 Z-0.125
G1 X135.319691 Y215.868529 Z-0.125
G1 X135.554191 Y215.849529 Z-0.125
G1 X135.783091 Y215.795529 Z-0.125
G1 X136.000691 Y215.705529 Z-0.125
G1 X136.201391 Y215.582529 Z-0.125
G1 X136.380391 Y215.429529 Z-0.125
G1 X136.533291 Y215.250529 Z-0.125
G1 X136.656191 Y215.049529 Z-0.125
G1 X136.746191 Y214.831529 Z-0.125
G1 X136.801191 Y214.603529 Z-0.125
G1 X136.820191 Y214.368529 Z-0.125
G1 X136.801191 Y214.133529 Z-0.125
G1 X136.746191 Y213.904529 Z-0.125
G1 X136.656191 Y213.687529 Z-0.125
G1 X136.533291 Y213.486529 Z-0.125
G1 X136.380391 Y213.307529 Z-0.125
G1 X136.201391 Y213.154529 Z-0.125
G1 X136.000691 Y213.031529 Z-0.125
G1 X135.783091 Y212.941529 Z-0.125
G1 X135.554191 Y212.886529 Z-0.125
G1 X135.319691 Y212.868529 Z-0.125
G1 X135.084991 Y212.886529 Z-0.125
G0 Z10
(Block-name: path4-3 [in,cut])
(Block-expand: 0)
(Block-enable: 1)
g0 x135.301561 y214.261494
g1 z0 f500
g1 x135.286221 y214.265182 f1000
g1 x135.270219 y214.271803
g1 x135.256098 y214.280453
g1 x135.24352 y214.291204
g1 x135.232669 y214.303923
g1 x135.223287 y214.319256
g1 x135.216764 y214.334983
g1 x135.212493 y214.352766
g1 x135.211219 y214.368529
g1 x135.212437 y214.3836
g1 x135.216764 y214.401535
g1 x135.223879 y214.418769
g1 x135.232669 y214.433135
g1 x135.24352 y214.445854
g1 x135.256098 y214.456605
g1 x135.270219 y214.465255
g1 x135.283553 y214.470772
g1 x135.301559 y214.475022
g1 x135.319643 y214.476486
g1 x135.337645 y214.475027
g1 x135.355903 y214.47072
g1 x135.369116 y214.465255
g1 x135.383066 y214.456706
g1 x135.396105 y214.445561
g1 x135.406884 y214.432942
g1 x135.415407 y214.419003
g1 x135.422618 y214.401535
g1 x135.426945 y214.3836
g1 x135.428163 y214.368529
g1 x135.426889 y214.352766
g1 x135.422618 y214.334983
g1 x135.415998 y214.319022
g1 x135.406884 y214.304116
g1 x135.396105 y214.291497
g1 x135.383066 y214.280352
g1 x135.369116 y214.271803
g1 x135.353235 y214.265235
g1 x135.337646 y214.261489
g1 x135.319646 y214.260107
g1 x135.301561 y214.261494
g1 z-6 f500
g1 x135.286221 y214.265182 f1000
g1 x135.270219 y214.271803
g1 x135.256098 y214.280453
g1 x135.24352 y214.291204
g1 x135.232669 y214.303923
g1 x135.223287 y214.319256
g1 x135.216764 y214.334983
g1 x135.212493 y214.352766
g1 x135.211219 y214.368529
g1 x135.212437 y214.3836
g1 x135.216764 y214.401535
g1 x135.223879 y214.418769
g1 x135.232669 y214.433135
g1 x135.24352 y214.445854
g1 x135.256098 y214.456605
g1 x135.270219 y214.465255
g1 x135.283553 y214.470772
g1 x135.301559 y214.475022
g1 x135.319643 y214.476486
g1 x135.337645 y214.475027
g1 x135.355903 y214.47072
g1 x135.369116 y214.465255
g1 x135.383066 y214.456706
g1 x135.396105 y214.445561
g1 x135.406884 y214.432942
g1 x135.415407 y214.419003
g1 x135.422618 y214.401535
g1 x135.426945 y214.3836
g1 x135.428163 y214.368529
g1 x135.426889 y214.352766
g1 x135.422618 y214.334983
g1 x135.415998 y214.319022
g1 x135.406884 y214.304116
g1 x135.396105 y214.291497
g1 x135.383066 y214.280352
g1 x135.369116 y214.271803
g1 x135.353235 y214.265235
g1 x135.337646 y214.261489
g1 x135.319646 y214.260107
g1 x135.301561 y214.261494
g1 z-12 f500
g1 x135.286221 y214.265182 f1000
g1 x135.270219 y214.271803
g1 x135.256098 y214.280453
g1 x135.24352 y214.291204
g1 x135.232669 y214.303923
g1 x135.223287 y214.319256
g1 x135.216764 y214.334983
g1 x135.212493 y214.352766
g1 x135.211219 y214.368529
g1 x135.212437 y214.3836
g1 x135.216764 y214.401535
g1 x135.223879 y214.418769
g1 x135.232669 y214.433135
g1 x135.24352 y214.445854
g1 x135.256098 y214.456605
g1 x135.270219 y214.465255
g1 x135.283553 y214.470772
g1 x135.301559 y214.475022
g1 x135.319643 y214.476486
g1 x135.337645 y214.475027
g1 x135.355903 y214.47072
g1 x135.369116 y214.465255
g1 x135.383066 y214.456706
g1 x135.396105 y214.445561
g1 x135.406884 y214.432942
g1 x135.415407 y214.419003
g1 x135.422618 y214.401535
g1 x135.426945 y214.3836
g1 x135.428163 y214.368529
g1 x135.426889 y214.352766
g1 x135.422618 y214.334983
g1 x135.415998 y214.319022
g1 x135.406884 y214.304116
g1 x135.396105 y214.291497
g1 x135.383066 y214.280352
g1 x135.369116 y214.271803
g1 x135.353235 y214.265235
g1 x135.337646 y214.261489
g1 x135.319646 y214.260107
g1 x135.301561 y214.261494
g1 z-18 f500
g1 x135.286221 y214.265182 f1000
g1 x135.270219 y214.271803
g1 x135.256098 y214.280453
g1 x135.24352 y214.291204
g1 x135.232669 y214.303923
g1 x135.223287 y214.319256
g1 x135.216764 y214.334983
g1 x135.212493 y214.352766
g1 x135.211219 y214.368529
g1 x135.212437 y214.3836
g1 x135.216764 y214.401535
g1 x135.223879 y214.418769
g1 x135.232669 y214.433135
g1 x135.24352 y214.445854
g1 x135.256098 y214.456605
g1 x135.270219 y214.465255
g1 x135.283553 y214.470772
g1 x135.301559 y214.475022
g1 x135.319643 y214.476486
g1 x135.337645 y214.475027
g1 x135.355903 y214.47072
g1 x135.369116 y214.465255
g1 x135.383066 y214.456706
g1 x135.396105 y214.445561
g1 x135.406884 y214.432942
g1 x135.415407 y214.419003
g1 x135.422618 y214.401535
g1 x135.426945 y214.3836
g1 x135.428163 y214.368529
g1 x135.426889 y214.352766
g1 x135.422618 y214.334983
g1 x135.415998 y214.319022
g1 x135.406884 y214.304116
g1 x135.396105 y214.291497
g1 x135.383066 y214.280352
g1 x135.369116 y214.271803
g1 x135.353235 y214.265235
g1 x135.337646 y214.261489
g1 x135.319646 y214.260107
g1 x135.301561 y214.261494
g0 z20
(Block-name: path4)
(Block-expand: 0)
(Block-enable: 0)

(End cutting path id: path4-3)


(Start cutting path id: path4)
(Change tool to Default tool)

G0 Z10
G0 X83.035391 Y222.754629

G1 Z-0.125 F100
G1 X82.806491 Y222.809529 Z-0.125 F400
G1 X82.589091 Y222.899729 Z-0.125
G1 X82.388191 Y223.022729 Z-0.125
G1 X82.209291 Y223.175429 Z-0.125
G1 X82.056391 Y223.354429 Z-0.125
G1 X81.933391 Y223.555229 Z-0.125
G1 X81.843391 Y223.772629 Z-0.125
G1 X81.788391 Y224.001529 Z-0.125
G1 X81.769991 Y224.236229 Z-0.125
G1 X81.788391 Y224.470729 Z-0.125
G1 X81.843391 Y224.699629 Z-0.125
G1 X81.933391 Y224.917029 Z-0.125
G1 X82.056391 Y225.117929 Z-0.125
G1 X82.209291 Y225.296829 Z-0.125
G1 X82.388191 Y225.449629 Z-0.125
G1 X82.589091 Y225.572629 Z-0.125
G1 X82.806491 Y225.662729 Z-0.125
G1 X83.035391 Y225.717729 Z-0.125
G1 X83.269891 Y225.736129 Z-0.125
G1 X83.504591 Y225.717729 Z-0.125
G1 X83.733491 Y225.662729 Z-0.125
G1 X83.950891 Y225.572629 Z-0.125
G1 X84.151691 Y225.449629 Z-0.125
G1 X84.330691 Y225.296829 Z-0.125
G1 X84.483391 Y225.117929 Z-0.125
G1 X84.606391 Y224.917029 Z-0.125
G1 X84.696591 Y224.699629 Z-0.125
G1 X84.751491 Y224.470729 Z-0.125
G1 X84.769991 Y224.236229 Z-0.125
G1 X84.751491 Y224.001529 Z-0.125
G1 X84.696591 Y223.772629 Z-0.125
G1 X84.606391 Y223.555229 Z-0.125
G1 X84.483391 Y223.354429 Z-0.125
G1 X84.330691 Y223.175429 Z-0.125
G1 X84.151691 Y223.022729 Z-0.125
G1 X83.950891 Y222.899729 Z-0.125
G1 X83.733491 Y222.809529 Z-0.125
G1 X83.504591 Y222.754629 Z-0.125
G1 X83.269891 Y222.736129 Z-0.125
G1 X83.035391 Y222.754629 Z-0.125
G0 Z10
(Block-name: path4 [in,cut])
(Block-expand: 0)
(Block-enable: 1)
g0 x83.253088 y224.129266
g1 z0 f500
g1 x83.236834 y224.133164 f1000
g1 x83.22104 y224.139717
g1 x83.205867 y224.149006
g1 x83.193263 y224.159765
g1 x83.182433 y224.172444
g1 x83.173606 y224.186854
g1 x83.167044 y224.202705
g1 x83.163085 y224.21918
g1 x83.161752 y224.236183
g1 x83.163074 y224.253033
g1 x83.167044 y224.269553
g1 x83.173665 y224.285547
g1 x83.182433 y224.299868
g1 x83.193263 y224.312539
g1 x83.20606 y224.323469
g1 x83.220807 y224.332498
g1 x83.236834 y224.33914
g1 x83.253087 y224.343046
g1 x83.269937 y224.344368
g1 x83.28694 y224.343035
g1 x83.303148 y224.33914
g1 x83.319032 y224.332557
g1 x83.333869 y224.323469
g1 x83.346501 y224.312686
g1 x83.357114 y224.300253
g1 x83.366403 y224.28508
g1 x83.372956 y224.269286
g1 x83.376854 y224.253032
g1 x83.378184 y224.236183
g1 x83.376843 y224.21918
g1 x83.372956 y224.202972
g1 x83.366463 y224.187321
g1 x83.357114 y224.172059
g1 x83.346501 y224.159619
g1 x83.334061 y224.149006
g1 x83.318799 y224.139657
g1 x83.303148 y224.133164
g1 x83.28694 y224.129277
g1 x83.269937 y224.127936
g1 x83.253088 y224.129266
g1 z-6 f500
g1 x83.236834 y224.133164 f1000
g1 x83.22104 y224.139717
g1 x83.205867 y224.149006
g1 x83.193263 y224.159765
g1 x83.182433 y224.172444
g1 x83.173606 y224.186854
g1 x83.167044 y224.202705
g1 x83.163085 y224.21918
g1 x83.161752 y224.236183
g1 x83.163074 y224.253033
g1 x83.167044 y224.269553
g1 x83.173665 y224.285547
g1 x83.182433 y224.299868
g1 x83.193263 y224.312539
g1 x83.20606 y224.323469
g1 x83.220807 y224.332498
g1 x83.236834 y224.33914
g1 x83.253087 y224.343046
g1 x83.269937 y224.344368
g1 x83.28694 y224.343035
g1 x83.303148 y224.33914
g1 x83.319032 y224.332557
g1 x83.333869 y224.323469
g1 x83.346501 y224.312686
g1 x83.357114 y224.300253
g1 x83.366403 y224.28508
g1 x83.372956 y224.269286
g1 x83.376854 y224.253032
g1 x83.378184 y224.236183
g1 x83.376843 y224.21918
g1 x83.372956 y224.202972
g1 x83.366463 y224.187321
g1 x83.357114 y224.172059
g1 x83.346501 y224.159619
g1 x83.334061 y224.149006
g1 x83.318799 y224.139657
g1 x83.303148 y224.133164
g1 x83.28694 y224.129277
g1 x83.269937 y224.127936
g1 x83.253088 y224.129266
g1 z-12 f500
g1 x83.236834 y224.133164 f1000
g1 x83.22104 y224.139717
g1 x83.205867 y224.149006
g1 x83.193263 y224.159765
g1 x83.182433 y224.172444
g1 x83.173606 y224.186854
g1 x83.167044 y224.202705
g1 x83.163085 y224.21918
g1 x83.161752 y224.236183
g1 x83.163074 y224.253033
g1 x83.167044 y224.269553
g1 x83.173665 y224.285547
g1 x83.182433 y224.299868
g1 x83.193263 y224.312539
g1 x83.20606 y224.323469
g1 x83.220807 y224.332498
g1 x83.236834 y224.33914
g1 x83.253087 y224.343046
g1 x83.269937 y224.344368
g1 x83.28694 y224.343035
g1 x83.303148 y224.33914
g1 x83.319032 y224.332557
g1 x83.333869 y224.323469
g1 x83.346501 y224.312686
g1 x83.357114 y224.300253
g1 x83.366403 y224.28508
g1 x83.372956 y224.269286
g1 x83.376854 y224.253032
g1 x83.378184 y224.236183
g1 x83.376843 y224.21918
g1 x83.372956 y224.202972
g1 x83.366463 y224.187321
g1 x83.357114 y224.172059
g1 x83.346501 y224.159619
g1 x83.334061 y224.149006
g1 x83.318799 y224.139657
g1 x83.303148 y224.133164
g1 x83.28694 y224.129277
g1 x83.269937 y224.127936
g1 x83.253088 y224.129266
g1 z-18 f500
g1 x83.236834 y224.133164 f1000
g1 x83.22104 y224.139717
g1 x83.205867 y224.149006
g1 x83.193263 y224.159765
g1 x83.182433 y224.172444
g1 x83.173606 y224.186854
g1 x83.167044 y224.202705
g1 x83.163085 y224.21918
g1 x83.161752 y224.236183
g1 x83.163074 y224.253033
g1 x83.167044 y224.269553
g1 x83.173665 y224.285547
g1 x83.182433 y224.299868
g1 x83.193263 y224.312539
g1 x83.20606 y224.323469
g1 x83.220807 y224.332498
g1 x83.236834 y224.33914
g1 x83.253087 y224.343046
g1 x83.269937 y224.344368
g1 x83.28694 y224.343035
g1 x83.303148 y224.33914
g1 x83.319032 y224.332557
g1 x83.333869 y224.323469
g1 x83.346501 y224.312686
g1 x83.357114 y224.300253
g1 x83.366403 y224.28508
g1 x83.372956 y224.269286
g1 x83.376854 y224.253032
g1 x83.378184 y224.236183
g1 x83.376843 y224.21918
g1 x83.372956 y224.202972
g1 x83.366463 y224.187321
g1 x83.357114 y224.172059
g1 x83.346501 y224.159619
g1 x83.334061 y224.149006
g1 x83.318799 y224.139657
g1 x83.303148 y224.133164
g1 x83.28694 y224.129277
g1 x83.269937 y224.127936
g1 x83.253088 y224.129266
g0 z20
(Block-name: path4)
(Block-expand: 0)
(Block-enable: 0)

(End cutting path id: path4)


(Start cutting path id: path4)
(Change tool to Default tool)

G0 Z10
G0 X83.035391 Y192.754629

G1 Z-0.125 F100
G1 X82.806491 Y192.809529 Z-0.125 F400
G1 X82.589091 Y192.899729 Z-0.125
G1 X82.388191 Y193.022729 Z-0.125
G1 X82.209291 Y193.175429 Z-0.125
G1 X82.056391 Y193.354429 Z-0.125
G1 X81.933391 Y193.555229 Z-0.125
G1 X81.843391 Y193.772629 Z-0.125
G1 X81.788391 Y194.001529 Z-0.125
G1 X81.769991 Y194.236229 Z-0.125
G1 X81.788391 Y194.470729 Z-0.125
G1 X81.843391 Y194.699629 Z-0.125
G1 X81.933391 Y194.917029 Z-0.125
G1 X82.056391 Y195.117929 Z-0.125
G1 X82.209291 Y195.296829 Z-0.125
G1 X82.388191 Y195.449729 Z-0.125
G1 X82.589091 Y195.572729 Z-0.125
G1 X82.806491 Y195.662729 Z-0.125
G1 X83.035391 Y195.717729 Z-0.125
G1 X83.269891 Y195.736129 Z-0.125
G1 X83.504591 Y195.717729 Z-0.125
G1 X83.733491 Y195.662729 Z-0.125
G1 X83.950891 Y195.572729 Z-0.125
G1 X84.151691 Y195.449729 Z-0.125
G1 X84.330691 Y195.296829 Z-0.125
G1 X84.483391 Y195.117929 Z-0.125
G1 X84.606391 Y194.917029 Z-0.125
G1 X84.696591 Y194.699629 Z-0.125
G1 X84.751491 Y194.470729 Z-0.125
G1 X84.769991 Y194.236229 Z-0.125
G1 X84.751491 Y194.001529 Z-0.125
G1 X84.696591 Y193.772629 Z-0.125
G1 X84.606391 Y193.555229 Z-0.125
G1 X84.483391 Y193.354429 Z-0.125
G1 X84.330691 Y193.175429 Z-0.125
G1 X84.151691 Y193.022729 Z-0.125
G1 X83.950891 Y192.899729 Z-0.125
G1 X83.733491 Y192.809529 Z-0.125
G1 X83.504591 Y192.754629 Z-0.125
G1 X83.269891 Y192.736129 Z-0.125
G1 X83.035391 Y192.754629 Z-0.125
G0 Z10
(Block-name: path4 [in,cut])
(Block-expand: 0)
(Block-enable: 1)
g0 x83.253088 y194.129266
g1 z0 f500
g1 x83.236834 y194.133164 f1000
g1 x83.22104 y194.139717
g1 x83.205867 y194.149006
g1 x83.193263 y194.159765
g1 x83.182433 y194.172444
g1 x83.173606 y194.186854
g1 x83.167044 y194.202705
g1 x83.163085 y194.21918
g1 x83.161752 y194.236183
g1 x83.163074 y194.253033
g1 x83.167044 y194.269553
g1 x83.173665 y194.285547
g1 x83.182433 y194.299868
g1 x83.193409 y194.312711
g1 x83.206252 y194.323687
g1 x83.220573 y194.332455
g1 x83.236567 y194.339076
g1 x83.253087 y194.343046
g1 x83.269937 y194.344368
g1 x83.28694 y194.343035
g1 x83.303415 y194.339076
g1 x83.319266 y194.332514
g1 x83.333676 y194.323687
g1 x83.346355 y194.312857
g1 x83.357114 y194.300253
g1 x83.366403 y194.28508
g1 x83.372956 y194.269286
g1 x83.376854 y194.253032
g1 x83.378184 y194.236183
g1 x83.376843 y194.21918
g1 x83.372956 y194.202972
g1 x83.366463 y194.187321
g1 x83.357114 y194.172059
g1 x83.346501 y194.159619
g1 x83.334061 y194.149006
g1 x83.318799 y194.139657
g1 x83.303148 y194.133164
g1 x83.28694 y194.129277
g1 x83.269937 y194.127936
g1 x83.253088 y194.129266
g1 z-6 f500
g1 x83.236834 y194.133164 f1000
g1 x83.22104 y194.139717
g1 x83.205867 y194.149006
g1 x83.193263 y194.159765
g1 x83.182433 y194.172444
g1 x83.173606 y194.186854
g1 x83.167044 y194.202705
g1 x83.163085 y194.21918
g1 x83.161752 y194.236183
g1 x83.163074 y194.253033
g1 x83.167044 y194.269553
g1 x83.173665 y194.285547
g1 x83.182433 y194.299868
g1 x83.193409 y194.312711
g1 x83.206252 y194.323687
g1 x83.220573 y194.332455
g1 x83.236567 y194.339076
g1 x83.253087 y194.343046
g1 x83.269937 y194.344368
g1 x83.28694 y194.343035
g1 x83.303415 y194.339076
g1 x83.319266 y194.332514
g1 x83.333676 y194.323687
g1 x83.346355 y194.312857
g1 x83.357114 y194.300253
g1 x83.366403 y194.28508
g1 x83.372956 y194.269286
g1 x83.376854 y194.253032
g1 x83.378184 y194.236183
g1 x83.376843 y194.21918
g1 x83.372956 y194.202972
g1 x83.366463 y194.187321
g1 x83.357114 y194.172059
g1 x83.346501 y194.159619
g1 x83.334061 y194.149006
g1 x83.318799 y194.139657
g1 x83.303148 y194.133164
g1 x83.28694 y194.129277
g1 x83.269937 y194.127936
g1 x83.253088 y194.129266
g1 z-12 f500
g1 x83.236834 y194.133164 f1000
g1 x83.22104 y194.139717
g1 x83.205867 y194.149006
g1 x83.193263 y194.159765
g1 x83.182433 y194.172444
g1 x83.173606 y194.186854
g1 x83.167044 y194.202705
g1 x83.163085 y194.21918
g1 x83.161752 y194.236183
g1 x83.163074 y194.253033
g1 x83.167044 y194.269553
g1 x83.173665 y194.285547
g1 x83.182433 y194.299868
g1 x83.193409 y194.312711
g1 x83.206252 y194.323687
g1 x83.220573 y194.332455
g1 x83.236567 y194.339076
g1 x83.253087 y194.343046
g1 x83.269937 y194.344368
g1 x83.28694 y194.343035
g1 x83.303415 y194.339076
g1 x83.319266 y194.332514
g1 x83.333676 y194.323687
g1 x83.346355 y194.312857
g1 x83.357114 y194.300253
g1 x83.366403 y194.28508
g1 x83.372956 y194.269286
g1 x83.376854 y194.253032
g1 x83.378184 y194.236183
g1 x83.376843 y194.21918
g1 x83.372956 y194.202972
g1 x83.366463 y194.187321
g1 x83.357114 y194.172059
g1 x83.346501 y194.159619
g1 x83.334061 y194.149006
g1 x83.318799 y194.139657
g1 x83.303148 y194.133164
g1 x83.28694 y194.129277
g1 x83.269937 y194.127936
g1 x83.253088 y194.129266
g1 z-18 f500
g1 x83.236834 y194.133164 f1000
g1 x83.22104 y194.139717
g1 x83.205867 y194.149006
g1 x83.193263 y194.159765
g1 x83.182433 y194.172444
g1 x83.173606 y194.186854
g1 x83.167044 y194.202705
g1 x83.163085 y194.21918
g1 x83.161752 y194.236183
g1 x83.163074 y194.253033
g1 x83.167044 y194.269553
g1 x83.173665 y194.285547
g1 x83.182433 y194.299868
g1 x83.193409 y194.312711
g1 x83.206252 y194.323687
g1 x83.220573 y194.332455
g1 x83.236567 y194.339076
g1 x83.253087 y194.343046
g1 x83.269937 y194.344368
g1 x83.28694 y194.343035
g1 x83.303415 y194.339076
g1 x83.319266 y194.332514
g1 x83.333676 y194.323687
g1 x83.346355 y194.312857
g1 x83.357114 y194.300253
g1 x83.366403 y194.28508
g1 x83.372956 y194.269286
g1 x83.376854 y194.253032
g1 x83.378184 y194.236183
g1 x83.376843 y194.21918
g1 x83.372956 y194.202972
g1 x83.366463 y194.187321
g1 x83.357114 y194.172059
g1 x83.346501 y194.159619
g1 x83.334061 y194.149006
g1 x83.318799 y194.139657
g1 x83.303148 y194.133164
g1 x83.28694 y194.129277
g1 x83.269937 y194.127936
g1 x83.253088 y194.129266
g0 z20
(Block-name: block)
(Block-expand: 0)
(Block-enable: 0)
G0 X161.210691 Y129.399529

G1 Z-0.125 F100
G1 X161.592191 Y129.490529 Z-0.125 F400
G1 X161.954691 Y129.640529 Z-0.125
G1 X162.289191 Y129.845529 Z-0.125
G1 X162.587491 Y130.100529 Z-0.125
G1 X172.587491 Y140.100529 Z-0.125
G1 X172.842191 Y140.398529 Z-0.125
G1 X173.047191 Y140.733529 Z-0.125
G1 X173.197391 Y141.095529 Z-0.125
G1 X173.288391 Y141.477529 Z-0.125
G1 X173.319391 Y141.868529 Z-0.125
G1 X173.319391 Y256.868529 Z-0.125
G1 X173.288391 Y257.259529 Z-0.125
G1 X173.197391 Y257.641529 Z-0.125
G1 X173.047191 Y258.003529 Z-0.125
G1 X172.842191 Y258.337529 Z-0.125
G1 X172.587491 Y258.636529 Z-0.125
G1 X162.587491 Y268.636529 Z-0.125
G1 X162.289191 Y268.891529 Z-0.125
G1 X161.954691 Y269.095529 Z-0.125
G1 X161.592191 Y269.246529 Z-0.125
G1 X161.210691 Y269.337529 Z-0.125
G1 X160.819591 Y269.368529 Z-0.125
G1 X155.819591 Y269.368529 Z-0.125
G1 X155.428491 Y269.337529 Z-0.125
G1 X155.047191 Y269.246529 Z-0.125
G1 X154.684691 Y269.095529 Z-0.125
G1 X154.350191 Y268.891529 Z-0.125
G1 X154.051891 Y268.636529 Z-0.125
G1 X153.797191 Y268.337529 Z-0.125
G1 X153.592091 Y268.003529 Z-0.125
G1 X153.441991 Y267.641529 Z-0.125
G1 X153.349991 Y267.259529 Z-0.125
G1 X153.318991 Y266.868529 Z-0.125
G1 X153.318991 Y239.368529 Z-0.125
G1 X133.318991 Y239.368529 Z-0.125
G1 X133.318991 Y159.368529 Z-0.125
G1 X153.318991 Y159.368529 Z-0.125
G1 X153.318991 Y131.868529 Z-0.125
G1 X153.349991 Y131.477529 Z-0.125
G1 X153.441991 Y131.095529 Z-0.125
G1 X153.592091 Y130.733529 Z-0.125
G1 X153.797191 Y130.398529 Z-0.125
G1 X154.051891 Y130.100529 Z-0.125
G1 X154.350191 Y129.845529 Z-0.125
G1 X154.684691 Y129.640529 Z-0.125
G1 X155.047191 Y129.490529 Z-0.125
G1 X155.428491 Y129.399529 Z-0.125
G1 X155.819591 Y129.368529 Z-0.125
G1 X160.819591 Y129.368529 Z-0.125
G1 X161.210691 Y129.399529 Z-0.125
G0 Z10
(Block-name: block [out,cut])
(Block-expand: 0)
(Block-enable: 1)
(Block-tab: 145.504 157.781 10 10 0)
(Block-tab: 131.731 232.835 10 10 0)
(Block-tab: 174.907 254.047 10 10 0)
(Block-tab: 174.907 165.902 10 10 0)
g0 x161.336129 y127.816993
g1 z0 f500
g1 x161.579027 y127.855351 f1000
g1 x161.960527 y127.946351
g1 x162.199174 y128.023652
g1 x162.561674 y128.173652
g1 x162.784211 y128.286995
g1 x163.118711 y128.491995
g1 x163.320722 y128.63884
g1 x163.619022 y128.89384
g1 x163.710023 y128.977997
g1 x173.710023 y138.977997
g1 x173.794268 y139.0691
g1 x174.048968 y139.3671
g1 x174.196276 y139.56991
g1 x174.401276 y139.90491
g1 x174.513485 y140.125139
g1 x174.663685 y140.487139
g1 x174.741677 y140.727649
g1 x174.832677 y141.109649
g1 x174.870925 y141.35206
g1 x174.901925 y141.74306
g1 x174.906891 y141.868529
g1 x174.906891 y159.314528
g1 x174.906891 y172.489528
g1 z0 f500
g1 x174.906891 y247.459394 f1000
g1 x174.906891 y256.868529
g1 x174.901925 y256.993998
g1 x174.870925 y257.384998
g1 x174.832677 y257.627409
g1 x174.741677 y258.009409
g1 x174.663685 y258.249919
g1 x174.513485 y258.611919
g1 x174.400171 y258.833951
g1 x174.195171 y259.167951
g1 z0 f500
g1 x174.050672 y259.366961 f1000
g1 x173.795972 y259.665961
g1 x173.710023 y259.759061
g1 x172.83469 y260.634394
g1 x163.710023 y269.759061
g1 x163.619022 y269.843218
g1 x163.320722 y270.098218
g1 x163.115763 y270.246865
g1 x162.781263 y270.450865
g1 x162.565124 y270.560973
g1 x162.202624 y270.711973
g1 x161.960527 y270.790707
g1 x161.579027 y270.881707
g1 x161.336129 y270.920065
g1 x160.945029 y270.951065
g1 x160.819591 y270.956029
g1 x155.819591 y270.956029
g1 x155.694153 y270.951065
g1 x155.303053 y270.920065
g1 x155.059972 y270.881663
g1 x154.678672 y270.790663
g1 x154.436758 y270.711973
g1 x154.074258 y270.560973
g1 x153.858119 y270.450865
g1 x153.523619 y270.246865
g1 x153.31866 y270.098218
g1 x153.02036 y269.843218
g1 x152.84341 y269.665961
g1 x152.58871 y269.366961
g1 x152.444391 y269.168245
g1 x152.239291 y268.834245
g1 x152.125654 y268.611574
g1 x151.975554 y268.249574
g1 x151.89862 y268.013231
g1 x151.80662 y267.631231
g1 x151.767457 y267.384998
g1 x151.736457 y266.993998
g1 x151.731491 y266.868529
g1 x151.731491 y240.956029
g1 x133.318991 y240.956029
g3 x131.732402 y239.422301 i0 j-1.5875
g3 x131.731491 y239.368529 i1.586589 j-0.053772
g1 x131.731491 y226.247301
g1 z0 f500
g1 x131.731491 y159.368529 f1000
g3 x133.318991 y157.781029 i1.5875 j0
g1 x138.916445 y157.781029
g1 x151.731491 y157.781029
g1 z0 f500
g1 x151.731491 y151.193529 f1000
g1 x151.731491 y131.868529
g1 x151.736457 y131.74306
g1 x151.767457 y131.35206
g1 x151.80662 y131.105827
g1 x151.89862 y130.723827
g1 x151.975554 y130.487484
g1 x152.125654 y130.125484
g1 x152.238186 y129.904616
g1 x152.443286 y129.569616
g1 x152.590414 y129.3671
g1 x152.845114 y129.0691
g1 x153.02036 y128.89384
g1 x153.31866 y128.63884
g1 x153.520671 y128.491995
g1 x153.855171 y128.286995
g1 x154.077708 y128.173652
g1 x154.440208 y128.023652
g1 x154.678672 y127.946395
g1 x155.059972 y127.855395
g1 x155.303053 y127.816993
g1 x155.694153 y127.785993
g1 x155.819591 y127.781029
g1 x160.819591 y127.781029
g1 x160.945029 y127.785993
g1 x161.336129 y127.816993
g1 z-6 f500
g1 x161.579027 y127.855351 f1000
g1 x161.960527 y127.946351
g1 x162.199174 y128.023652
g1 x162.561674 y128.173652
g1 x162.784211 y128.286995
g1 x163.118711 y128.491995
g1 x163.320722 y128.63884
g1 x163.619022 y128.89384
g1 x163.710023 y128.977997
g1 x173.710023 y138.977997
g1 x173.794268 y139.0691
g1 x174.048968 y139.3671
g1 x174.196276 y139.56991
g1 x174.401276 y139.90491
g1 x174.513485 y140.125139
g1 x174.663685 y140.487139
g1 x174.741677 y140.727649
g1 x174.832677 y141.109649
g1 x174.870925 y141.35206
g1 x174.901925 y141.74306
g1 x174.906891 y141.868529
g1 x174.906891 y159.314528
g0 z0
g1 x174.906891 y172.489528 f1000
g1 z-6 f500
g1 x174.906891 y247.459394 f1000
g0 z0
g1 x174.906891 y256.868529 f1000
g1 x174.901925 y256.993998
g1 x174.870925 y257.384998
g1 x174.832677 y257.627409
g1 x174.741677 y258.009409
g1 x174.663685 y258.249919
g1 x174.513485 y258.611919
g1 x174.400171 y258.833951
g1 x174.195171 y259.167951
g1 z-6 f500
g1 x174.050672 y259.366961 f1000
g1 x173.795972 y259.665961
g1 x173.710023 y259.759061
g1 x172.83469 y260.634394
g1 x163.710023 y269.759061
g1 x163.619022 y269.843218
g1 x163.320722 y270.098218
g1 x163.115763 y270.246865
g1 x162.781263 y270.450865
g1 x162.565124 y270.560973
g1 x162.202624 y270.711973
g1 x161.960527 y270.790707
g1 x161.579027 y270.881707
g1 x161.336129 y270.920065
g1 x160.945029 y270.951065
g1 x160.819591 y270.956029
g1 x155.819591 y270.956029
g1 x155.694153 y270.951065
g1 x155.303053 y270.920065
g1 x155.059972 y270.881663
g1 x154.678672 y270.790663
g1 x154.436758 y270.711973
g1 x154.074258 y270.560973
g1 x153.858119 y270.450865
g1 x153.523619 y270.246865
g1 x153.31866 y270.098218
g1 x153.02036 y269.843218
g1 x152.84341 y269.665961
g1 x152.58871 y269.366961
g1 x152.444391 y269.168245
g1 x152.239291 y268.834245
g1 x152.125654 y268.611574
g1 x151.975554 y268.249574
g1 x151.89862 y268.013231
g1 x151.80662 y267.631231
g1 x151.767457 y267.384998
g1 x151.736457 y266.993998
g1 x151.731491 y266.868529
g1 x151.731491 y240.956029
g1 x133.318991 y240.956029
g3 x131.732402 y239.422301 i0 j-1.5875
g3 x131.731491 y239.368529 i1.586589 j-0.053772
g0 z0
g1 x131.731491 y226.247301 f1000
g1 z-6 f500
g1 x131.731491 y159.368529 f1000
g3 x133.318991 y157.781029 i1.5875 j0
g1 x138.916445 y157.781029
g0 z0
g1 x151.731491 y157.781029 f1000
g1 z-6 f500
g1 x151.731491 y151.193529 f1000
g1 x151.731491 y131.868529
g1 x151.736457 y131.74306
g1 x151.767457 y131.35206
g1 x151.80662 y131.105827
g1 x151.89862 y130.723827
g1 x151.975554 y130.487484
g1 x152.125654 y130.125484
g1 x152.238186 y129.904616
g1 x152.443286 y129.569616
g1 x152.590414 y129.3671
g1 x152.845114 y129.0691
g1 x153.02036 y128.89384
g1 x153.31866 y128.63884
g1 x153.520671 y128.491995
g1 x153.855171 y128.286995
g1 x154.077708 y128.173652
g1 x154.440208 y128.023652
g1 x154.678672 y127.946395
g1 x155.059972 y127.855395
g1 x155.303053 y127.816993
g1 x155.694153 y127.785993
g1 x155.819591 y127.781029
g1 x160.819591 y127.781029
g1 x160.945029 y127.785993
g1 x161.336129 y127.816993
g1 z-12 f500
g1 x161.579027 y127.855351 f1000
g1 x161.960527 y127.946351
g1 x162.199174 y128.023652
g1 x162.561674 y128.173652
g1 x162.784211 y128.286995
g1 x163.118711 y128.491995
g1 x163.320722 y128.63884
g1 x163.619022 y128.89384
g1 x163.710023 y128.977997
g1 x173.710023 y138.977997
g1 x173.794268 y139.0691
g1 x174.048968 y139.3671
g1 x174.196276 y139.56991
g1 x174.401276 y139.90491
g1 x174.513485 y140.125139
g1 x174.663685 y140.487139
g1 x174.741677 y140.727649
g1 x174.832677 y141.109649
g1 x174.870925 y141.35206
g1 x174.901925 y141.74306
g1 x174.906891 y141.868529
g1 x174.906891 y159.314528
g0 z0
g1 x174.906891 y172.489528 f1000
g1 z-12 f500
g1 x174.906891 y247.459394 f1000
g0 z0
g1 x174.906891 y256.868529 f1000
g1 x174.901925 y256.993998
g1 x174.870925 y257.384998
g1 x174.832677 y257.627409
g1 x174.741677 y258.009409
g1 x174.663685 y258.249919
g1 x174.513485 y258.611919
g1 x174.400171 y258.833951
g1 x174.195171 y259.167951
g1 z-12 f500
g1 x174.050672 y259.366961 f1000
g1 x173.795972 y259.665961
g1 x173.710023 y259.759061
g1 x172.83469 y260.634394
g1 x163.710023 y269.759061
g1 x163.619022 y269.843218
g1 x163.320722 y270.098218
g1 x163.115763 y270.246865
g1 x162.781263 y270.450865
g1 x162.565124 y270.560973
g1 x162.202624 y270.711973
g1 x161.960527 y270.790707
g1 x161.579027 y270.881707
g1 x161.336129 y270.920065
g1 x160.945029 y270.951065
g1 x160.819591 y270.956029
g1 x155.819591 y270.956029
g1 x155.694153 y270.951065
g1 x155.303053 y270.920065
g1 x155.059972 y270.881663
g1 x154.678672 y270.790663
g1 x154.436758 y270.711973
g1 x154.074258 y270.560973
g1 x153.858119 y270.450865
g1 x153.523619 y270.246865
g1 x153.31866 y270.098218
g1 x153.02036 y269.843218
g1 x152.84341 y269.665961
g1 x152.58871 y269.366961
g1 x152.444391 y269.168245
g1 x152.239291 y268.834245
g1 x152.125654 y268.611574
g1 x151.975554 y268.249574
g1 x151.89862 y268.013231
g1 x151.80662 y267.631231
g1 x151.767457 y267.384998
g1 x151.736457 y266.993998
g1 x151.731491 y266.868529
g1 x151.731491 y240.956029
g1 x133.318991 y240.956029
g3 x131.732402 y239.422301 i0 j-1.5875
g3 x131.731491 y239.368529 i1.586589 j-0.053772
g0 z0
g1 x131.731491 y226.247301 f1000
g1 z-12 f500
g1 x131.731491 y159.368529 f1000
g3 x133.318991 y157.781029 i1.5875 j0
g1 x138.916445 y157.781029
g0 z0
g1 x151.731491 y157.781029 f1000
g1 z-12 f500
g1 x151.731491 y151.193529 f1000
g1 x151.731491 y131.868529
g1 x151.736457 y131.74306
g1 x151.767457 y131.35206
g1 x151.80662 y131.105827
g1 x151.89862 y130.723827
g1 x151.975554 y130.487484
g1 x152.125654 y130.125484
g1 x152.238186 y129.904616
g1 x152.443286 y129.569616
g1 x152.590414 y129.3671
g1 x152.845114 y129.0691
g1 x153.02036 y128.89384
g1 x153.31866 y128.63884
g1 x153.520671 y128.491995
g1 x153.855171 y128.286995
g1 x154.077708 y128.173652
g1 x154.440208 y128.023652
g1 x154.678672 y127.946395
g1 x155.059972 y127.855395
g1 x155.303053 y127.816993
g1 x155.694153 y127.785993
g1 x155.819591 y127.781029
g1 x160.819591 y127.781029
g1 x160.945029 y127.785993
g1 x161.336129 y127.816993
g1 z-18 f500
g1 x161.579027 y127.855351 f1000
g1 x161.960527 y127.946351
g1 x162.199174 y128.023652
g1 x162.561674 y128.173652
g1 x162.784211 y128.286995
g1 x163.118711 y128.491995
g1 x163.320722 y128.63884
g1 x163.619022 y128.89384
g1 x163.710023 y128.977997
g1 x173.710023 y138.977997
g1 x173.794268 y139.0691
g1 x174.048968 y139.3671
g1 x174.196276 y139.56991
g1 x174.401276 y139.90491
g1 x174.513485 y140.125139
g1 x174.663685 y140.487139
g1 x174.741677 y140.727649
g1 x174.832677 y141.109649
g1 x174.870925 y141.35206
g1 x174.901925 y141.74306
g1 x174.906891 y141.868529
g1 x174.906891 y159.314528
g0 z0
g1 x174.906891 y172.489528 f1000
g1 z-18 f500
g1 x174.906891 y247.459394 f1000
g0 z0
g1 x174.906891 y256.868529 f1000
g1 x174.901925 y256.993998
g1 x174.870925 y257.384998
g1 x174.832677 y257.627409
g1 x174.741677 y258.009409
g1 x174.663685 y258.249919
g1 x174.513485 y258.611919
g1 x174.400171 y258.833951
g1 x174.195171 y259.167951
g1 z-18 f500
g1 x174.050672 y259.366961 f1000
g1 x173.795972 y259.665961
g1 x173.710023 y259.759061
g1 x172.83469 y260.634394
g1 x163.710023 y269.759061
g1 x163.619022 y269.843218
g1 x163.320722 y270.098218
g1 x163.115763 y270.246865
g1 x162.781263 y270.450865
g1 x162.565124 y270.560973
g1 x162.202624 y270.711973
g1 x161.960527 y270.790707
g1 x161.579027 y270.881707
g1 x161.336129 y270.920065
g1 x160.945029 y270.951065
g1 x160.819591 y270.956029
g1 x155.819591 y270.956029
g1 x155.694153 y270.951065
g1 x155.303053 y270.920065
g1 x155.059972 y270.881663
g1 x154.678672 y270.790663
g1 x154.436758 y270.711973
g1 x154.074258 y270.560973
g1 x153.858119 y270.450865
g1 x153.523619 y270.246865
g1 x153.31866 y270.098218
g1 x153.02036 y269.843218
g1 x152.84341 y269.665961
g1 x152.58871 y269.366961
g1 x152.444391 y269.168245
g1 x152.239291 y268.834245
g1 x152.125654 y268.611574
g1 x151.975554 y268.249574
g1 x151.89862 y268.013231
g1 x151.80662 y267.631231
g1 x151.767457 y267.384998
g1 x151.736457 y266.993998
g1 x151.731491 y266.868529
g1 x151.731491 y240.956029
g1 x133.318991 y240.956029
g3 x131.732402 y239.422301 i0 j-1.5875
g3 x131.731491 y239.368529 i1.586589 j-0.053772
g0 z0
g1 x131.731491 y226.247301 f1000
g1 z-18 f500
g1 x131.731491 y159.368529 f1000
g3 x133.318991 y157.781029 i1.5875 j0
g1 x138.916445 y157.781029
g0 z0
g1 x151.731491 y157.781029 f1000
g1 z-18 f500
g1 x151.731491 y151.193529 f1000
g1 x151.731491 y131.868529
g1 x151.736457 y131.74306
g1 x151.767457 y131.35206
g1 x151.80662 y131.105827
g1 x151.89862 y130.723827
g1 x151.975554 y130.487484
g1 x152.125654 y130.125484
g1 x152.238186 y129.904616
g1 x152.443286 y129.569616
g1 x152.590414 y129.3671
g1 x152.845114 y129.0691
g1 x153.02036 y128.89384
g1 x153.31866 y128.63884
g1 x153.520671 y128.491995
g1 x153.855171 y128.286995
g1 x154.077708 y128.173652
g1 x154.440208 y128.023652
g1 x154.678672 y127.946395
g1 x155.059972 y127.855395
g1 x155.303053 y127.816993
g1 x155.694153 y127.785993
g1 x155.819591 y127.781029
g1 x160.819591 y127.781029
g1 x160.945029 y127.785993
g1 x161.336129 y127.816993
g0 z20
(Block-name: path4)
(Block-expand: 0)
(Block-enable: 0)

(End cutting path id: path4)


(Start cutting path id: path4)
(Change tool to Default tool)

G0 Z10
G0 X76.160991 Y129.266929

G1 Z-0.125 F100
G1 X76.542491 Y129.358429 Z-0.125 F400
G1 X76.904991 Y129.508529 Z-0.125
G1 X77.239491 Y129.713629 Z-0.125
G1 X77.537791 Y129.968329 Z-0.125
G1 X77.792491 Y130.266629 Z-0.125
G1 X77.997491 Y130.601129 Z-0.125
G1 X78.147691 Y130.963629 Z-0.125
G1 X93.269891 Y189.236229 Z-0.125
G1 X93.269891 Y229.236229 Z-0.125
G1 X78.147691 Y287.508229 Z-0.125
G1 X77.997491 Y287.871229 Z-0.125
G1 X77.792491 Y288.205229 Z-0.125
G1 X77.537791 Y288.504229 Z-0.125
G1 X77.239491 Y288.758229 Z-0.125
G1 X76.904991 Y288.963229 Z-0.125
G1 X76.542491 Y289.114229 Z-0.125
G1 X76.160991 Y289.205229 Z-0.125
G1 X75.769891 Y289.236229 Z-0.125
G1 X70.769891 Y289.236229 Z-0.125
G1 X70.378791 Y289.205229 Z-0.125
G1 X69.997491 Y289.114229 Z-0.125
G1 X69.634991 Y288.963229 Z-0.125
G1 X69.300491 Y288.758229 Z-0.125
G1 X69.002191 Y288.504229 Z-0.125
G1 X59.002191 Y278.504229 Z-0.125
G1 X58.747491 Y278.205229 Z-0.125
G1 X58.542391 Y277.871229 Z-0.125
G1 X58.392291 Y277.508229 Z-0.125
G1 X58.300691 Y277.127229 Z-0.125
G1 X58.269891 Y276.736229 Z-0.125
G1 X58.269891 Y141.736229 Z-0.125
G1 X58.300691 Y141.345129 Z-0.125
G1 X58.392291 Y140.963629 Z-0.125
G1 X58.542391 Y140.601129 Z-0.125
G1 X58.747491 Y140.266629 Z-0.125
G1 X59.002191 Y139.968329 Z-0.125
G1 X69.002191 Y129.968329 Z-0.125
G1 X69.300491 Y129.713629 Z-0.125
G1 X69.634991 Y129.508529 Z-0.125
G1 X69.997491 Y129.358429 Z-0.125
G1 X70.378791 Y129.266929 Z-0.125
G1 X70.769891 Y129.236229 Z-0.125
G1 X75.769891 Y129.236229 Z-0.125
G1 X76.160991 Y129.266929 Z-0.125
G0 Z10
(Block-name: path4 [out,cut])
(Block-expand: 0)
(Block-enable: 1)
(Block-tab: 56.6824 160.385 10 10 0)
(Block-tab: 56.6824 249.829 10 10 0)
(Block-tab: 87.6604 257.172 10 10 0)
(Block-tab: 89.7347 169.294 10 10 0)
g0 x76.285222 y127.684297
g1 z0 f500
g1 x76.531241 y127.723209 f1000
g1 x76.912741 y127.814709
g1 x77.14982 y127.891695
g1 x77.51232 y128.041795
g1 x77.734805 y128.155176
g1 x78.069305 y128.360276
g1 x78.270321 y128.50634
g1 x78.568621 y128.76104
g1 x78.74508 y128.937499
g1 x78.99978 y129.235799
g1 x79.146025 y129.437109
g1 x79.351025 y129.771609
g1 x79.464082 y129.993455
g1 x79.614282 y130.355955
g1 x79.684293 y130.564869
g1 x88.025203 y162.706126
g1 x91.44422 y175.881126
g1 z0 f500
g1 x94.806493 y188.837469 f1000
g1 x94.857391 y189.236229
g1 x94.857391 y229.236229
g1 x94.806492 y229.634993
g1 x89.369933 y250.584273
g1 x85.950881 y263.759273
g1 z0 f500
g1 x79.684292 y287.906993 f1000
g1 x79.614578 y288.115189
g1 x79.464378 y288.478189
g1 x79.350471 y288.701651
g1 x79.145471 y289.035651
g1 x79.000972 y289.234661
g1 x78.746272 y289.533661
g1 x78.566979 y289.712917
g1 x78.268679 y289.966917
g1 x78.069011 y290.111763
g1 x77.734511 y290.316763
g1 x77.515424 y290.428673
g1 x77.152924 y290.579673
g1 x76.910827 y290.658407
g1 x76.529327 y290.749407
g1 x76.286429 y290.787765
g1 x75.895329 y290.818765
g1 x75.769891 y290.823729
g1 x70.769891 y290.823729
g1 x70.644453 y290.818765
g1 x70.253353 y290.787765
g1 x70.010272 y290.749363
g1 x69.628972 y290.658363
g1 x69.387058 y290.579673
g1 x69.024558 y290.428673
g1 x68.805471 y290.316763
g1 x68.470971 y290.111763
g1 x68.271303 y289.966917
g1 x67.973003 y289.712917
g1 x67.879659 y289.626761
g1 x57.879659 y279.626761
g1 x57.79371 y279.533661
g1 x57.53901 y279.234661
g1 x57.394691 y279.035945
g1 x57.189591 y278.701945
g1 x57.075362 y278.477844
g1 x56.925262 y278.114844
g1 x56.848773 y277.879321
g1 x56.757173 y277.498321
g1 x56.718093 y277.251894
g1 x56.687293 y276.860894
g1 x56.682391 y276.736229
g1 x56.682391 y256.416666
g1 x56.682391 y243.241666
g1 z0 f500
g1 x56.682391 y166.972552 f1000
g1 x56.682391 y153.797552
g1 z0 f500
g1 x56.682391 y141.736229 f1000
g1 x56.687291 y141.611596
g1 x56.718091 y141.220496
g1 x56.757063 y140.974496
g1 x56.848663 y140.592996
g1 x56.925557 y140.3563
g1 x57.075657 y139.9938
g1 x57.189038 y139.771315
g1 x57.394138 y139.436815
g1 x57.540202 y139.235799
g1 x57.794902 y138.937499
g1 x57.879659 y138.845797
g1 x67.879659 y128.845797
g1 x67.971361 y128.76104
g1 x68.269661 y128.50634
g1 x68.470677 y128.360276
g1 x68.805177 y128.155176
g1 x69.027662 y128.041795
g1 x69.390162 y127.891695
g1 x69.627057 y127.814753
g1 x70.008357 y127.723253
g1 x70.25456 y127.684297
g1 x70.64566 y127.653597
g1 x70.769891 y127.648729
g1 x75.769891 y127.648729
g1 x75.894122 y127.653597
g1 x76.285222 y127.684297
g1 z-6 f500
g1 x76.531241 y127.723209 f1000
g1 x76.912741 y127.814709
g1 x77.14982 y127.891695
g1 x77.51232 y128.041795
g1 x77.734805 y128.155176
g1 x78.069305 y128.360276
g1 x78.270321 y128.50634
g1 x78.568621 y128.76104
g1 x78.74508 y128.937499
g1 x78.99978 y129.235799
g1 x79.146025 y129.437109
g1 x79.351025 y129.771609
g1 x79.464082 y129.993455
g1 x79.614282 y130.355955
g1 x79.684293 y130.564869
g1 x88.025203 y162.706126
g0 z0
g1 x91.44422 y175.881126 f1000
g1 z-6 f500
g1 x94.806493 y188.837469 f1000
g1 x94.857391 y189.236229
g1 x94.857391 y229.236229
g1 x94.806492 y229.634993
g1 x89.369933 y250.584273
g0 z0
g1 x85.950881 y263.759273 f1000
g1 z-6 f500
g1 x79.684292 y287.906993 f1000
g1 x79.614578 y288.115189
g1 x79.464378 y288.478189
g1 x79.350471 y288.701651
g1 x79.145471 y289.035651
g1 x79.000972 y289.234661
g1 x78.746272 y289.533661
g1 x78.566979 y289.712917
g1 x78.268679 y289.966917
g1 x78.069011 y290.111763
g1 x77.734511 y290.316763
g1 x77.515424 y290.428673
g1 x77.152924 y290.579673
g1 x76.910827 y290.658407
g1 x76.529327 y290.749407
g1 x76.286429 y290.787765
g1 x75.895329 y290.818765
g1 x75.769891 y290.823729
g1 x70.769891 y290.823729
g1 x70.644453 y290.818765
g1 x70.253353 y290.787765
g1 x70.010272 y290.749363
g1 x69.628972 y290.658363
g1 x69.387058 y290.579673
g1 x69.024558 y290.428673
g1 x68.805471 y290.316763
g1 x68.470971 y290.111763
g1 x68.271303 y289.966917
g1 x67.973003 y289.712917
g1 x67.879659 y289.626761
g1 x57.879659 y279.626761
g1 x57.79371 y279.533661
g1 x57.53901 y279.234661
g1 x57.394691 y279.035945
g1 x57.189591 y278.701945
g1 x57.075362 y278.477844
g1 x56.925262 y278.114844
g1 x56.848773 y277.879321
g1 x56.757173 y277.498321
g1 x56.718093 y277.251894
g1 x56.687293 y276.860894
g1 x56.682391 y276.736229
g1 x56.682391 y256.416666
g0 z0
g1 x56.682391 y243.241666 f1000
g1 z-6 f500
g1 x56.682391 y166.972552 f1000
g0 z0
g1 x56.682391 y153.797552 f1000
g1 z-6 f500
g1 x56.682391 y141.736229 f1000
g1 x56.687291 y141.611596
g1 x56.718091 y141.220496
g1 x56.757063 y140.974496
g1 x56.848663 y140.592996
g1 x56.925557 y140.3563
g1 x57.075657 y139.9938
g1 x57.189038 y139.771315
g1 x57.394138 y139.436815
g1 x57.540202 y139.235799
g1 x57.794902 y138.937499
g1 x57.879659 y138.845797
g1 x67.879659 y128.845797
g1 x67.971361 y128.76104
g1 x68.269661 y128.50634
g1 x68.470677 y128.360276
g1 x68.805177 y128.155176
g1 x69.027662 y128.041795
g1 x69.390162 y127.891695
g1 x69.627057 y127.814753
g1 x70.008357 y127.723253
g1 x70.25456 y127.684297
g1 x70.64566 y127.653597
g1 x70.769891 y127.648729
g1 x75.769891 y127.648729
g1 x75.894122 y127.653597
g1 x76.285222 y127.684297
g1 z-12 f500
g1 x76.531241 y127.723209 f1000
g1 x76.912741 y127.814709
g1 x77.14982 y127.891695
g1 x77.51232 y128.041795
g1 x77.734805 y128.155176
g1 x78.069305 y128.360276
g1 x78.270321 y128.50634
g1 x78.568621 y128.76104
g1 x78.74508 y128.937499
g1 x78.99978 y129.235799
g1 x79.146025 y129.437109
g1 x79.351025 y129.771609
g1 x79.464082 y129.993455
g1 x79.614282 y130.355955
g1 x79.684293 y130.564869
g1 x88.025203 y162.706126
g0 z0
g1 x91.44422 y175.881126 f1000
g1 z-12 f500
g1 x94.806493 y188.837469 f1000
g1 x94.857391 y189.236229
g1 x94.857391 y229.236229
g1 x94.806492 y229.634993
g1 x89.369933 y250.584273
g0 z0
g1 x85.950881 y263.759273 f1000
g1 z-12 f500
g1 x79.684292 y287.906993 f1000
g1 x79.614578 y288.115189
g1 x79.464378 y288.478189
g1 x79.350471 y288.701651
g1 x79.145471 y289.035651
g1 x79.000972 y289.234661
g1 x78.746272 y289.533661
g1 x78.566979 y289.712917
g1 x78.268679 y289.966917
g1 x78.069011 y290.111763
g1 x77.734511 y290.316763
g1 x77.515424 y290.428673
g1 x77.152924 y290.579673
g1 x76.910827 y290.658407
g1 x76.529327 y290.749407
g1 x76.286429 y290.787765
g1 x75.895329 y290.818765
g1 x75.769891 y290.823729
g1 x70.769891 y290.823729
g1 x70.644453 y290.818765
g1 x70.253353 y290.787765
g1 x70.010272 y290.749363
g1 x69.628972 y290.658363
g1 x69.387058 y290.579673
g1 x69.024558 y290.428673
g1 x68.805471 y290.316763
g1 x68.470971 y290.111763
g1 x68.271303 y289.966917
g1 x67.973003 y289.712917
g1 x67.879659 y289.626761
g1 x57.879659 y279.626761
g1 x57.79371 y279.533661
g1 x57.53901 y279.234661
g1 x57.394691 y279.035945
g1 x57.189591 y278.701945
g1 x57.075362 y278.477844
g1 x56.925262 y278.114844
g1 x56.848773 y277.879321
g1 x56.757173 y277.498321
g1 x56.718093 y277.251894
g1 x56.687293 y276.860894
g1 x56.682391 y276.736229
g1 x56.682391 y256.416666
g0 z0
g1 x56.682391 y243.241666 f1000
g1 z-12 f500
g1 x56.682391 y166.972552 f1000
g0 z0
g1 x56.682391 y153.797552 f1000
g1 z-12 f500
g1 x56.682391 y141.736229 f1000
g1 x56.687291 y141.611596
g1 x56.718091 y141.220496
g1 x56.757063 y140.974496
g1 x56.848663 y140.592996
g1 x56.925557 y140.3563
g1 x57.075657 y139.9938
g1 x57.189038 y139.771315
g1 x57.394138 y139.436815
g1 x57.540202 y139.235799
g1 x57.794902 y138.937499
g1 x57.879659 y138.845797
g1 x67.879659 y128.845797
g1 x67.971361 y128.76104
g1 x68.269661 y128.50634
g1 x68.470677 y128.360276
g1 x68.805177 y128.155176
g1 x69.027662 y128.041795
g1 x69.390162 y127.891695
g1 x69.627057 y127.814753
g1 x70.008357 y127.723253
g1 x70.25456 y127.684297
g1 x70.64566 y127.653597
g1 x70.769891 y127.648729
g1 x75.769891 y127.648729
g1 x75.894122 y127.653597
g1 x76.285222 y127.684297
g1 z-18 f500
g1 x76.531241 y127.723209 f1000
g1 x76.912741 y127.814709
g1 x77.14982 y127.891695
g1 x77.51232 y128.041795
g1 x77.734805 y128.155176
g1 x78.069305 y128.360276
g1 x78.270321 y128.50634
g1 x78.568621 y128.76104
g1 x78.74508 y128.937499
g1 x78.99978 y129.235799
g1 x79.146025 y129.437109
g1 x79.351025 y129.771609
g1 x79.464082 y129.993455
g1 x79.614282 y130.355955
g1 x79.684293 y130.564869
g1 x88.025203 y162.706126
g0 z0
g1 x91.44422 y175.881126 f1000
g1 z-18 f500
g1 x94.806493 y188.837469 f1000
g1 x94.857391 y189.236229
g1 x94.857391 y229.236229
g1 x94.806492 y229.634993
g1 x89.369933 y250.584273
g0 z0
g1 x85.950881 y263.759273 f1000
g1 z-18 f500
g1 x79.684292 y287.906993 f1000
g1 x79.614578 y288.115189
g1 x79.464378 y288.478189
g1 x79.350471 y288.701651
g1 x79.145471 y289.035651
g1 x79.000972 y289.234661
g1 x78.746272 y289.533661
g1 x78.566979 y289.712917
g1 x78.268679 y289.966917
g1 x78.069011 y290.111763
g1 x77.734511 y290.316763
g1 x77.515424 y290.428673
g1 x77.152924 y290.579673
g1 x76.910827 y290.658407
g1 x76.529327 y290.749407
g1 x76.286429 y290.787765
g1 x75.895329 y290.818765
g1 x75.769891 y290.823729
g1 x70.769891 y290.823729
g1 x70.644453 y290.818765
g1 x70.253353 y290.787765
g1 x70.010272 y290.749363
g1 x69.628972 y290.658363
g1 x69.387058 y290.579673
g1 x69.024558 y290.428673
g1 x68.805471 y290.316763
g1 x68.470971 y290.111763
g1 x68.271303 y289.966917
g1 x67.973003 y289.712917
g1 x67.879659 y289.626761
g1 x57.879659 y279.626761
g1 x57.79371 y279.533661
g1 x57.53901 y279.234661
g1 x57.394691 y279.035945
g1 x57.189591 y278.701945
g1 x57.075362 y278.477844
g1 x56.925262 y278.114844
g1 x56.848773 y277.879321
g1 x56.757173 y277.498321
g1 x56.718093 y277.251894
g1 x56.687293 y276.860894
g1 x56.682391 y276.736229
g1 x56.682391 y256.416666
g0 z0
g1 x56.682391 y243.241666 f1000
g1 z-18 f500
g1 x56.682391 y166.972552 f1000
g0 z0
g1 x56.682391 y153.797552 f1000
g1 z-18 f500
g1 x56.682391 y141.736229 f1000
g1 x56.687291 y141.611596
g1 x56.718091 y141.220496
g1 x56.757063 y140.974496
g1 x56.848663 y140.592996
g1 x56.925557 y140.3563
g1 x57.075657 y139.9938
g1 x57.189038 y139.771315
g1 x57.394138 y139.436815
g1 x57.540202 y139.235799
g1 x57.794902 y138.937499
g1 x57.879659 y138.845797
g1 x67.879659 y128.845797
g1 x67.971361 y128.76104
g1 x68.269661 y128.50634
g1 x68.470677 y128.360276
g1 x68.805177 y128.155176
g1 x69.027662 y128.041795
g1 x69.390162 y127.891695
g1 x69.627057 y127.814753
g1 x70.008357 y127.723253
g1 x70.25456 y127.684297
g1 x70.64566 y127.653597
g1 x70.769891 y127.648729
g1 x75.769891 y127.648729
g1 x75.894122 y127.653597
g1 x76.285222 y127.684297
g0 z20
(Block-name: block)
(Block-expand: 0)
(Block-enable: 1)

(End cutting path id: path4)



(Footer)
M5
G0 X58.137591 Y129.103929
M2
(Using default footer. To add your own footer create file "footer" in the output dir.)
(end)

