(Block-name: Header)
(Block-expand: 0)
(Block-enable: 1)
%
(Header)
(Generated by gcodetools from Inkscape.)
(Using default header. To add your own header create file "header" in the output dir.)
M3
(Header end.)
G21 (All units in mm)

(Start cutting path id: path4)
(Change tool to Default tool)

G00 Z30.000000
(Block-name: path4)
(Block-expand: 0)
(Block-enable: 0)

(End cutting path id: path4)


(Start cutting path id: path4)
(Change tool to Default tool)

G00 Z30.000000
G00 X167.018035 Y217.734833

G01 Z-1.000000 F100.0(Penetrate)
G01 X167.073035 Y217.963732 Z-1.000000 F400.000000
G01 X167.163035 Y218.181132 Z-1.000000
G01 X167.286035 Y218.381932 Z-1.000000
G01 X167.439035 Y218.560933 Z-1.000000
G01 X167.618035 Y218.713632 Z-1.000000
G01 X167.819035 Y218.836632 Z-1.000000
G01 X168.036035 Y218.926832 Z-1.000000
G01 X168.265035 Y218.981732 Z-1.000000
G01 X168.500035 Y219.000222 Z-1.000000
G01 X168.735035 Y218.981732 Z-1.000000
G01 X168.963035 Y218.926832 Z-1.000000
G01 X169.181035 Y218.836632 Z-1.000000
G01 X169.382035 Y218.713632 Z-1.000000
G01 X169.561035 Y218.560933 Z-1.000000
G01 X169.714035 Y218.381932 Z-1.000000
G01 X169.837035 Y218.181132 Z-1.000000
G01 X169.927035 Y217.963732 Z-1.000000
G01 X169.981035 Y217.734833 Z-1.000000
G01 X170.000035 Y217.500131 Z-1.000000
G01 X169.981035 Y217.265630 Z-1.000000
G01 X169.927035 Y217.036731 Z-1.000000
G01 X169.837035 Y216.819331 Z-1.000000
G01 X169.714035 Y216.618430 Z-1.000000
G01 X169.561035 Y216.439532 Z-1.000000
G01 X169.382035 Y216.286632 Z-1.000000
G01 X169.181035 Y216.163630 Z-1.000000
G01 X168.963035 Y216.073630 Z-1.000000
G01 X168.735035 Y216.018630 Z-1.000000
G01 X168.500035 Y216.000240 Z-1.000000
G01 X168.265035 Y216.018630 Z-1.000000
G01 X168.036035 Y216.073630 Z-1.000000
G01 X167.819035 Y216.163630 Z-1.000000
G01 X167.618035 Y216.286632 Z-1.000000
G01 X167.439035 Y216.439532 Z-1.000000
G01 X167.286035 Y216.618430 Z-1.000000
G01 X167.163035 Y216.819331 Z-1.000000
G01 X167.073035 Y217.036731 Z-1.000000
G01 X167.018035 Y217.265630 Z-1.000000
G01 X167.000035 Y217.500131 Z-1.000000
G01 X167.018035 Y217.734833 Z-1.000000
G00 Z30.000000
(Block-name: path4 [in,cut])
(Block-expand: 0)
(Block-enable: 1)
g0 x167.761262 y217.617805
g1 z-1 f300
g1 x167.788523 y217.731258 f650
g1 x167.833421 y217.839713
g1 x167.894643 y217.939659
g1 x167.970751 y218.028701
g1 x168.059869 y218.104724
g1 x168.160762 y218.166465
g1 x168.268857 y218.211397
g1 x168.382595 y218.238664
g1 x168.500035 y218.247904
g1 x168.617101 y218.238693
g1 x168.730463 y218.211397
g1 x168.839832 y218.166144
g1 x168.940201 y218.104724
g1 x169.029319 y218.028701
g1 x169.105427 y217.939659
g1 x169.166649 y217.839713
g1 x169.21095 y217.7327
g1 x169.238055 y217.617806
g1 x169.247579 y217.500157
g1 x169.238061 y217.382682
g1 x169.21095 y217.267763
g1 x169.166616 y217.160672
g1 x169.105428 y217.06073
g1 x169.029241 y216.971647
g1 x168.93999 y216.89541
g1 x168.840081 y216.834271
g1 x168.730606 y216.789075
g1 x168.6171 y216.761694
g1 x168.500035 y216.752533
g1 x168.382595 y216.761723
g1 x168.268713 y216.789075
g1 x168.160511 y216.833951
g1 x168.06008 y216.89541
g1 x167.970829 y216.971647
g1 x167.894642 y217.06073
g1 x167.833454 y217.160672
g1 x167.788523 y217.269205
g1 x167.761256 y217.382682
g1 x167.752239 y217.500156
g1 x167.761262 y217.617805
g1 z-2 f300
g1 x167.788523 y217.731258 f650
g1 x167.833421 y217.839713
g1 x167.894643 y217.939659
g1 x167.970751 y218.028701
g1 x168.059869 y218.104724
g1 x168.160762 y218.166465
g1 x168.268857 y218.211397
g1 x168.382595 y218.238664
g1 x168.500035 y218.247904
g1 x168.617101 y218.238693
g1 x168.730463 y218.211397
g1 x168.839832 y218.166144
g1 x168.940201 y218.104724
g1 x169.029319 y218.028701
g1 x169.105427 y217.939659
g1 x169.166649 y217.839713
g1 x169.21095 y217.7327
g1 x169.238055 y217.617806
g1 x169.247579 y217.500157
g1 x169.238061 y217.382682
g1 x169.21095 y217.267763
g1 x169.166616 y217.160672
g1 x169.105428 y217.06073
g1 x169.029241 y216.971647
g1 x168.93999 y216.89541
g1 x168.840081 y216.834271
g1 x168.730606 y216.789075
g1 x168.6171 y216.761694
g1 x168.500035 y216.752533
g1 x168.382595 y216.761723
g1 x168.268713 y216.789075
g1 x168.160511 y216.833951
g1 x168.06008 y216.89541
g1 x167.970829 y216.971647
g1 x167.894642 y217.06073
g1 x167.833454 y217.160672
g1 x167.788523 y217.269205
g1 x167.761256 y217.382682
g1 x167.752239 y217.500156
g1 x167.761262 y217.617805
g1 z-3 f300
g1 x167.788523 y217.731258 f650
g1 x167.833421 y217.839713
g1 x167.894643 y217.939659
g1 x167.970751 y218.028701
g1 x168.059869 y218.104724
g1 x168.160762 y218.166465
g1 x168.268857 y218.211397
g1 x168.382595 y218.238664
g1 x168.500035 y218.247904
g1 x168.617101 y218.238693
g1 x168.730463 y218.211397
g1 x168.839832 y218.166144
g1 x168.940201 y218.104724
g1 x169.029319 y218.028701
g1 x169.105427 y217.939659
g1 x169.166649 y217.839713
g1 x169.21095 y217.7327
g1 x169.238055 y217.617806
g1 x169.247579 y217.500157
g1 x169.238061 y217.382682
g1 x169.21095 y217.267763
g1 x169.166616 y217.160672
g1 x169.105428 y217.06073
g1 x169.029241 y216.971647
g1 x168.93999 y216.89541
g1 x168.840081 y216.834271
g1 x168.730606 y216.789075
g1 x168.6171 y216.761694
g1 x168.500035 y216.752533
g1 x168.382595 y216.761723
g1 x168.268713 y216.789075
g1 x168.160511 y216.833951
g1 x168.06008 y216.89541
g1 x167.970829 y216.971647
g1 x167.894642 y217.06073
g1 x167.833454 y217.160672
g1 x167.788523 y217.269205
g1 x167.761256 y217.382682
g1 x167.752239 y217.500156
g1 x167.761262 y217.617805
g0 z30
(Block-name: path4)
(Block-expand: 0)
(Block-enable: 0)

(End cutting path id: path4)


(Start cutting path id: path4)
(Change tool to Default tool)

G00 Z30.000000
G00 X167.018031 Y177.734837

G01 Z-1.000000 F100.0(Penetrate)
G01 X167.073031 Y177.963737 Z-1.000000 F400.000000
G01 X167.163031 Y178.181137 Z-1.000000
G01 X167.286031 Y178.381937 Z-1.000000
G01 X167.439031 Y178.560937 Z-1.000000
G01 X167.618031 Y178.713637 Z-1.000000
G01 X167.819031 Y178.836637 Z-1.000000
G01 X168.036031 Y178.926837 Z-1.000000
G01 X168.265031 Y178.981737 Z-1.000000
G01 X168.500031 Y179.000237 Z-1.000000
G01 X168.735031 Y178.981737 Z-1.000000
G01 X168.963031 Y178.926837 Z-1.000000
G01 X169.181031 Y178.836637 Z-1.000000
G01 X169.382031 Y178.713637 Z-1.000000
G01 X169.561031 Y178.560937 Z-1.000000
G01 X169.714031 Y178.381937 Z-1.000000
G01 X169.837031 Y178.181137 Z-1.000000
G01 X169.927031 Y177.963737 Z-1.000000
G01 X169.981031 Y177.734837 Z-1.000000
G01 X170.000031 Y177.500137 Z-1.000000
G01 X169.981031 Y177.265637 Z-1.000000
G01 X169.927031 Y177.036737 Z-1.000000
G01 X169.837031 Y176.819337 Z-1.000000
G01 X169.714031 Y176.618437 Z-1.000000
G01 X169.561031 Y176.439537 Z-1.000000
G01 X169.382031 Y176.286637 Z-1.000000
G01 X169.181031 Y176.163637 Z-1.000000
G01 X168.963031 Y176.073637 Z-1.000000
G01 X168.735031 Y176.018637 Z-1.000000
G01 X168.500031 Y176.000237 Z-1.000000
G01 X168.265031 Y176.018637 Z-1.000000
G01 X168.036031 Y176.073637 Z-1.000000
G01 X167.819031 Y176.163637 Z-1.000000
G01 X167.618031 Y176.286637 Z-1.000000
G01 X167.439031 Y176.439537 Z-1.000000
G01 X167.286031 Y176.618437 Z-1.000000
G01 X167.163031 Y176.819337 Z-1.000000
G01 X167.073031 Y177.036737 Z-1.000000
G01 X167.018031 Y177.265637 Z-1.000000
G01 X167.000031 Y177.500137 Z-1.000000
G01 X167.018031 Y177.734837 Z-1.000000
G00 Z30.000000
(Block-name: path4 [in,cut])
(Block-expand: 0)
(Block-enable: 1)
g0 x167.761258 y177.617809
g1 z-1 f300
g1 x167.788519 y177.731263 f650
g1 x167.833417 y177.839718
g1 x167.894639 y177.939663
g1 x167.970747 y178.028705
g1 x168.059866 y178.10473
g1 x168.160758 y178.16647
g1 x168.268853 y178.211402
g1 x168.382606 y178.238673
g1 x168.500031 y178.247917
g1 x168.617082 y178.238702
g1 x168.730459 y178.211402
g1 x168.839828 y178.166149
g1 x168.940196 y178.10473
g1 x169.029315 y178.028705
g1 x169.105423 y177.939663
g1 x169.166645 y177.839718
g1 x169.210946 y177.732705
g1 x169.238051 y177.61781
g1 x169.247575 y177.500163
g1 x169.238057 y177.382689
g1 x169.210946 y177.267769
g1 x169.166613 y177.160679
g1 x169.105423 y177.060736
g1 x169.029235 y176.971651
g1 x168.939988 y176.895417
g1 x168.84008 y176.834279
g1 x168.730602 y176.789082
g1 x168.617081 y176.761697
g1 x168.500031 y176.752532
g1 x168.382606 y176.761727
g1 x168.268709 y176.789082
g1 x168.160505 y176.833959
g1 x168.060074 y176.895417
g1 x167.970827 y176.971651
g1 x167.894639 y177.060736
g1 x167.833449 y177.160679
g1 x167.788519 y177.269211
g1 x167.761252 y177.382689
g1 x167.752235 y177.500161
g1 x167.761258 y177.617809
g1 z-2 f300
g1 x167.788519 y177.731263 f650
g1 x167.833417 y177.839718
g1 x167.894639 y177.939663
g1 x167.970747 y178.028705
g1 x168.059866 y178.10473
g1 x168.160758 y178.16647
g1 x168.268853 y178.211402
g1 x168.382606 y178.238673
g1 x168.500031 y178.247917
g1 x168.617082 y178.238702
g1 x168.730459 y178.211402
g1 x168.839828 y178.166149
g1 x168.940196 y178.10473
g1 x169.029315 y178.028705
g1 x169.105423 y177.939663
g1 x169.166645 y177.839718
g1 x169.210946 y177.732705
g1 x169.238051 y177.61781
g1 x169.247575 y177.500163
g1 x169.238057 y177.382689
g1 x169.210946 y177.267769
g1 x169.166613 y177.160679
g1 x169.105423 y177.060736
g1 x169.029235 y176.971651
g1 x168.939988 y176.895417
g1 x168.84008 y176.834279
g1 x168.730602 y176.789082
g1 x168.617081 y176.761697
g1 x168.500031 y176.752532
g1 x168.382606 y176.761727
g1 x168.268709 y176.789082
g1 x168.160505 y176.833959
g1 x168.060074 y176.895417
g1 x167.970827 y176.971651
g1 x167.894639 y177.060736
g1 x167.833449 y177.160679
g1 x167.788519 y177.269211
g1 x167.761252 y177.382689
g1 x167.752235 y177.500161
g1 x167.761258 y177.617809
g1 z-3 f300
g1 x167.788519 y177.731263 f650
g1 x167.833417 y177.839718
g1 x167.894639 y177.939663
g1 x167.970747 y178.028705
g1 x168.059866 y178.10473
g1 x168.160758 y178.16647
g1 x168.268853 y178.211402
g1 x168.382606 y178.238673
g1 x168.500031 y178.247917
g1 x168.617082 y178.238702
g1 x168.730459 y178.211402
g1 x168.839828 y178.166149
g1 x168.940196 y178.10473
g1 x169.029315 y178.028705
g1 x169.105423 y177.939663
g1 x169.166645 y177.839718
g1 x169.210946 y177.732705
g1 x169.238051 y177.61781
g1 x169.247575 y177.500163
g1 x169.238057 y177.382689
g1 x169.210946 y177.267769
g1 x169.166613 y177.160679
g1 x169.105423 y177.060736
g1 x169.029235 y176.971651
g1 x168.939988 y176.895417
g1 x168.84008 y176.834279
g1 x168.730602 y176.789082
g1 x168.617081 y176.761697
g1 x168.500031 y176.752532
g1 x168.382606 y176.761727
g1 x168.268709 y176.789082
g1 x168.160505 y176.833959
g1 x168.060074 y176.895417
g1 x167.970827 y176.971651
g1 x167.894639 y177.060736
g1 x167.833449 y177.160679
g1 x167.788519 y177.269211
g1 x167.761252 y177.382689
g1 x167.752235 y177.500161
g1 x167.761258 y177.617809
g0 z30
(Block-name: path4)
(Block-expand: 0)
(Block-enable: 0)

(End cutting path id: path4)


(Start cutting path id: path4)
(Change tool to Default tool)

G00 Z30.000000
G00 X162.297030 Y172.500138

G01 Z-1.000000 F100.0(Penetrate)
G01 X146.984023 Y102.500138 Z-1.000000 F400.000000
G01 X130.016023 Y102.500139 Z-1.000000
G01 X114.703029 Y172.500142 Z-1.000000
G01 X162.297030 Y172.500138 Z-1.000000
G00 Z30.000000
(Block-name: path4 [in,cut])
(Block-expand: 0)
(Block-enable: 1)
g0 x161.365226 y171.750138
g1 z-1 f300
g1 x146.380355 y103.250138 f650
g1 x130.619691 y103.250139
g1 x115.634833 y171.750142
g1 x161.365226 y171.750138
g1 z-2 f300
g1 x146.380355 y103.250138 f650
g1 x130.619691 y103.250139
g1 x115.634833 y171.750142
g1 x161.365226 y171.750138
g1 z-3 f300
g1 x146.380355 y103.250138 f650
g1 x130.619691 y103.250139
g1 x115.634833 y171.750142
g1 x161.365226 y171.750138
g0 z30
(Block-name: path4)
(Block-expand: 0)
(Block-enable: 0)

(End cutting path id: path4)


(Start cutting path id: path4)
(Change tool to Default tool)

G00 Z30.000000
G00 X149.518019 Y62.735137

G01 Z-1.000000 F100.0(Penetrate)
G01 X149.573019 Y62.964137 Z-1.000000 F400.000000
G01 X149.663019 Y63.181137 Z-1.000000
G01 X149.786019 Y63.382137 Z-1.000000
G01 X149.939019 Y63.561137 Z-1.000000
G01 X150.118019 Y63.714137 Z-1.000000
G01 X150.319019 Y63.837137 Z-1.000000
G01 X150.536019 Y63.927136 Z-1.000000
G01 X150.765019 Y63.982136 Z-1.000000
G01 X151.000019 Y64.000136 Z-1.000000
G01 X151.235019 Y63.982136 Z-1.000000
G01 X151.463019 Y63.927136 Z-1.000000
G01 X151.681019 Y63.837136 Z-1.000000
G01 X151.882019 Y63.714136 Z-1.000000
G01 X152.061019 Y63.561136 Z-1.000000
G01 X152.214019 Y63.382136 Z-1.000000
G01 X152.337019 Y63.181136 Z-1.000000
G01 X152.427019 Y62.964136 Z-1.000000
G01 X152.481019 Y62.735136 Z-1.000000
G01 X152.500019 Y62.500136 Z-1.000000
G01 X152.481019 Y62.265136 Z-1.000000
G01 X152.427019 Y62.037136 Z-1.000000
G01 X152.337019 Y61.819136 Z-1.000000
G01 X152.214019 Y61.618136 Z-1.000000
G01 X152.061019 Y61.439136 Z-1.000000
G01 X151.882019 Y61.286136 Z-1.000000
G01 X151.681019 Y61.163136 Z-1.000000
G01 X151.463019 Y61.073136 Z-1.000000
G01 X151.235019 Y61.019136 Z-1.000000
G01 X151.000019 Y61.000136 Z-1.000000
G01 X150.765019 Y61.019136 Z-1.000000
G01 X150.536019 Y61.073136 Z-1.000000
G01 X150.319019 Y61.163136 Z-1.000000
G01 X150.118019 Y61.286136 Z-1.000000
G01 X149.939019 Y61.439136 Z-1.000000
G01 X149.786019 Y61.618137 Z-1.000000
G01 X149.663019 Y61.819137 Z-1.000000
G01 X149.573019 Y62.037137 Z-1.000000
G01 X149.518019 Y62.265137 Z-1.000000
G01 X149.500019 Y62.500137 Z-1.000000
G01 X149.518019 Y62.735137 Z-1.000000
G00 Z30.000000
(Block-name: path4 [in,cut])
(Block-expand: 0)
(Block-enable: 1)
g0 x150.261258 y62.618182
g1 z-1 f300
g1 x150.288464 y62.731459 f650
g1 x150.333341 y62.839663
g1 x150.394735 y62.93999
g1 x150.470973 y63.029183
g1 x150.560166 y63.105421
g1 x150.660492 y63.166814
g1 x150.768695 y63.211691
g1 x150.881974 y63.238897
g1 x151.000019 y63.247939
g1 x151.11769 y63.238926
g1 x151.23059 y63.211691
g1 x151.340068 y63.166494
g1 x151.439872 y63.10542
g1 x151.529065 y63.029182
g1 x151.605303 y62.939989
g1 x151.666697 y62.839662
g1 x151.710977 y62.732899
g1 x151.738027 y62.618184
g1 x151.747572 y62.500136
g1 x151.738057 y62.382457
g1 x151.710977 y62.268118
g1 x151.666377 y62.160087
g1 x151.605303 y62.060283
g1 x151.529065 y61.97109
g1 x151.439872 y61.894852
g1 x151.340068 y61.833778
g1 x151.232037 y61.789178
g1 x151.117698 y61.762098
g1 x151.000019 y61.752583
g1 x150.881971 y61.762128
g1 x150.767256 y61.789178
g1 x150.660493 y61.833458
g1 x150.560166 y61.894852
g1 x150.470974 y61.971089
g1 x150.394736 y62.060283
g1 x150.333661 y62.160088
g1 x150.288464 y62.269566
g1 x150.261229 y62.382466
g1 x150.252216 y62.500137
g1 x150.261258 y62.618182
g1 z-2 f300
g1 x150.288464 y62.731459 f650
g1 x150.333341 y62.839663
g1 x150.394735 y62.93999
g1 x150.470973 y63.029183
g1 x150.560166 y63.105421
g1 x150.660492 y63.166814
g1 x150.768695 y63.211691
g1 x150.881974 y63.238897
g1 x151.000019 y63.247939
g1 x151.11769 y63.238926
g1 x151.23059 y63.211691
g1 x151.340068 y63.166494
g1 x151.439872 y63.10542
g1 x151.529065 y63.029182
g1 x151.605303 y62.939989
g1 x151.666697 y62.839662
g1 x151.710977 y62.732899
g1 x151.738027 y62.618184
g1 x151.747572 y62.500136
g1 x151.738057 y62.382457
g1 x151.710977 y62.268118
g1 x151.666377 y62.160087
g1 x151.605303 y62.060283
g1 x151.529065 y61.97109
g1 x151.439872 y61.894852
g1 x151.340068 y61.833778
g1 x151.232037 y61.789178
g1 x151.117698 y61.762098
g1 x151.000019 y61.752583
g1 x150.881971 y61.762128
g1 x150.767256 y61.789178
g1 x150.660493 y61.833458
g1 x150.560166 y61.894852
g1 x150.470974 y61.971089
g1 x150.394736 y62.060283
g1 x150.333661 y62.160088
g1 x150.288464 y62.269566
g1 x150.261229 y62.382466
g1 x150.252216 y62.500137
g1 x150.261258 y62.618182
g1 z-3 f300
g1 x150.288464 y62.731459 f650
g1 x150.333341 y62.839663
g1 x150.394735 y62.93999
g1 x150.470973 y63.029183
g1 x150.560166 y63.105421
g1 x150.660492 y63.166814
g1 x150.768695 y63.211691
g1 x150.881974 y63.238897
g1 x151.000019 y63.247939
g1 x151.11769 y63.238926
g1 x151.23059 y63.211691
g1 x151.340068 y63.166494
g1 x151.439872 y63.10542
g1 x151.529065 y63.029182
g1 x151.605303 y62.939989
g1 x151.666697 y62.839662
g1 x151.710977 y62.732899
g1 x151.738027 y62.618184
g1 x151.747572 y62.500136
g1 x151.738057 y62.382457
g1 x151.710977 y62.268118
g1 x151.666377 y62.160087
g1 x151.605303 y62.060283
g1 x151.529065 y61.97109
g1 x151.439872 y61.894852
g1 x151.340068 y61.833778
g1 x151.232037 y61.789178
g1 x151.117698 y61.762098
g1 x151.000019 y61.752583
g1 x150.881971 y61.762128
g1 x150.767256 y61.789178
g1 x150.660493 y61.833458
g1 x150.560166 y61.894852
g1 x150.470974 y61.971089
g1 x150.394736 y62.060283
g1 x150.333661 y62.160088
g1 x150.288464 y62.269566
g1 x150.261229 y62.382466
g1 x150.252216 y62.500137
g1 x150.261258 y62.618182
g0 z30
(Block-name: path4)
(Block-expand: 0)
(Block-enable: 0)

(End cutting path id: path4)


(Start cutting path id: path4)
(Change tool to Default tool)

G00 Z30.000000
G00 X137.018030 Y177.734840

G01 Z-1.000000 F100.0(Penetrate)
G01 X137.073030 Y177.963740 Z-1.000000 F400.000000
G01 X137.163030 Y178.181140 Z-1.000000
G01 X137.286030 Y178.381940 Z-1.000000
G01 X137.439030 Y178.560940 Z-1.000000
G01 X137.618030 Y178.713640 Z-1.000000
G01 X137.819030 Y178.836640 Z-1.000000
G01 X138.036030 Y178.926840 Z-1.000000
G01 X138.265030 Y178.981740 Z-1.000000
G01 X138.500030 Y179.000240 Z-1.000000
G01 X138.735030 Y178.981740 Z-1.000000
G01 X138.963030 Y178.926840 Z-1.000000
G01 X139.181030 Y178.836640 Z-1.000000
G01 X139.382030 Y178.713640 Z-1.000000
G01 X139.561030 Y178.560940 Z-1.000000
G01 X139.714030 Y178.381940 Z-1.000000
G01 X139.837030 Y178.181140 Z-1.000000
G01 X139.927030 Y177.963740 Z-1.000000
G01 X139.981030 Y177.734840 Z-1.000000
G01 X140.000030 Y177.500140 Z-1.000000
G01 X139.981030 Y177.265640 Z-1.000000
G01 X139.927030 Y177.036740 Z-1.000000
G01 X139.837030 Y176.819340 Z-1.000000
G01 X139.714030 Y176.618440 Z-1.000000
G01 X139.561030 Y176.439540 Z-1.000000
G01 X139.382030 Y176.286640 Z-1.000000
G01 X139.181030 Y176.163640 Z-1.000000
G01 X138.963030 Y176.073640 Z-1.000000
G01 X138.735030 Y176.018640 Z-1.000000
G01 X138.500030 Y176.000240 Z-1.000000
G01 X138.265030 Y176.018640 Z-1.000000
G01 X138.036030 Y176.073640 Z-1.000000
G01 X137.819030 Y176.163640 Z-1.000000
G01 X137.618030 Y176.286640 Z-1.000000
G01 X137.439030 Y176.439540 Z-1.000000
G01 X137.286030 Y176.618440 Z-1.000000
G01 X137.163030 Y176.819340 Z-1.000000
G01 X137.073030 Y177.036740 Z-1.000000
G01 X137.018030 Y177.265640 Z-1.000000
G01 X137.000030 Y177.500140 Z-1.000000
G01 X137.018030 Y177.734840 Z-1.000000
G00 Z30.000000
(Block-name: path4 [in,cut])
(Block-expand: 0)
(Block-enable: 1)
g0 x137.761257 y177.617812
g1 z-1 f300
g1 x137.788518 y177.731266 f650
g1 x137.833416 y177.839721
g1 x137.894638 y177.939666
g1 x137.970746 y178.028708
g1 x138.059865 y178.104733
g1 x138.160757 y178.166473
g1 x138.268852 y178.211405
g1 x138.382605 y178.238676
g1 x138.50003 y178.24792
g1 x138.617081 y178.238705
g1 x138.730458 y178.211405
g1 x138.839827 y178.166152
g1 x138.940195 y178.104733
g1 x139.029314 y178.028708
g1 x139.105422 y177.939666
g1 x139.166644 y177.839721
g1 x139.210945 y177.732708
g1 x139.23805 y177.617813
g1 x139.247574 y177.500166
g1 x139.238056 y177.382692
g1 x139.210945 y177.267772
g1 x139.166612 y177.160682
g1 x139.105422 y177.060739
g1 x139.029234 y176.971654
g1 x138.939987 y176.89542
g1 x138.840079 y176.834282
g1 x138.730601 y176.789085
g1 x138.61708 y176.7617
g1 x138.50003 y176.752535
g1 x138.382605 y176.76173
g1 x138.268708 y176.789085
g1 x138.160504 y176.833962
g1 x138.060073 y176.89542
g1 x137.970826 y176.971654
g1 x137.894638 y177.060739
g1 x137.833448 y177.160682
g1 x137.788518 y177.269214
g1 x137.761251 y177.382692
g1 x137.752234 y177.500164
g1 x137.761257 y177.617812
g1 z-2 f300
g1 x137.788518 y177.731266 f650
g1 x137.833416 y177.839721
g1 x137.894638 y177.939666
g1 x137.970746 y178.028708
g1 x138.059865 y178.104733
g1 x138.160757 y178.166473
g1 x138.268852 y178.211405
g1 x138.382605 y178.238676
g1 x138.50003 y178.24792
g1 x138.617081 y178.238705
g1 x138.730458 y178.211405
g1 x138.839827 y178.166152
g1 x138.940195 y178.104733
g1 x139.029314 y178.028708
g1 x139.105422 y177.939666
g1 x139.166644 y177.839721
g1 x139.210945 y177.732708
g1 x139.23805 y177.617813
g1 x139.247574 y177.500166
g1 x139.238056 y177.382692
g1 x139.210945 y177.267772
g1 x139.166612 y177.160682
g1 x139.105422 y177.060739
g1 x139.029234 y176.971654
g1 x138.939987 y176.89542
g1 x138.840079 y176.834282
g1 x138.730601 y176.789085
g1 x138.61708 y176.7617
g1 x138.50003 y176.752535
g1 x138.382605 y176.76173
g1 x138.268708 y176.789085
g1 x138.160504 y176.833962
g1 x138.060073 y176.89542
g1 x137.970826 y176.971654
g1 x137.894638 y177.060739
g1 x137.833448 y177.160682
g1 x137.788518 y177.269214
g1 x137.761251 y177.382692
g1 x137.752234 y177.500164
g1 x137.761257 y177.617812
g1 z-3 f300
g1 x137.788518 y177.731266 f650
g1 x137.833416 y177.839721
g1 x137.894638 y177.939666
g1 x137.970746 y178.028708
g1 x138.059865 y178.104733
g1 x138.160757 y178.166473
g1 x138.268852 y178.211405
g1 x138.382605 y178.238676
g1 x138.50003 y178.24792
g1 x138.617081 y178.238705
g1 x138.730458 y178.211405
g1 x138.839827 y178.166152
g1 x138.940195 y178.104733
g1 x139.029314 y178.028708
g1 x139.105422 y177.939666
g1 x139.166644 y177.839721
g1 x139.210945 y177.732708
g1 x139.23805 y177.617813
g1 x139.247574 y177.500166
g1 x139.238056 y177.382692
g1 x139.210945 y177.267772
g1 x139.166612 y177.160682
g1 x139.105422 y177.060739
g1 x139.029234 y176.971654
g1 x138.939987 y176.89542
g1 x138.840079 y176.834282
g1 x138.730601 y176.789085
g1 x138.61708 y176.7617
g1 x138.50003 y176.752535
g1 x138.382605 y176.76173
g1 x138.268708 y176.789085
g1 x138.160504 y176.833962
g1 x138.060073 y176.89542
g1 x137.970826 y176.971654
g1 x137.894638 y177.060739
g1 x137.833448 y177.160682
g1 x137.788518 y177.269214
g1 x137.761251 y177.382692
g1 x137.752234 y177.500164
g1 x137.761257 y177.617812
g0 z30
(Block-name: path4)
(Block-expand: 0)
(Block-enable: 0)

(End cutting path id: path4)


(Start cutting path id: path4)
(Change tool to Default tool)

G00 Z30.000000
G00 X124.518019 Y62.735139

G01 Z-1.000000 F100.0(Penetrate)
G01 X124.573019 Y62.964139 Z-1.000000 F400.000000
G01 X124.663019 Y63.181139 Z-1.000000
G01 X124.786019 Y63.382139 Z-1.000000
G01 X124.939019 Y63.561139 Z-1.000000
G01 X125.118019 Y63.714139 Z-1.000000
G01 X125.319019 Y63.837139 Z-1.000000
G01 X125.536019 Y63.927139 Z-1.000000
G01 X125.765019 Y63.982139 Z-1.000000
G01 X126.000019 Y64.000139 Z-1.000000
G01 X126.235019 Y63.982139 Z-1.000000
G01 X126.463019 Y63.927139 Z-1.000000
G01 X126.681019 Y63.837139 Z-1.000000
G01 X126.882019 Y63.714139 Z-1.000000
G01 X127.061019 Y63.561139 Z-1.000000
G01 X127.214019 Y63.382139 Z-1.000000
G01 X127.337019 Y63.181139 Z-1.000000
G01 X127.427019 Y62.964139 Z-1.000000
G01 X127.481019 Y62.735139 Z-1.000000
G01 X127.500019 Y62.500139 Z-1.000000
G01 X127.481019 Y62.265139 Z-1.000000
G01 X127.427019 Y62.037139 Z-1.000000
G01 X127.337019 Y61.819139 Z-1.000000
G01 X127.214019 Y61.618139 Z-1.000000
G01 X127.061019 Y61.439139 Z-1.000000
G01 X126.882019 Y61.286139 Z-1.000000
G01 X126.681019 Y61.163139 Z-1.000000
G01 X126.463019 Y61.073139 Z-1.000000
G01 X126.235019 Y61.019139 Z-1.000000
G01 X126.000019 Y61.000139 Z-1.000000
G01 X125.765019 Y61.019139 Z-1.000000
G01 X125.536019 Y61.073139 Z-1.000000
G01 X125.319019 Y61.163139 Z-1.000000
G01 X125.118019 Y61.286139 Z-1.000000
G01 X124.939019 Y61.439139 Z-1.000000
G01 X124.786019 Y61.618139 Z-1.000000
G01 X124.663019 Y61.819139 Z-1.000000
G01 X124.573019 Y62.037139 Z-1.000000
G01 X124.518019 Y62.265139 Z-1.000000
G01 X124.500019 Y62.500139 Z-1.000000
G01 X124.518019 Y62.735139 Z-1.000000
G00 Z30.000000
(Block-name: path4 [in,cut])
(Block-expand: 0)
(Block-enable: 1)
g0 x125.261258 y62.618184
g1 z-1 f300
g1 x125.288464 y62.731461 f650
g1 x125.333341 y62.839665
g1 x125.394735 y62.939992
g1 x125.470973 y63.029185
g1 x125.560166 y63.105423
g1 x125.660493 y63.166817
g1 x125.768697 y63.211694
g1 x125.881974 y63.2389
g1 x126.000019 y63.247942
g1 x126.11769 y63.238929
g1 x126.23059 y63.211694
g1 x126.340068 y63.166497
g1 x126.439872 y63.105423
g1 x126.529065 y63.029185
g1 x126.605303 y62.939992
g1 x126.666697 y62.839665
g1 x126.710977 y62.732902
g1 x126.738027 y62.618187
g1 x126.747572 y62.500139
g1 x126.738057 y62.38246
g1 x126.710977 y62.268121
g1 x126.666377 y62.16009
g1 x126.605303 y62.060286
g1 x126.529065 y61.971093
g1 x126.439872 y61.894855
g1 x126.340068 y61.833781
g1 x126.232037 y61.789181
g1 x126.117698 y61.762101
g1 x126.000019 y61.752586
g1 x125.881971 y61.762131
g1 x125.767256 y61.789181
g1 x125.660493 y61.833461
g1 x125.560166 y61.894855
g1 x125.470973 y61.971093
g1 x125.394735 y62.060286
g1 x125.333661 y62.16009
g1 x125.288464 y62.269568
g1 x125.261229 y62.382468
g1 x125.252216 y62.500139
g1 x125.261258 y62.618184
g1 z-2 f300
g1 x125.288464 y62.731461 f650
g1 x125.333341 y62.839665
g1 x125.394735 y62.939992
g1 x125.470973 y63.029185
g1 x125.560166 y63.105423
g1 x125.660493 y63.166817
g1 x125.768697 y63.211694
g1 x125.881974 y63.2389
g1 x126.000019 y63.247942
g1 x126.11769 y63.238929
g1 x126.23059 y63.211694
g1 x126.340068 y63.166497
g1 x126.439872 y63.105423
g1 x126.529065 y63.029185
g1 x126.605303 y62.939992
g1 x126.666697 y62.839665
g1 x126.710977 y62.732902
g1 x126.738027 y62.618187
g1 x126.747572 y62.500139
g1 x126.738057 y62.38246
g1 x126.710977 y62.268121
g1 x126.666377 y62.16009
g1 x126.605303 y62.060286
g1 x126.529065 y61.971093
g1 x126.439872 y61.894855
g1 x126.340068 y61.833781
g1 x126.232037 y61.789181
g1 x126.117698 y61.762101
g1 x126.000019 y61.752586
g1 x125.881971 y61.762131
g1 x125.767256 y61.789181
g1 x125.660493 y61.833461
g1 x125.560166 y61.894855
g1 x125.470973 y61.971093
g1 x125.394735 y62.060286
g1 x125.333661 y62.16009
g1 x125.288464 y62.269568
g1 x125.261229 y62.382468
g1 x125.252216 y62.500139
g1 x125.261258 y62.618184
g1 z-3 f300
g1 x125.288464 y62.731461 f650
g1 x125.333341 y62.839665
g1 x125.394735 y62.939992
g1 x125.470973 y63.029185
g1 x125.560166 y63.105423
g1 x125.660493 y63.166817
g1 x125.768697 y63.211694
g1 x125.881974 y63.2389
g1 x126.000019 y63.247942
g1 x126.11769 y63.238929
g1 x126.23059 y63.211694
g1 x126.340068 y63.166497
g1 x126.439872 y63.105423
g1 x126.529065 y63.029185
g1 x126.605303 y62.939992
g1 x126.666697 y62.839665
g1 x126.710977 y62.732902
g1 x126.738027 y62.618187
g1 x126.747572 y62.500139
g1 x126.738057 y62.38246
g1 x126.710977 y62.268121
g1 x126.666377 y62.16009
g1 x126.605303 y62.060286
g1 x126.529065 y61.971093
g1 x126.439872 y61.894855
g1 x126.340068 y61.833781
g1 x126.232037 y61.789181
g1 x126.117698 y61.762101
g1 x126.000019 y61.752586
g1 x125.881971 y61.762131
g1 x125.767256 y61.789181
g1 x125.660493 y61.833461
g1 x125.560166 y61.894855
g1 x125.470973 y61.971093
g1 x125.394735 y62.060286
g1 x125.333661 y62.16009
g1 x125.288464 y62.269568
g1 x125.261229 y62.382468
g1 x125.252216 y62.500139
g1 x125.261258 y62.618184
g0 z30
(Block-name: path4)
(Block-expand: 0)
(Block-enable: 0)

(End cutting path id: path4)


(Start cutting path id: path4)
(Change tool to Default tool)

G00 Z30.000000
G00 X113.525030 Y177.813142

G01 Z-1.000000 F100.0(Penetrate)
G01 X113.598030 Y178.118242 Z-1.000000 F400.000000
G01 X113.718030 Y178.408242 Z-1.000000
G01 X113.882030 Y178.675842 Z-1.000000
G01 X114.086030 Y178.914442 Z-1.000000
G01 X114.324030 Y179.118142 Z-1.000000
G01 X114.592030 Y179.282242 Z-1.000000
G01 X114.882030 Y179.402342 Z-1.000000
G01 X115.187030 Y179.475542 Z-1.000000
G01 X115.500030 Y179.500242 Z-1.000000
G01 X115.813030 Y179.475542 Z-1.000000
G01 X116.118030 Y179.402342 Z-1.000000
G01 X116.408030 Y179.282242 Z-1.000000
G01 X116.676030 Y179.118142 Z-1.000000
G01 X116.914030 Y178.914442 Z-1.000000
G01 X117.118030 Y178.675842 Z-1.000000
G01 X117.282030 Y178.408242 Z-1.000000
G01 X117.402030 Y178.118242 Z-1.000000
G01 X117.475030 Y177.813142 Z-1.000000
G01 X117.500030 Y177.500142 Z-1.000000
G01 X117.475030 Y177.187342 Z-1.000000
G01 X117.402030 Y176.882142 Z-1.000000
G01 X117.282030 Y176.592242 Z-1.000000
G01 X117.118030 Y176.324642 Z-1.000000
G01 X116.914030 Y176.085942 Z-1.000000
G01 X116.676030 Y175.882142 Z-1.000000
G01 X116.408030 Y175.718242 Z-1.000000
G01 X116.118030 Y175.598142 Z-1.000000
G01 X115.813030 Y175.524842 Z-1.000000
G01 X115.500030 Y175.500142 Z-1.000000
G01 X115.187030 Y175.524842 Z-1.000000
G01 X114.882030 Y175.598142 Z-1.000000
G01 X114.592030 Y175.718242 Z-1.000000
G01 X114.324030 Y175.882142 Z-1.000000
G01 X114.086030 Y176.085942 Z-1.000000
G01 X113.882030 Y176.324642 Z-1.000000
G01 X113.718030 Y176.592242 Z-1.000000
G01 X113.598030 Y176.882142 Z-1.000000
G01 X113.525030 Y177.187342 Z-1.000000
G01 X113.500030 Y177.500142 Z-1.000000
G01 X113.525030 Y177.813142 Z-1.000000
G00 Z30.000000
(Block-name: path4 [in,cut])
(Block-expand: 0)
(Block-enable: 1)
g0 x114.268007 y177.695316
g1 z-1 f300
g1 x114.313671 y177.886162 f650
g1 x114.388416 y178.066798
g1 x114.490556 y178.23346
g1 x114.618105 y178.382642
g1 x114.766465 y178.509621
g1 x114.933431 y178.611857
g1 x115.11446 y178.686828
g1 x115.304768 y178.732501
g1 x115.50003 y178.74791
g1 x115.695292 y178.732501
g1 x115.8856 y178.686828
g1 x116.066629 y178.611857
g1 x116.233595 y178.509621
g1 x116.381955 y178.382642
g1 x116.509504 y178.23346
g1 x116.611644 y178.066798
g1 x116.686389 y177.886162
g1 x116.732053 y177.695316
g1 x116.74764 y177.500161
g1 x116.732055 y177.305159
g1 x116.686389 y177.114241
g1 x116.611668 y176.933725
g1 x116.509463 y176.766957
g1 x116.381836 y176.617622
g1 x116.233672 y176.490748
g1 x116.066818 y176.388706
g1 x115.885492 y176.313612
g1 x115.695175 y176.267873
g1 x115.50003 y176.252474
g1 x115.304885 y176.267873
g1 x115.114568 y176.313612
g1 x114.933242 y176.388706
g1 x114.766388 y176.490748
g1 x114.618224 y176.617622
g1 x114.490597 y176.766957
g1 x114.388392 y176.933725
g1 x114.313671 y177.114241
g1 x114.268005 y177.305159
g1 x114.25242 y177.500161
g1 x114.268007 y177.695316
g1 z-2 f300
g1 x114.313671 y177.886162 f650
g1 x114.388416 y178.066798
g1 x114.490556 y178.23346
g1 x114.618105 y178.382642
g1 x114.766465 y178.509621
g1 x114.933431 y178.611857
g1 x115.11446 y178.686828
g1 x115.304768 y178.732501
g1 x115.50003 y178.74791
g1 x115.695292 y178.732501
g1 x115.8856 y178.686828
g1 x116.066629 y178.611857
g1 x116.233595 y178.509621
g1 x116.381955 y178.382642
g1 x116.509504 y178.23346
g1 x116.611644 y178.066798
g1 x116.686389 y177.886162
g1 x116.732053 y177.695316
g1 x116.74764 y177.500161
g1 x116.732055 y177.305159
g1 x116.686389 y177.114241
g1 x116.611668 y176.933725
g1 x116.509463 y176.766957
g1 x116.381836 y176.617622
g1 x116.233672 y176.490748
g1 x116.066818 y176.388706
g1 x115.885492 y176.313612
g1 x115.695175 y176.267873
g1 x115.50003 y176.252474
g1 x115.304885 y176.267873
g1 x115.114568 y176.313612
g1 x114.933242 y176.388706
g1 x114.766388 y176.490748
g1 x114.618224 y176.617622
g1 x114.490597 y176.766957
g1 x114.388392 y176.933725
g1 x114.313671 y177.114241
g1 x114.268005 y177.305159
g1 x114.25242 y177.500161
g1 x114.268007 y177.695316
g1 z-3 f300
g1 x114.313671 y177.886162 f650
g1 x114.388416 y178.066798
g1 x114.490556 y178.23346
g1 x114.618105 y178.382642
g1 x114.766465 y178.509621
g1 x114.933431 y178.611857
g1 x115.11446 y178.686828
g1 x115.304768 y178.732501
g1 x115.50003 y178.74791
g1 x115.695292 y178.732501
g1 x115.8856 y178.686828
g1 x116.066629 y178.611857
g1 x116.233595 y178.509621
g1 x116.381955 y178.382642
g1 x116.509504 y178.23346
g1 x116.611644 y178.066798
g1 x116.686389 y177.886162
g1 x116.732053 y177.695316
g1 x116.74764 y177.500161
g1 x116.732055 y177.305159
g1 x116.686389 y177.114241
g1 x116.611668 y176.933725
g1 x116.509463 y176.766957
g1 x116.381836 y176.617622
g1 x116.233672 y176.490748
g1 x116.066818 y176.388706
g1 x115.885492 y176.313612
g1 x115.695175 y176.267873
g1 x115.50003 y176.252474
g1 x115.304885 y176.267873
g1 x115.114568 y176.313612
g1 x114.933242 y176.388706
g1 x114.766388 y176.490748
g1 x114.618224 y176.617622
g1 x114.490597 y176.766957
g1 x114.388392 y176.933725
g1 x114.313671 y177.114241
g1 x114.268005 y177.305159
g1 x114.25242 y177.500161
g1 x114.268007 y177.695316
g0 z30
(Block-name: path4)
(Block-expand: 0)
(Block-enable: 0)

(End cutting path id: path4)


(Start cutting path id: path4)
(Change tool to Default tool)

G00 Z30.000000
G00 X107.018030 Y177.734843

G01 Z-1.000000 F100.0(Penetrate)
G01 X107.073030 Y177.963743 Z-1.000000 F400.000000
G01 X107.163030 Y178.181143 Z-1.000000
G01 X107.286030 Y178.381943 Z-1.000000
G01 X107.439030 Y178.560943 Z-1.000000
G01 X107.618030 Y178.713643 Z-1.000000
G01 X107.819030 Y178.836643 Z-1.000000
G01 X108.036030 Y178.926843 Z-1.000000
G01 X108.265030 Y178.981743 Z-1.000000
G01 X108.500030 Y179.000243 Z-1.000000
G01 X108.735030 Y178.981743 Z-1.000000
G01 X108.963030 Y178.926843 Z-1.000000
G01 X109.181030 Y178.836643 Z-1.000000
G01 X109.382030 Y178.713643 Z-1.000000
G01 X109.561030 Y178.560943 Z-1.000000
G01 X109.714030 Y178.381943 Z-1.000000
G01 X109.837030 Y178.181143 Z-1.000000
G01 X109.927030 Y177.963743 Z-1.000000
G01 X109.981030 Y177.734843 Z-1.000000
G01 X110.000030 Y177.500143 Z-1.000000
G01 X109.981030 Y177.265643 Z-1.000000
G01 X109.927030 Y177.036743 Z-1.000000
G01 X109.837030 Y176.819343 Z-1.000000
G01 X109.714030 Y176.618443 Z-1.000000
G01 X109.561030 Y176.439543 Z-1.000000
G01 X109.382030 Y176.286643 Z-1.000000
G01 X109.181029 Y176.163643 Z-1.000000
G01 X108.963029 Y176.073643 Z-1.000000
G01 X108.735029 Y176.018643 Z-1.000000
G01 X108.500029 Y176.000243 Z-1.000000
G01 X108.265029 Y176.018643 Z-1.000000
G01 X108.036029 Y176.073643 Z-1.000000
G01 X107.819029 Y176.163643 Z-1.000000
G01 X107.618029 Y176.286643 Z-1.000000
G01 X107.439029 Y176.439543 Z-1.000000
G01 X107.286030 Y176.618443 Z-1.000000
G01 X107.163030 Y176.819343 Z-1.000000
G01 X107.073030 Y177.036743 Z-1.000000
G01 X107.018030 Y177.265643 Z-1.000000
G01 X107.000030 Y177.500143 Z-1.000000
G01 X107.018030 Y177.734843 Z-1.000000
G00 Z30.000000
(Block-name: path4 [in,cut])
(Block-expand: 0)
(Block-enable: 1)
g0 x107.761257 y177.617815
g1 z-1 f300
g1 x107.788518 y177.731269 f650
g1 x107.833416 y177.839724
g1 x107.894638 y177.939669
g1 x107.970746 y178.028711
g1 x108.059865 y178.104736
g1 x108.160757 y178.166476
g1 x108.268852 y178.211408
g1 x108.382605 y178.238679
g1 x108.50003 y178.247923
g1 x108.617081 y178.238708
g1 x108.730458 y178.211408
g1 x108.839827 y178.166155
g1 x108.940195 y178.104736
g1 x109.029314 y178.028711
g1 x109.105422 y177.939669
g1 x109.166644 y177.839724
g1 x109.210945 y177.732711
g1 x109.23805 y177.617816
g1 x109.247574 y177.500169
g1 x109.238056 y177.382695
g1 x109.210945 y177.267775
g1 x109.166612 y177.160685
g1 x109.105422 y177.060742
g1 x109.029234 y176.971657
g1 x108.939988 y176.895423
g1 x108.840079 y176.834285
g1 x108.7306 y176.789088
g1 x108.617079 y176.761703
g1 x108.500029 y176.752538
g1 x108.382604 y176.761733
g1 x108.268707 y176.789088
g1 x108.160503 y176.833965
g1 x108.060072 y176.895423
g1 x107.970825 y176.971656
g1 x107.894638 y177.060741
g1 x107.833448 y177.160685
g1 x107.788518 y177.269217
g1 x107.761251 y177.382695
g1 x107.752234 y177.500167
g1 x107.761257 y177.617815
g1 z-2 f300
g1 x107.788518 y177.731269 f650
g1 x107.833416 y177.839724
g1 x107.894638 y177.939669
g1 x107.970746 y178.028711
g1 x108.059865 y178.104736
g1 x108.160757 y178.166476
g1 x108.268852 y178.211408
g1 x108.382605 y178.238679
g1 x108.50003 y178.247923
g1 x108.617081 y178.238708
g1 x108.730458 y178.211408
g1 x108.839827 y178.166155
g1 x108.940195 y178.104736
g1 x109.029314 y178.028711
g1 x109.105422 y177.939669
g1 x109.166644 y177.839724
g1 x109.210945 y177.732711
g1 x109.23805 y177.617816
g1 x109.247574 y177.500169
g1 x109.238056 y177.382695
g1 x109.210945 y177.267775
g1 x109.166612 y177.160685
g1 x109.105422 y177.060742
g1 x109.029234 y176.971657
g1 x108.939988 y176.895423
g1 x108.840079 y176.834285
g1 x108.7306 y176.789088
g1 x108.617079 y176.761703
g1 x108.500029 y176.752538
g1 x108.382604 y176.761733
g1 x108.268707 y176.789088
g1 x108.160503 y176.833965
g1 x108.060072 y176.895423
g1 x107.970825 y176.971656
g1 x107.894638 y177.060741
g1 x107.833448 y177.160685
g1 x107.788518 y177.269217
g1 x107.761251 y177.382695
g1 x107.752234 y177.500167
g1 x107.761257 y177.617815
g1 z-3 f300
g1 x107.788518 y177.731269 f650
g1 x107.833416 y177.839724
g1 x107.894638 y177.939669
g1 x107.970746 y178.028711
g1 x108.059865 y178.104736
g1 x108.160757 y178.166476
g1 x108.268852 y178.211408
g1 x108.382605 y178.238679
g1 x108.50003 y178.247923
g1 x108.617081 y178.238708
g1 x108.730458 y178.211408
g1 x108.839827 y178.166155
g1 x108.940195 y178.104736
g1 x109.029314 y178.028711
g1 x109.105422 y177.939669
g1 x109.166644 y177.839724
g1 x109.210945 y177.732711
g1 x109.23805 y177.617816
g1 x109.247574 y177.500169
g1 x109.238056 y177.382695
g1 x109.210945 y177.267775
g1 x109.166612 y177.160685
g1 x109.105422 y177.060742
g1 x109.029234 y176.971657
g1 x108.939988 y176.895423
g1 x108.840079 y176.834285
g1 x108.7306 y176.789088
g1 x108.617079 y176.761703
g1 x108.500029 y176.752538
g1 x108.382604 y176.761733
g1 x108.268707 y176.789088
g1 x108.160503 y176.833965
g1 x108.060072 y176.895423
g1 x107.970825 y176.971656
g1 x107.894638 y177.060741
g1 x107.833448 y177.160685
g1 x107.788518 y177.269217
g1 x107.761251 y177.382695
g1 x107.752234 y177.500167
g1 x107.761257 y177.617815
g0 z30
(Block-name: path4)
(Block-expand: 0)
(Block-enable: 0)

(End cutting path id: path4)


(Start cutting path id: path4)
(Change tool to Default tool)

G00 Z30.000000
G00 X107.018034 Y217.734840

G01 Z-1.000000 F100.0(Penetrate)
G01 X107.073034 Y217.963739 Z-1.000000 F400.000000
G01 X107.163034 Y218.181139 Z-1.000000
G01 X107.286034 Y218.381939 Z-1.000000
G01 X107.439034 Y218.560940 Z-1.000000
G01 X107.618034 Y218.713639 Z-1.000000
G01 X107.819034 Y218.836639 Z-1.000000
G01 X108.036034 Y218.926839 Z-1.000000
G01 X108.265034 Y218.981739 Z-1.000000
G01 X108.500034 Y219.000229 Z-1.000000
G01 X108.735034 Y218.981739 Z-1.000000
G01 X108.963034 Y218.926839 Z-1.000000
G01 X109.181034 Y218.836639 Z-1.000000
G01 X109.382034 Y218.713639 Z-1.000000
G01 X109.561034 Y218.560940 Z-1.000000
G01 X109.714034 Y218.381939 Z-1.000000
G01 X109.837034 Y218.181139 Z-1.000000
G01 X109.927034 Y217.963739 Z-1.000000
G01 X109.981034 Y217.734840 Z-1.000000
G01 X110.000034 Y217.500138 Z-1.000000
G01 X109.981034 Y217.265637 Z-1.000000
G01 X109.927034 Y217.036738 Z-1.000000
G01 X109.837034 Y216.819338 Z-1.000000
G01 X109.714033 Y216.618437 Z-1.000000
G01 X109.561033 Y216.439539 Z-1.000000
G01 X109.382033 Y216.286639 Z-1.000000
G01 X109.181033 Y216.163637 Z-1.000000
G01 X108.963033 Y216.073637 Z-1.000000
G01 X108.735033 Y216.018637 Z-1.000000
G01 X108.500033 Y216.000247 Z-1.000000
G01 X108.265033 Y216.018637 Z-1.000000
G01 X108.036033 Y216.073637 Z-1.000000
G01 X107.819033 Y216.163637 Z-1.000000
G01 X107.618033 Y216.286639 Z-1.000000
G01 X107.439033 Y216.439539 Z-1.000000
G01 X107.286033 Y216.618437 Z-1.000000
G01 X107.163033 Y216.819338 Z-1.000000
G01 X107.073033 Y217.036738 Z-1.000000
G01 X107.018033 Y217.265637 Z-1.000000
G01 X107.000034 Y217.500138 Z-1.000000
G01 X107.018034 Y217.734840 Z-1.000000
G00 Z30.000000
(Block-name: path4 [in,cut])
(Block-expand: 0)
(Block-enable: 1)
g0 x107.761261 y217.617812
g1 z-1 f300
g1 x107.788522 y217.731265 f650
g1 x107.83342 y217.83972
g1 x107.894642 y217.939666
g1 x107.97075 y218.028708
g1 x108.059868 y218.104731
g1 x108.160761 y218.166472
g1 x108.268856 y218.211404
g1 x108.382594 y218.238671
g1 x108.500034 y218.247911
g1 x108.6171 y218.2387
g1 x108.730462 y218.211404
g1 x108.839831 y218.166151
g1 x108.9402 y218.104731
g1 x109.029318 y218.028708
g1 x109.105426 y217.939666
g1 x109.166648 y217.83972
g1 x109.210949 y217.732707
g1 x109.238054 y217.617813
g1 x109.247578 y217.500164
g1 x109.23806 y217.382689
g1 x109.210949 y217.26777
g1 x109.166616 y217.16068
g1 x109.105427 y217.060738
g1 x109.029239 y216.971654
g1 x108.939988 y216.895417
g1 x108.840079 y216.834278
g1 x108.730604 y216.789082
g1 x108.617098 y216.761701
g1 x108.500033 y216.75254
g1 x108.382593 y216.76173
g1 x108.268711 y216.789082
g1 x108.160509 y216.833958
g1 x108.060078 y216.895417
g1 x107.970827 y216.971654
g1 x107.89464 y217.060737
g1 x107.833452 y217.160679
g1 x107.788521 y217.269212
g1 x107.761255 y217.382687
g1 x107.752238 y217.500161
g1 x107.761261 y217.617812
g1 z-2 f300
g1 x107.788522 y217.731265 f650
g1 x107.83342 y217.83972
g1 x107.894642 y217.939666
g1 x107.97075 y218.028708
g1 x108.059868 y218.104731
g1 x108.160761 y218.166472
g1 x108.268856 y218.211404
g1 x108.382594 y218.238671
g1 x108.500034 y218.247911
g1 x108.6171 y218.2387
g1 x108.730462 y218.211404
g1 x108.839831 y218.166151
g1 x108.9402 y218.104731
g1 x109.029318 y218.028708
g1 x109.105426 y217.939666
g1 x109.166648 y217.83972
g1 x109.210949 y217.732707
g1 x109.238054 y217.617813
g1 x109.247578 y217.500164
g1 x109.23806 y217.382689
g1 x109.210949 y217.26777
g1 x109.166616 y217.16068
g1 x109.105427 y217.060738
g1 x109.029239 y216.971654
g1 x108.939988 y216.895417
g1 x108.840079 y216.834278
g1 x108.730604 y216.789082
g1 x108.617098 y216.761701
g1 x108.500033 y216.75254
g1 x108.382593 y216.76173
g1 x108.268711 y216.789082
g1 x108.160509 y216.833958
g1 x108.060078 y216.895417
g1 x107.970827 y216.971654
g1 x107.89464 y217.060737
g1 x107.833452 y217.160679
g1 x107.788521 y217.269212
g1 x107.761255 y217.382687
g1 x107.752238 y217.500161
g1 x107.761261 y217.617812
g1 z-3 f300
g1 x107.788522 y217.731265 f650
g1 x107.83342 y217.83972
g1 x107.894642 y217.939666
g1 x107.97075 y218.028708
g1 x108.059868 y218.104731
g1 x108.160761 y218.166472
g1 x108.268856 y218.211404
g1 x108.382594 y218.238671
g1 x108.500034 y218.247911
g1 x108.6171 y218.2387
g1 x108.730462 y218.211404
g1 x108.839831 y218.166151
g1 x108.9402 y218.104731
g1 x109.029318 y218.028708
g1 x109.105426 y217.939666
g1 x109.166648 y217.83972
g1 x109.210949 y217.732707
g1 x109.238054 y217.617813
g1 x109.247578 y217.500164
g1 x109.23806 y217.382689
g1 x109.210949 y217.26777
g1 x109.166616 y217.16068
g1 x109.105427 y217.060738
g1 x109.029239 y216.971654
g1 x108.939988 y216.895417
g1 x108.840079 y216.834278
g1 x108.730604 y216.789082
g1 x108.617098 y216.761701
g1 x108.500033 y216.75254
g1 x108.382593 y216.76173
g1 x108.268711 y216.789082
g1 x108.160509 y216.833958
g1 x108.060078 y216.895417
g1 x107.970827 y216.971654
g1 x107.89464 y217.060737
g1 x107.833452 y217.160679
g1 x107.788521 y217.269212
g1 x107.761255 y217.382687
g1 x107.752238 y217.500161
g1 x107.761261 y217.617812
g0 z30
(Block-name: path4)
(Block-expand: 0)
(Block-enable: 0)

(End cutting path id: path4)


(Start cutting path id: path4)
(Change tool to Default tool)

G00 Z30.000000
G00 X129.018014 Y17.735138

G01 Z-1.000000 F100.0(Penetrate)
G01 X129.073014 Y17.964138 Z-1.000000 F400.000000
G01 X129.163014 Y18.181138 Z-1.000000
G01 X129.286014 Y18.382138 Z-1.000000
G01 X129.439014 Y18.561138 Z-1.000000
G01 X129.618014 Y18.714138 Z-1.000000
G01 X129.819014 Y18.837138 Z-1.000000
G01 X130.036014 Y18.927138 Z-1.000000
G01 X130.265014 Y18.982138 Z-1.000000
G01 X130.500014 Y19.000138 Z-1.000000
G01 X130.735014 Y18.982138 Z-1.000000
G01 X130.964014 Y18.927138 Z-1.000000
G01 X131.181014 Y18.837137 Z-1.000000
G01 X131.382014 Y18.714137 Z-1.000000
G01 X131.561014 Y18.561137 Z-1.000000
G01 X131.714014 Y18.382137 Z-1.000000
G01 X131.836014 Y18.181137 Z-1.000000
G01 X131.927014 Y17.964137 Z-1.000000
G01 X131.981014 Y17.735137 Z-1.000000
G01 X132.000014 Y17.500137 Z-1.000000
G01 X131.981014 Y17.265137 Z-1.000000
G01 X131.927014 Y17.037137 Z-1.000000
G01 X131.836014 Y16.819137 Z-1.000000
G01 X131.714014 Y16.618137 Z-1.000000
G01 X131.561014 Y16.439137 Z-1.000000
G01 X131.382014 Y16.286137 Z-1.000000
G01 X131.181014 Y16.163137 Z-1.000000
G01 X130.964014 Y16.073137 Z-1.000000
G01 X130.735014 Y16.019137 Z-1.000000
G01 X130.500014 Y16.000137 Z-1.000000
G01 X130.265014 Y16.019138 Z-1.000000
G01 X130.036014 Y16.073138 Z-1.000000
G01 X129.819014 Y16.163138 Z-1.000000
G01 X129.618014 Y16.286138 Z-1.000000
G01 X129.439014 Y16.439138 Z-1.000000
G01 X129.286014 Y16.618138 Z-1.000000
G01 X129.163014 Y16.819138 Z-1.000000
G01 X129.073014 Y17.037138 Z-1.000000
G01 X129.018014 Y17.265138 Z-1.000000
G01 X129.000014 Y17.500138 Z-1.000000
G01 X129.018014 Y17.735138 Z-1.000000
G00 Z30.000000
(Block-name: path4 [in,cut])
(Block-expand: 0)
(Block-enable: 1)
g0 x129.761253 y17.618183
g1 z-1 f300
g1 x129.788459 y17.73146 f650
g1 x129.833336 y17.839664
g1 x129.89473 y17.939991
g1 x129.970968 y18.029184
g1 x130.060161 y18.105422
g1 x130.160488 y18.166816
g1 x130.268692 y18.211693
g1 x130.381969 y18.238899
g1 x130.500014 y18.247941
g1 x130.618059 y18.238899
g1 x130.731335 y18.211693
g1 x130.839539 y18.166816
g1 x130.939867 y18.105421
g1 x131.02906 y18.029183
g1 x131.104408 y17.941031
g1 x131.165936 y17.839662
g1 x131.211312 y17.731457
g1 x131.238022 y17.618185
g1 x131.247567 y17.500137
g1 x131.238052 y17.382458
g1 x131.211312 y17.269556
g1 x131.165615 y17.160085
g1 x131.104408 y17.059243
g1 x131.02906 y16.971091
g1 x130.939867 y16.894853
g1 x130.83954 y16.833459
g1 x130.732777 y16.789179
g1 x130.618062 y16.762129
g1 x130.500016 y16.752584
g1 x130.381968 y16.762129
g1 x130.267251 y16.78918
g1 x130.160488 y16.83346
g1 x130.060161 y16.894854
g1 x129.970968 y16.971092
g1 x129.89473 y17.060285
g1 x129.833656 y17.160089
g1 x129.788459 y17.269567
g1 x129.761224 y17.382467
g1 x129.752211 y17.500138
g1 x129.761253 y17.618183
g1 z-2 f300
g1 x129.788459 y17.73146 f650
g1 x129.833336 y17.839664
g1 x129.89473 y17.939991
g1 x129.970968 y18.029184
g1 x130.060161 y18.105422
g1 x130.160488 y18.166816
g1 x130.268692 y18.211693
g1 x130.381969 y18.238899
g1 x130.500014 y18.247941
g1 x130.618059 y18.238899
g1 x130.731335 y18.211693
g1 x130.839539 y18.166816
g1 x130.939867 y18.105421
g1 x131.02906 y18.029183
g1 x131.104408 y17.941031
g1 x131.165936 y17.839662
g1 x131.211312 y17.731457
g1 x131.238022 y17.618185
g1 x131.247567 y17.500137
g1 x131.238052 y17.382458
g1 x131.211312 y17.269556
g1 x131.165615 y17.160085
g1 x131.104408 y17.059243
g1 x131.02906 y16.971091
g1 x130.939867 y16.894853
g1 x130.83954 y16.833459
g1 x130.732777 y16.789179
g1 x130.618062 y16.762129
g1 x130.500016 y16.752584
g1 x130.381968 y16.762129
g1 x130.267251 y16.78918
g1 x130.160488 y16.83346
g1 x130.060161 y16.894854
g1 x129.970968 y16.971092
g1 x129.89473 y17.060285
g1 x129.833656 y17.160089
g1 x129.788459 y17.269567
g1 x129.761224 y17.382467
g1 x129.752211 y17.500138
g1 x129.761253 y17.618183
g1 z-3 f300
g1 x129.788459 y17.73146 f650
g1 x129.833336 y17.839664
g1 x129.89473 y17.939991
g1 x129.970968 y18.029184
g1 x130.060161 y18.105422
g1 x130.160488 y18.166816
g1 x130.268692 y18.211693
g1 x130.381969 y18.238899
g1 x130.500014 y18.247941
g1 x130.618059 y18.238899
g1 x130.731335 y18.211693
g1 x130.839539 y18.166816
g1 x130.939867 y18.105421
g1 x131.02906 y18.029183
g1 x131.104408 y17.941031
g1 x131.165936 y17.839662
g1 x131.211312 y17.731457
g1 x131.238022 y17.618185
g1 x131.247567 y17.500137
g1 x131.238052 y17.382458
g1 x131.211312 y17.269556
g1 x131.165615 y17.160085
g1 x131.104408 y17.059243
g1 x131.02906 y16.971091
g1 x130.939867 y16.894853
g1 x130.83954 y16.833459
g1 x130.732777 y16.789179
g1 x130.618062 y16.762129
g1 x130.500016 y16.752584
g1 x130.381968 y16.762129
g1 x130.267251 y16.78918
g1 x130.160488 y16.83346
g1 x130.060161 y16.894854
g1 x129.970968 y16.971092
g1 x129.89473 y17.060285
g1 x129.833656 y17.160089
g1 x129.788459 y17.269567
g1 x129.761224 y17.382467
g1 x129.752211 y17.500138
g1 x129.761253 y17.618183
g0 z30
(Block-name: path4)
(Block-expand: 0)
(Block-enable: 0)

(End cutting path id: path4)


(Start cutting path id: path4)
(Change tool to Default tool)

G00 Z30.000000
G00 X109.018014 Y17.735140

G01 Z-1.000000 F100.0(Penetrate)
G01 X109.073014 Y17.964140 Z-1.000000 F400.000000
G01 X109.163014 Y18.181140 Z-1.000000
G01 X109.286014 Y18.382140 Z-1.000000
G01 X109.439014 Y18.561140 Z-1.000000
G01 X109.618014 Y18.714140 Z-1.000000
G01 X109.819014 Y18.837140 Z-1.000000
G01 X110.036014 Y18.927140 Z-1.000000
G01 X110.265014 Y18.982140 Z-1.000000
G01 X110.500014 Y19.000140 Z-1.000000
G01 X110.735014 Y18.982139 Z-1.000000
G01 X110.964014 Y18.927139 Z-1.000000
G01 X111.181014 Y18.837139 Z-1.000000
G01 X111.382014 Y18.714139 Z-1.000000
G01 X111.561014 Y18.561139 Z-1.000000
G01 X111.714014 Y18.382139 Z-1.000000
G01 X111.836014 Y18.181139 Z-1.000000
G01 X111.927014 Y17.964139 Z-1.000000
G01 X111.981014 Y17.735139 Z-1.000000
G01 X112.000014 Y17.500139 Z-1.000000
G01 X111.981014 Y17.265139 Z-1.000000
G01 X111.927014 Y17.037139 Z-1.000000
G01 X111.836014 Y16.819139 Z-1.000000
G01 X111.714014 Y16.618139 Z-1.000000
G01 X111.561014 Y16.439139 Z-1.000000
G01 X111.382014 Y16.286139 Z-1.000000
G01 X111.181014 Y16.163139 Z-1.000000
G01 X110.964014 Y16.073139 Z-1.000000
G01 X110.735014 Y16.019139 Z-1.000000
G01 X110.500014 Y16.000139 Z-1.000000
G01 X110.265014 Y16.019139 Z-1.000000
G01 X110.036014 Y16.073140 Z-1.000000
G01 X109.819014 Y16.163140 Z-1.000000
G01 X109.618014 Y16.286140 Z-1.000000
G01 X109.439014 Y16.439140 Z-1.000000
G01 X109.286014 Y16.618140 Z-1.000000
G01 X109.163014 Y16.819140 Z-1.000000
G01 X109.073014 Y17.037140 Z-1.000000
G01 X109.018014 Y17.265140 Z-1.000000
G01 X109.000014 Y17.500140 Z-1.000000
G01 X109.018014 Y17.735140 Z-1.000000
G00 Z30.000000
(Block-name: path4 [in,cut])
(Block-expand: 0)
(Block-enable: 1)
g0 x109.761253 y17.618185
g1 z-1 f300
g1 x109.788459 y17.731462 f650
g1 x109.833336 y17.839666
g1 x109.89473 y17.939993
g1 x109.970968 y18.029186
g1 x110.060161 y18.105424
g1 x110.160488 y18.166818
g1 x110.268692 y18.211695
g1 x110.381969 y18.238901
g1 x110.500012 y18.247943
g1 x110.618058 y18.238901
g1 x110.731336 y18.211694
g1 x110.83954 y18.166817
g1 x110.939867 y18.105423
g1 x111.02906 y18.029185
g1 x111.104408 y17.941033
g1 x111.165936 y17.839664
g1 x111.211312 y17.731459
g1 x111.238022 y17.618187
g1 x111.247567 y17.500139
g1 x111.238052 y17.38246
g1 x111.211312 y17.269558
g1 x111.165615 y17.160087
g1 x111.104408 y17.059245
g1 x111.02906 y16.971093
g1 x110.939867 y16.894855
g1 x110.83954 y16.833461
g1 x110.732777 y16.789181
g1 x110.618062 y16.762131
g1 x110.500014 y16.752586
g1 x110.381968 y16.76213
g1 x110.267253 y16.789182
g1 x110.160488 y16.833462
g1 x110.060161 y16.894856
g1 x109.970968 y16.971094
g1 x109.89473 y17.060287
g1 x109.833656 y17.160091
g1 x109.788459 y17.269569
g1 x109.761224 y17.382469
g1 x109.752211 y17.50014
g1 x109.761253 y17.618185
g1 z-2 f300
g1 x109.788459 y17.731462 f650
g1 x109.833336 y17.839666
g1 x109.89473 y17.939993
g1 x109.970968 y18.029186
g1 x110.060161 y18.105424
g1 x110.160488 y18.166818
g1 x110.268692 y18.211695
g1 x110.381969 y18.238901
g1 x110.500012 y18.247943
g1 x110.618058 y18.238901
g1 x110.731336 y18.211694
g1 x110.83954 y18.166817
g1 x110.939867 y18.105423
g1 x111.02906 y18.029185
g1 x111.104408 y17.941033
g1 x111.165936 y17.839664
g1 x111.211312 y17.731459
g1 x111.238022 y17.618187
g1 x111.247567 y17.500139
g1 x111.238052 y17.38246
g1 x111.211312 y17.269558
g1 x111.165615 y17.160087
g1 x111.104408 y17.059245
g1 x111.02906 y16.971093
g1 x110.939867 y16.894855
g1 x110.83954 y16.833461
g1 x110.732777 y16.789181
g1 x110.618062 y16.762131
g1 x110.500014 y16.752586
g1 x110.381968 y16.76213
g1 x110.267253 y16.789182
g1 x110.160488 y16.833462
g1 x110.060161 y16.894856
g1 x109.970968 y16.971094
g1 x109.89473 y17.060287
g1 x109.833656 y17.160091
g1 x109.788459 y17.269569
g1 x109.761224 y17.382469
g1 x109.752211 y17.50014
g1 x109.761253 y17.618185
g1 z-3 f300
g1 x109.788459 y17.731462 f650
g1 x109.833336 y17.839666
g1 x109.89473 y17.939993
g1 x109.970968 y18.029186
g1 x110.060161 y18.105424
g1 x110.160488 y18.166818
g1 x110.268692 y18.211695
g1 x110.381969 y18.238901
g1 x110.500012 y18.247943
g1 x110.618058 y18.238901
g1 x110.731336 y18.211694
g1 x110.83954 y18.166817
g1 x110.939867 y18.105423
g1 x111.02906 y18.029185
g1 x111.104408 y17.941033
g1 x111.165936 y17.839664
g1 x111.211312 y17.731459
g1 x111.238022 y17.618187
g1 x111.247567 y17.500139
g1 x111.238052 y17.38246
g1 x111.211312 y17.269558
g1 x111.165615 y17.160087
g1 x111.104408 y17.059245
g1 x111.02906 y16.971093
g1 x110.939867 y16.894855
g1 x110.83954 y16.833461
g1 x110.732777 y16.789181
g1 x110.618062 y16.762131
g1 x110.500014 y16.752586
g1 x110.381968 y16.76213
g1 x110.267253 y16.789182
g1 x110.160488 y16.833462
g1 x110.060161 y16.894856
g1 x109.970968 y16.971094
g1 x109.89473 y17.060287
g1 x109.833656 y17.160091
g1 x109.788459 y17.269569
g1 x109.761224 y17.382469
g1 x109.752211 y17.50014
g1 x109.761253 y17.618185
g0 z30
(Block-name: path4)
(Block-expand: 0)
(Block-enable: 0)

(End cutting path id: path4)


(Start cutting path id: path4)
(Change tool to Default tool)

G00 Z30.000000
G00 X84.500012 Y82.500143

G01 Z-1.000000 F100.0(Penetrate)
G01 X87.500012 Y82.500143 Z-1.000000 F400.000000
G01 X87.500010 Y62.500143 Z-1.000000
G01 X84.500010 Y62.500143 Z-1.000000
G01 X84.500012 Y82.500143 Z-1.000000
G00 Z30.000000
(Block-name: path4 [in,cut])
(Block-expand: 0)
(Block-enable: 1)
g0 x85.250012 y81.750143
g1 z-1 f300
g1 x86.750012 y81.750143 f650
g1 x86.75001 y63.250143
g1 x85.25001 y63.250143
g1 x85.250012 y81.750143
g1 z-2 f300
g1 x86.750012 y81.750143 f650
g1 x86.75001 y63.250143
g1 x85.25001 y63.250143
g1 x85.250012 y81.750143
g1 z-3 f300
g1 x86.750012 y81.750143 f650
g1 x86.75001 y63.250143
g1 x85.25001 y63.250143
g1 x85.250012 y81.750143
g0 z30
(Block-name: path4)
(Block-expand: 0)
(Block-enable: 0)

(End cutting path id: path4)


(Start cutting path id: path4)
(Change tool to Default tool)

G00 Z30.000000
G00 X77.018010 Y62.735144

G01 Z-1.000000 F100.0(Penetrate)
G01 X77.073010 Y62.964144 Z-1.000000 F400.000000
G01 X77.163010 Y63.181144 Z-1.000000
G01 X77.286010 Y63.382144 Z-1.000000
G01 X77.439010 Y63.561144 Z-1.000000
G01 X77.618010 Y63.714144 Z-1.000000
G01 X77.819010 Y63.837144 Z-1.000000
G01 X78.036010 Y63.927144 Z-1.000000
G01 X78.265010 Y63.982144 Z-1.000000
G01 X78.500010 Y64.000144 Z-1.000000
G01 X78.735010 Y63.982144 Z-1.000000
G01 X78.963010 Y63.927144 Z-1.000000
G01 X79.181010 Y63.837143 Z-1.000000
G01 X79.382010 Y63.714143 Z-1.000000
G01 X79.561010 Y63.561143 Z-1.000000
G01 X79.714010 Y63.382143 Z-1.000000
G01 X79.837010 Y63.181143 Z-1.000000
G01 X79.927010 Y62.964143 Z-1.000000
G01 X79.981010 Y62.735143 Z-1.000000
G01 X80.000010 Y62.500143 Z-1.000000
G01 X79.981010 Y62.265143 Z-1.000000
G01 X79.927010 Y62.037143 Z-1.000000
G01 X79.837010 Y61.819143 Z-1.000000
G01 X79.714010 Y61.618143 Z-1.000000
G01 X79.561010 Y61.439143 Z-1.000000
G01 X79.382010 Y61.286143 Z-1.000000
G01 X79.181010 Y61.163143 Z-1.000000
G01 X78.963010 Y61.073143 Z-1.000000
G01 X78.735010 Y61.019143 Z-1.000000
G01 X78.500010 Y61.000144 Z-1.000000
G01 X78.265010 Y61.019144 Z-1.000000
G01 X78.036010 Y61.073144 Z-1.000000
G01 X77.819010 Y61.163144 Z-1.000000
G01 X77.618010 Y61.286144 Z-1.000000
G01 X77.439010 Y61.439144 Z-1.000000
G01 X77.286010 Y61.618144 Z-1.000000
G01 X77.163010 Y61.819144 Z-1.000000
G01 X77.073010 Y62.037144 Z-1.000000
G01 X77.018010 Y62.265144 Z-1.000000
G01 X77.000010 Y62.500144 Z-1.000000
G01 X77.018010 Y62.735144 Z-1.000000
G00 Z30.000000
(Block-name: path4 [in,cut])
(Block-expand: 0)
(Block-enable: 1)
g0 x77.761249 y62.618189
g1 z-1 f300
g1 x77.788455 y62.731466 f650
g1 x77.833332 y62.83967
g1 x77.894726 y62.939997
g1 x77.970964 y63.02919
g1 x78.060157 y63.105428
g1 x78.160484 y63.166822
g1 x78.268688 y63.211699
g1 x78.381965 y63.238905
g1 x78.50001 y63.247947
g1 x78.617681 y63.238934
g1 x78.730579 y63.2117
g1 x78.840058 y63.166502
g1 x78.939863 y63.105427
g1 x79.029056 y63.029189
g1 x79.105294 y62.939996
g1 x79.166688 y62.839669
g1 x79.210968 y62.732906
g1 x79.238018 y62.618191
g1 x79.247563 y62.500143
g1 x79.238048 y62.382464
g1 x79.210968 y62.268125
g1 x79.166368 y62.160094
g1 x79.105294 y62.06029
g1 x79.029056 y61.971097
g1 x78.939863 y61.894859
g1 x78.840059 y61.833785
g1 x78.732028 y61.789185
g1 x78.617691 y61.762105
g1 x78.500012 y61.752591
g1 x78.381962 y61.762136
g1 x78.267247 y61.789186
g1 x78.160484 y61.833466
g1 x78.060157 y61.89486
g1 x77.970964 y61.971098
g1 x77.894726 y62.060291
g1 x77.833652 y62.160095
g1 x77.788455 y62.269573
g1 x77.76122 y62.382473
g1 x77.752207 y62.500144
g1 x77.761249 y62.618189
g1 z-2 f300
g1 x77.788455 y62.731466 f650
g1 x77.833332 y62.83967
g1 x77.894726 y62.939997
g1 x77.970964 y63.02919
g1 x78.060157 y63.105428
g1 x78.160484 y63.166822
g1 x78.268688 y63.211699
g1 x78.381965 y63.238905
g1 x78.50001 y63.247947
g1 x78.617681 y63.238934
g1 x78.730579 y63.2117
g1 x78.840058 y63.166502
g1 x78.939863 y63.105427
g1 x79.029056 y63.029189
g1 x79.105294 y62.939996
g1 x79.166688 y62.839669
g1 x79.210968 y62.732906
g1 x79.238018 y62.618191
g1 x79.247563 y62.500143
g1 x79.238048 y62.382464
g1 x79.210968 y62.268125
g1 x79.166368 y62.160094
g1 x79.105294 y62.06029
g1 x79.029056 y61.971097
g1 x78.939863 y61.894859
g1 x78.840059 y61.833785
g1 x78.732028 y61.789185
g1 x78.617691 y61.762105
g1 x78.500012 y61.752591
g1 x78.381962 y61.762136
g1 x78.267247 y61.789186
g1 x78.160484 y61.833466
g1 x78.060157 y61.89486
g1 x77.970964 y61.971098
g1 x77.894726 y62.060291
g1 x77.833652 y62.160095
g1 x77.788455 y62.269573
g1 x77.76122 y62.382473
g1 x77.752207 y62.500144
g1 x77.761249 y62.618189
g1 z-3 f300
g1 x77.788455 y62.731466 f650
g1 x77.833332 y62.83967
g1 x77.894726 y62.939997
g1 x77.970964 y63.02919
g1 x78.060157 y63.105428
g1 x78.160484 y63.166822
g1 x78.268688 y63.211699
g1 x78.381965 y63.238905
g1 x78.50001 y63.247947
g1 x78.617681 y63.238934
g1 x78.730579 y63.2117
g1 x78.840058 y63.166502
g1 x78.939863 y63.105427
g1 x79.029056 y63.029189
g1 x79.105294 y62.939996
g1 x79.166688 y62.839669
g1 x79.210968 y62.732906
g1 x79.238018 y62.618191
g1 x79.247563 y62.500143
g1 x79.238048 y62.382464
g1 x79.210968 y62.268125
g1 x79.166368 y62.160094
g1 x79.105294 y62.06029
g1 x79.029056 y61.971097
g1 x78.939863 y61.894859
g1 x78.840059 y61.833785
g1 x78.732028 y61.789185
g1 x78.617691 y61.762105
g1 x78.500012 y61.752591
g1 x78.381962 y61.762136
g1 x78.267247 y61.789186
g1 x78.160484 y61.833466
g1 x78.060157 y61.89486
g1 x77.970964 y61.971098
g1 x77.894726 y62.060291
g1 x77.833652 y62.160095
g1 x77.788455 y62.269573
g1 x77.76122 y62.382473
g1 x77.752207 y62.500144
g1 x77.761249 y62.618189
g0 z30
(Block-name: path4)
(Block-expand: 0)
(Block-enable: 0)

(End cutting path id: path4)


(Start cutting path id: path4)
(Change tool to Default tool)

G00 Z30.000000
G00 X77.018014 Y102.735144

G01 Z-1.000000 F100.0(Penetrate)
G01 X77.073014 Y102.964144 Z-1.000000 F400.000000
G01 X77.163014 Y103.181144 Z-1.000000
G01 X77.286014 Y103.382144 Z-1.000000
G01 X77.439014 Y103.561144 Z-1.000000
G01 X77.618014 Y103.714144 Z-1.000000
G01 X77.819014 Y103.837144 Z-1.000000
G01 X78.036014 Y103.927144 Z-1.000000
G01 X78.265014 Y103.982144 Z-1.000000
G01 X78.500014 Y104.000144 Z-1.000000
G01 X78.735014 Y103.982144 Z-1.000000
G01 X78.963014 Y103.927144 Z-1.000000
G01 X79.181014 Y103.837144 Z-1.000000
G01 X79.382014 Y103.714144 Z-1.000000
G01 X79.561014 Y103.561144 Z-1.000000
G01 X79.714014 Y103.382144 Z-1.000000
G01 X79.837014 Y103.181144 Z-1.000000
G01 X79.927014 Y102.964144 Z-1.000000
G01 X79.981014 Y102.735144 Z-1.000000
G01 X80.000014 Y102.500144 Z-1.000000
G01 X79.981014 Y102.265144 Z-1.000000
G01 X79.927014 Y102.037144 Z-1.000000
G01 X79.837014 Y101.819144 Z-1.000000
G01 X79.714014 Y101.618144 Z-1.000000
G01 X79.561014 Y101.439144 Z-1.000000
G01 X79.382014 Y101.287144 Z-1.000000
G01 X79.181014 Y101.164144 Z-1.000000
G01 X78.963014 Y101.073144 Z-1.000000
G01 X78.735014 Y101.019144 Z-1.000000
G01 X78.500013 Y101.000144 Z-1.000000
G01 X78.265013 Y101.019144 Z-1.000000
G01 X78.036013 Y101.073144 Z-1.000000
G01 X77.819013 Y101.164144 Z-1.000000
G01 X77.618014 Y101.287144 Z-1.000000
G01 X77.439014 Y101.439144 Z-1.000000
G01 X77.286014 Y101.618144 Z-1.000000
G01 X77.163014 Y101.819144 Z-1.000000
G01 X77.073014 Y102.037144 Z-1.000000
G01 X77.018014 Y102.265144 Z-1.000000
G01 X77.000014 Y102.500144 Z-1.000000
G01 X77.018014 Y102.735144 Z-1.000000
G00 Z30.000000
(Block-name: path4 [in,cut])
(Block-expand: 0)
(Block-enable: 1)
g0 x77.761253 y102.618189
g1 z-1 f300
g1 x77.788459 y102.731466 f650
g1 x77.833336 y102.83967
g1 x77.89473 y102.939997
g1 x77.970968 y103.02919
g1 x78.060161 y103.105428
g1 x78.160488 y103.166822
g1 x78.268692 y103.211699
g1 x78.381969 y103.238905
g1 x78.500014 y103.247947
g1 x78.617685 y103.238934
g1 x78.730585 y103.211699
g1 x78.840063 y103.166502
g1 x78.939867 y103.105428
g1 x79.02906 y103.02919
g1 x79.105298 y102.939997
g1 x79.166692 y102.83967
g1 x79.210972 y102.732907
g1 x79.238022 y102.618192
g1 x79.247567 y102.500144
g1 x79.238052 y102.382465
g1 x79.210972 y102.268126
g1 x79.166372 y102.160095
g1 x79.105298 y102.060291
g1 x79.029854 y101.972026
g1 x78.940909 y101.896498
g1 x78.838804 y101.834015
g1 x78.730595 y101.788846
g1 x78.617693 y101.762106
g1 x78.500013 y101.752591
g1 x78.381965 y101.762136
g1 x78.268693 y101.788846
g1 x78.161751 y101.833693
g1 x78.05912 y101.896497
g1 x77.970174 y101.972026
g1 x77.89473 y102.060291
g1 x77.833656 y102.160095
g1 x77.788459 y102.269573
g1 x77.761224 y102.382473
g1 x77.752211 y102.500144
g1 x77.761253 y102.618189
g1 z-2 f300
g1 x77.788459 y102.731466 f650
g1 x77.833336 y102.83967
g1 x77.89473 y102.939997
g1 x77.970968 y103.02919
g1 x78.060161 y103.105428
g1 x78.160488 y103.166822
g1 x78.268692 y103.211699
g1 x78.381969 y103.238905
g1 x78.500014 y103.247947
g1 x78.617685 y103.238934
g1 x78.730585 y103.211699
g1 x78.840063 y103.166502
g1 x78.939867 y103.105428
g1 x79.02906 y103.02919
g1 x79.105298 y102.939997
g1 x79.166692 y102.83967
g1 x79.210972 y102.732907
g1 x79.238022 y102.618192
g1 x79.247567 y102.500144
g1 x79.238052 y102.382465
g1 x79.210972 y102.268126
g1 x79.166372 y102.160095
g1 x79.105298 y102.060291
g1 x79.029854 y101.972026
g1 x78.940909 y101.896498
g1 x78.838804 y101.834015
g1 x78.730595 y101.788846
g1 x78.617693 y101.762106
g1 x78.500013 y101.752591
g1 x78.381965 y101.762136
g1 x78.268693 y101.788846
g1 x78.161751 y101.833693
g1 x78.05912 y101.896497
g1 x77.970174 y101.972026
g1 x77.89473 y102.060291
g1 x77.833656 y102.160095
g1 x77.788459 y102.269573
g1 x77.761224 y102.382473
g1 x77.752211 y102.500144
g1 x77.761253 y102.618189
g1 z-3 f300
g1 x77.788459 y102.731466 f650
g1 x77.833336 y102.83967
g1 x77.89473 y102.939997
g1 x77.970968 y103.02919
g1 x78.060161 y103.105428
g1 x78.160488 y103.166822
g1 x78.268692 y103.211699
g1 x78.381969 y103.238905
g1 x78.500014 y103.247947
g1 x78.617685 y103.238934
g1 x78.730585 y103.211699
g1 x78.840063 y103.166502
g1 x78.939867 y103.105428
g1 x79.02906 y103.02919
g1 x79.105298 y102.939997
g1 x79.166692 y102.83967
g1 x79.210972 y102.732907
g1 x79.238022 y102.618192
g1 x79.247567 y102.500144
g1 x79.238052 y102.382465
g1 x79.210972 y102.268126
g1 x79.166372 y102.160095
g1 x79.105298 y102.060291
g1 x79.029854 y101.972026
g1 x78.940909 y101.896498
g1 x78.838804 y101.834015
g1 x78.730595 y101.788846
g1 x78.617693 y101.762106
g1 x78.500013 y101.752591
g1 x78.381965 y101.762136
g1 x78.268693 y101.788846
g1 x78.161751 y101.833693
g1 x78.05912 y101.896497
g1 x77.970174 y101.972026
g1 x77.89473 y102.060291
g1 x77.833656 y102.160095
g1 x77.788459 y102.269573
g1 x77.761224 y102.382473
g1 x77.752211 y102.500144
g1 x77.761253 y102.618189
g0 z30
(Block-name: path4)
(Block-expand: 0)
(Block-enable: 0)

(End cutting path id: path4)


(Start cutting path id: path4)
(Change tool to Default tool)

G00 Z30.000000
G00 X66.500011 Y74.000145

G01 Z-1.000000 F100.0(Penetrate)
G01 X71.500011 Y74.000144 Z-1.000000 F400.000000
G01 X71.500010 Y62.000144 Z-1.000000
G01 X66.500009 Y62.000145 Z-1.000000
G01 X66.500011 Y74.000145 Z-1.000000
G00 Z30.000000
(Block-name: path4 [in,cut])
(Block-expand: 0)
(Block-enable: 1)
g0 x67.250011 y73.250145
g1 z-1 f300
g1 x70.750011 y73.250144 f650
g1 x70.75001 y62.750144
g1 x67.250009 y62.750145
g1 x67.250011 y73.250145
g1 z-2 f300
g1 x70.750011 y73.250144 f650
g1 x70.75001 y62.750144
g1 x67.250009 y62.750145
g1 x67.250011 y73.250145
g1 z-3 f300
g1 x70.750011 y73.250144 f650
g1 x70.75001 y62.750144
g1 x67.250009 y62.750145
g1 x67.250011 y73.250145
g0 z30
(Block-name: path4)
(Block-expand: 0)
(Block-enable: 0)

(End cutting path id: path4)


(Start cutting path id: path4)
(Change tool to Default tool)

G00 Z30.000000
G00 X68.012011 Y77.657145

G01 Z-1.000000 F100.0(Penetrate)
G01 X68.049011 Y77.809145 Z-1.000000 F400.000000
G01 X68.109011 Y77.954145 Z-1.000000
G01 X68.191011 Y78.088145 Z-1.000000
G01 X68.293011 Y78.207145 Z-1.000000
G01 X68.412011 Y78.309145 Z-1.000000
G01 X68.546011 Y78.391145 Z-1.000000
G01 X68.691011 Y78.451145 Z-1.000000
G01 X68.843011 Y78.488145 Z-1.000000
G01 X69.000011 Y78.500145 Z-1.000000
G01 X69.156011 Y78.488145 Z-1.000000
G01 X69.309011 Y78.451145 Z-1.000000
G01 X69.454011 Y78.391145 Z-1.000000
G01 X69.588011 Y78.309145 Z-1.000000
G01 X69.707011 Y78.207145 Z-1.000000
G01 X69.809011 Y78.088145 Z-1.000000
G01 X69.891011 Y77.954145 Z-1.000000
G01 X69.951011 Y77.809145 Z-1.000000
G01 X69.988011 Y77.657145 Z-1.000000
G01 X70.000011 Y77.500145 Z-1.000000
G01 X69.988011 Y77.344145 Z-1.000000
G01 X69.951011 Y77.191145 Z-1.000000
G01 X69.891011 Y77.046145 Z-1.000000
G01 X69.809011 Y76.912145 Z-1.000000
G01 X69.707011 Y76.793145 Z-1.000000
G01 X69.588011 Y76.691145 Z-1.000000
G01 X69.454011 Y76.609145 Z-1.000000
G01 X69.309011 Y76.549145 Z-1.000000
G01 X69.156011 Y76.512145 Z-1.000000
G01 X69.000011 Y76.500145 Z-1.000000
G01 X68.843011 Y76.512145 Z-1.000000
G01 X68.691011 Y76.549145 Z-1.000000
G01 X68.546011 Y76.609145 Z-1.000000
G01 X68.412011 Y76.691145 Z-1.000000
G01 X68.293011 Y76.793145 Z-1.000000
G01 X68.191011 Y76.912145 Z-1.000000
G01 X68.109011 Y77.046145 Z-1.000000
G01 X68.049011 Y77.191145 Z-1.000000
G01 X68.012011 Y77.344145 Z-1.000000
G01 X68.000011 Y77.500145 Z-1.000000
G01 X68.012011 Y77.657145 Z-1.000000
G00 Z30.000000
(Block-name: path4 [in,cut])
(Block-expand: 0)
(Block-enable: 1)
g0 x68.755176 y77.539095
g1 z-1 f300
g1 x68.764085 y77.575697 f650
g1 x68.779493 y77.612933
g1 x68.799455 y77.645553
g1 x68.824908 y77.675248
g1 x68.854603 y77.700701
g1 x68.887223 y77.720663
g1 x68.924459 y77.736071
g1 x68.961061 y77.74498
g1 x68.999828 y77.747943
g1 x69.038348 y77.74498
g1 x69.076086 y77.735854
g1 x69.112799 y77.720663
g1 x69.145419 y77.700701
g1 x69.175114 y77.675248
g1 x69.200567 y77.645553
g1 x69.220529 y77.612933
g1 x69.235937 y77.575697
g1 x69.244846 y77.539095
g1 x69.247809 y77.500328
g1 x69.244846 y77.461808
g1 x69.23572 y77.42407
g1 x69.220529 y77.387357
g1 x69.200567 y77.354737
g1 x69.175114 y77.325042
g1 x69.145419 y77.299589
g1 x69.112799 y77.279627
g1 x69.076086 y77.264436
g1 x69.038348 y77.25531
g1 x68.999828 y77.252347
g1 x68.961061 y77.25531
g1 x68.924459 y77.264219
g1 x68.887223 y77.279627
g1 x68.854603 y77.299589
g1 x68.824908 y77.325042
g1 x68.799455 y77.354737
g1 x68.779493 y77.387357
g1 x68.764302 y77.42407
g1 x68.755176 y77.461808
g1 x68.752213 y77.500328
g1 x68.755176 y77.539095
g1 z-2 f300
g1 x68.764085 y77.575697 f650
g1 x68.779493 y77.612933
g1 x68.799455 y77.645553
g1 x68.824908 y77.675248
g1 x68.854603 y77.700701
g1 x68.887223 y77.720663
g1 x68.924459 y77.736071
g1 x68.961061 y77.74498
g1 x68.999828 y77.747943
g1 x69.038348 y77.74498
g1 x69.076086 y77.735854
g1 x69.112799 y77.720663
g1 x69.145419 y77.700701
g1 x69.175114 y77.675248
g1 x69.200567 y77.645553
g1 x69.220529 y77.612933
g1 x69.235937 y77.575697
g1 x69.244846 y77.539095
g1 x69.247809 y77.500328
g1 x69.244846 y77.461808
g1 x69.23572 y77.42407
g1 x69.220529 y77.387357
g1 x69.200567 y77.354737
g1 x69.175114 y77.325042
g1 x69.145419 y77.299589
g1 x69.112799 y77.279627
g1 x69.076086 y77.264436
g1 x69.038348 y77.25531
g1 x68.999828 y77.252347
g1 x68.961061 y77.25531
g1 x68.924459 y77.264219
g1 x68.887223 y77.279627
g1 x68.854603 y77.299589
g1 x68.824908 y77.325042
g1 x68.799455 y77.354737
g1 x68.779493 y77.387357
g1 x68.764302 y77.42407
g1 x68.755176 y77.461808
g1 x68.752213 y77.500328
g1 x68.755176 y77.539095
g1 z-3 f300
g1 x68.764085 y77.575697 f650
g1 x68.779493 y77.612933
g1 x68.799455 y77.645553
g1 x68.824908 y77.675248
g1 x68.854603 y77.700701
g1 x68.887223 y77.720663
g1 x68.924459 y77.736071
g1 x68.961061 y77.74498
g1 x68.999828 y77.747943
g1 x69.038348 y77.74498
g1 x69.076086 y77.735854
g1 x69.112799 y77.720663
g1 x69.145419 y77.700701
g1 x69.175114 y77.675248
g1 x69.200567 y77.645553
g1 x69.220529 y77.612933
g1 x69.235937 y77.575697
g1 x69.244846 y77.539095
g1 x69.247809 y77.500328
g1 x69.244846 y77.461808
g1 x69.23572 y77.42407
g1 x69.220529 y77.387357
g1 x69.200567 y77.354737
g1 x69.175114 y77.325042
g1 x69.145419 y77.299589
g1 x69.112799 y77.279627
g1 x69.076086 y77.264436
g1 x69.038348 y77.25531
g1 x68.999828 y77.252347
g1 x68.961061 y77.25531
g1 x68.924459 y77.264219
g1 x68.887223 y77.279627
g1 x68.854603 y77.299589
g1 x68.824908 y77.325042
g1 x68.799455 y77.354737
g1 x68.779493 y77.387357
g1 x68.764302 y77.42407
g1 x68.755176 y77.461808
g1 x68.752213 y77.500328
g1 x68.755176 y77.539095
g0 z30
(Block-name: path4)
(Block-expand: 0)
(Block-enable: 0)

(End cutting path id: path4)


(Start cutting path id: path4)
(Change tool to Default tool)

G00 Z30.000000
G00 X68.012009 Y58.656144

G01 Z-1.000000 F100.0(Penetrate)
G01 X68.049009 Y58.809144 Z-1.000000 F400.000000
G01 X68.109009 Y58.954144 Z-1.000000
G01 X68.191009 Y59.088144 Z-1.000000
G01 X68.293009 Y59.207144 Z-1.000000
G01 X68.412009 Y59.309144 Z-1.000000
G01 X68.546009 Y59.391144 Z-1.000000
G01 X68.691009 Y59.451144 Z-1.000000
G01 X68.843009 Y59.488144 Z-1.000000
G01 X69.000009 Y59.500144 Z-1.000000
G01 X69.156009 Y59.488144 Z-1.000000
G01 X69.309009 Y59.451144 Z-1.000000
G01 X69.454009 Y59.391144 Z-1.000000
G01 X69.588009 Y59.309144 Z-1.000000
G01 X69.707009 Y59.207144 Z-1.000000
G01 X69.809009 Y59.088144 Z-1.000000
G01 X69.891009 Y58.954144 Z-1.000000
G01 X69.951009 Y58.809144 Z-1.000000
G01 X69.988009 Y58.656144 Z-1.000000
G01 X70.000009 Y58.500144 Z-1.000000
G01 X69.988009 Y58.344144 Z-1.000000
G01 X69.951009 Y58.191144 Z-1.000000
G01 X69.891009 Y58.046144 Z-1.000000
G01 X69.809009 Y57.912144 Z-1.000000
G01 X69.707009 Y57.793144 Z-1.000000
G01 X69.588009 Y57.691144 Z-1.000000
G01 X69.454009 Y57.609144 Z-1.000000
G01 X69.309009 Y57.549144 Z-1.000000
G01 X69.156009 Y57.512144 Z-1.000000
G01 X69.000009 Y57.500144 Z-1.000000
G01 X68.843009 Y57.512144 Z-1.000000
G01 X68.691009 Y57.549144 Z-1.000000
G01 X68.546009 Y57.609144 Z-1.000000
G01 X68.412009 Y57.691144 Z-1.000000
G01 X68.293009 Y57.793144 Z-1.000000
G01 X68.191009 Y57.912144 Z-1.000000
G01 X68.109009 Y58.046144 Z-1.000000
G01 X68.049009 Y58.191144 Z-1.000000
G01 X68.012009 Y58.344144 Z-1.000000
G01 X68.000009 Y58.500144 Z-1.000000
G01 X68.012009 Y58.656144 Z-1.000000
G00 Z30.000000
(Block-name: path4 [in,cut])
(Block-expand: 0)
(Block-enable: 1)
g0 x68.755174 y58.538481
g1 z-1 f300
g1 x68.7643 y58.576219 f650
g1 x68.779491 y58.612932
g1 x68.799453 y58.645552
g1 x68.824906 y58.675247
g1 x68.854601 y58.7007
g1 x68.887221 y58.720662
g1 x68.924457 y58.73607
g1 x68.961059 y58.744979
g1 x68.999826 y58.747942
g1 x69.038346 y58.744979
g1 x69.076084 y58.735853
g1 x69.112797 y58.720662
g1 x69.145417 y58.7007
g1 x69.175112 y58.675247
g1 x69.200565 y58.645552
g1 x69.220527 y58.612932
g1 x69.235718 y58.576219
g1 x69.244844 y58.538481
g1 x69.247793 y58.500144
g1 x69.244844 y58.461807
g1 x69.235718 y58.424069
g1 x69.220527 y58.387356
g1 x69.200565 y58.354736
g1 x69.175112 y58.325041
g1 x69.145417 y58.299588
g1 x69.112797 y58.279626
g1 x69.076084 y58.264435
g1 x69.038346 y58.255309
g1 x68.999826 y58.252346
g1 x68.961059 y58.255309
g1 x68.924457 y58.264218
g1 x68.887221 y58.279626
g1 x68.854601 y58.299588
g1 x68.824906 y58.325041
g1 x68.799453 y58.354736
g1 x68.779491 y58.387356
g1 x68.7643 y58.424069
g1 x68.755174 y58.461807
g1 x68.752225 y58.500144
g1 x68.755174 y58.538481
g1 z-2 f300
g1 x68.7643 y58.576219 f650
g1 x68.779491 y58.612932
g1 x68.799453 y58.645552
g1 x68.824906 y58.675247
g1 x68.854601 y58.7007
g1 x68.887221 y58.720662
g1 x68.924457 y58.73607
g1 x68.961059 y58.744979
g1 x68.999826 y58.747942
g1 x69.038346 y58.744979
g1 x69.076084 y58.735853
g1 x69.112797 y58.720662
g1 x69.145417 y58.7007
g1 x69.175112 y58.675247
g1 x69.200565 y58.645552
g1 x69.220527 y58.612932
g1 x69.235718 y58.576219
g1 x69.244844 y58.538481
g1 x69.247793 y58.500144
g1 x69.244844 y58.461807
g1 x69.235718 y58.424069
g1 x69.220527 y58.387356
g1 x69.200565 y58.354736
g1 x69.175112 y58.325041
g1 x69.145417 y58.299588
g1 x69.112797 y58.279626
g1 x69.076084 y58.264435
g1 x69.038346 y58.255309
g1 x68.999826 y58.252346
g1 x68.961059 y58.255309
g1 x68.924457 y58.264218
g1 x68.887221 y58.279626
g1 x68.854601 y58.299588
g1 x68.824906 y58.325041
g1 x68.799453 y58.354736
g1 x68.779491 y58.387356
g1 x68.7643 y58.424069
g1 x68.755174 y58.461807
g1 x68.752225 y58.500144
g1 x68.755174 y58.538481
g1 z-3 f300
g1 x68.7643 y58.576219 f650
g1 x68.779491 y58.612932
g1 x68.799453 y58.645552
g1 x68.824906 y58.675247
g1 x68.854601 y58.7007
g1 x68.887221 y58.720662
g1 x68.924457 y58.73607
g1 x68.961059 y58.744979
g1 x68.999826 y58.747942
g1 x69.038346 y58.744979
g1 x69.076084 y58.735853
g1 x69.112797 y58.720662
g1 x69.145417 y58.7007
g1 x69.175112 y58.675247
g1 x69.200565 y58.645552
g1 x69.220527 y58.612932
g1 x69.235718 y58.576219
g1 x69.244844 y58.538481
g1 x69.247793 y58.500144
g1 x69.244844 y58.461807
g1 x69.235718 y58.424069
g1 x69.220527 y58.387356
g1 x69.200565 y58.354736
g1 x69.175112 y58.325041
g1 x69.145417 y58.299588
g1 x69.112797 y58.279626
g1 x69.076084 y58.264435
g1 x69.038346 y58.255309
g1 x68.999826 y58.252346
g1 x68.961059 y58.255309
g1 x68.924457 y58.264218
g1 x68.887221 y58.279626
g1 x68.854601 y58.299588
g1 x68.824906 y58.325041
g1 x68.799453 y58.354736
g1 x68.779491 y58.387356
g1 x68.7643 y58.424069
g1 x68.755174 y58.461807
g1 x68.752225 y58.500144
g1 x68.755174 y58.538481
g0 z30
(Block-name: path4)
(Block-expand: 0)
(Block-enable: 0)

(End cutting path id: path4)


(Start cutting path id: path4)
(Change tool to Default tool)

G00 Z30.000000
G00 X62.018029 Y257.734674

G01 Z-1.000000 F100.0(Penetrate)
G01 X62.073029 Y257.963554 Z-1.000000 F400.000000
G01 X62.163029 Y258.180994 Z-1.000000
G01 X62.286029 Y258.381794 Z-1.000000
G01 X62.439029 Y258.560784 Z-1.000000
G01 X62.618029 Y258.713524 Z-1.000000
G01 X62.819029 Y258.836504 Z-1.000000
G01 X63.036029 Y258.926704 Z-1.000000
G01 X63.265029 Y258.981604 Z-1.000000
G01 X63.500029 Y259.000104 Z-1.000000
G01 X63.735029 Y258.981604 Z-1.000000
G01 X63.963029 Y258.926704 Z-1.000000
G01 X64.181029 Y258.836504 Z-1.000000
G01 X64.382029 Y258.713524 Z-1.000000
G01 X64.561029 Y258.560784 Z-1.000000
G01 X64.714029 Y258.381794 Z-1.000000
G01 X64.837029 Y258.180994 Z-1.000000
G01 X64.927029 Y257.963554 Z-1.000000
G01 X64.981029 Y257.734674 Z-1.000000
G01 X65.000029 Y257.500144 Z-1.000000
G01 X64.981029 Y257.265614 Z-1.000000
G01 X64.927029 Y257.036734 Z-1.000000
G01 X64.837029 Y256.819294 Z-1.000000
G01 X64.714029 Y256.618494 Z-1.000000
G01 X64.561028 Y256.439504 Z-1.000000
G01 X64.382028 Y256.286764 Z-1.000000
G01 X64.181028 Y256.163784 Z-1.000000
G01 X63.963028 Y256.073584 Z-1.000000
G01 X63.735028 Y256.018684 Z-1.000000
G01 X63.500028 Y256.000184 Z-1.000000
G01 X63.265028 Y256.018684 Z-1.000000
G01 X63.036028 Y256.073584 Z-1.000000
G01 X62.819028 Y256.163784 Z-1.000000
G01 X62.618028 Y256.286764 Z-1.000000
G01 X62.439028 Y256.439504 Z-1.000000
G01 X62.286028 Y256.618494 Z-1.000000
G01 X62.163028 Y256.819294 Z-1.000000
G01 X62.073029 Y257.036734 Z-1.000000
G01 X62.018029 Y257.265614 Z-1.000000
G01 X62.000029 Y257.500144 Z-1.000000
G01 X62.018029 Y257.734674 Z-1.000000
G00 Z30.000000
(Block-name: path4 [in,cut])
(Block-expand: 0)
(Block-enable: 1)
g0 x62.761251 y257.617619
g1 z-1 f300
g1 x62.78852 y257.731097 f650
g1 x62.833428 y257.839596
g1 x62.894631 y257.939511
g1 x62.970769 y258.028582
g1 x63.059885 y258.104625
g1 x63.160731 y258.166326
g1 x63.268851 y258.211269
g1 x63.382604 y258.23854
g1 x63.500029 y258.247784
g1 x63.61708 y258.238569
g1 x63.730457 y258.211269
g1 x63.839851 y258.166006
g1 x63.940173 y258.104625
g1 x64.029289 y258.028582
g1 x64.105427 y257.939511
g1 x64.16663 y257.839596
g1 x64.210941 y257.732539
g1 x64.238055 y257.617618
g1 x64.247572 y257.500144
g1 x64.238055 y257.38267
g1 x64.210941 y257.267749
g1 x64.16663 y257.160692
g1 x64.105427 y257.060778
g1 x64.029289 y256.971706
g1 x63.940172 y256.895663
g1 x63.83985 y256.834282
g1 x63.730456 y256.789019
g1 x63.617079 y256.761719
g1 x63.500028 y256.752504
g1 x63.382603 y256.761748
g1 x63.26885 y256.789019
g1 x63.16073 y256.833962
g1 x63.059884 y256.895663
g1 x62.970768 y256.971706
g1 x62.89463 y257.060777
g1 x62.833428 y257.160691
g1 x62.78852 y257.269189
g1 x62.761251 y257.382669
g1 x62.752235 y257.500144
g1 x62.761251 y257.617619
g1 z-2 f300
g1 x62.78852 y257.731097 f650
g1 x62.833428 y257.839596
g1 x62.894631 y257.939511
g1 x62.970769 y258.028582
g1 x63.059885 y258.104625
g1 x63.160731 y258.166326
g1 x63.268851 y258.211269
g1 x63.382604 y258.23854
g1 x63.500029 y258.247784
g1 x63.61708 y258.238569
g1 x63.730457 y258.211269
g1 x63.839851 y258.166006
g1 x63.940173 y258.104625
g1 x64.029289 y258.028582
g1 x64.105427 y257.939511
g1 x64.16663 y257.839596
g1 x64.210941 y257.732539
g1 x64.238055 y257.617618
g1 x64.247572 y257.500144
g1 x64.238055 y257.38267
g1 x64.210941 y257.267749
g1 x64.16663 y257.160692
g1 x64.105427 y257.060778
g1 x64.029289 y256.971706
g1 x63.940172 y256.895663
g1 x63.83985 y256.834282
g1 x63.730456 y256.789019
g1 x63.617079 y256.761719
g1 x63.500028 y256.752504
g1 x63.382603 y256.761748
g1 x63.26885 y256.789019
g1 x63.16073 y256.833962
g1 x63.059884 y256.895663
g1 x62.970768 y256.971706
g1 x62.89463 y257.060777
g1 x62.833428 y257.160691
g1 x62.78852 y257.269189
g1 x62.761251 y257.382669
g1 x62.752235 y257.500144
g1 x62.761251 y257.617619
g1 z-3 f300
g1 x62.78852 y257.731097 f650
g1 x62.833428 y257.839596
g1 x62.894631 y257.939511
g1 x62.970769 y258.028582
g1 x63.059885 y258.104625
g1 x63.160731 y258.166326
g1 x63.268851 y258.211269
g1 x63.382604 y258.23854
g1 x63.500029 y258.247784
g1 x63.61708 y258.238569
g1 x63.730457 y258.211269
g1 x63.839851 y258.166006
g1 x63.940173 y258.104625
g1 x64.029289 y258.028582
g1 x64.105427 y257.939511
g1 x64.16663 y257.839596
g1 x64.210941 y257.732539
g1 x64.238055 y257.617618
g1 x64.247572 y257.500144
g1 x64.238055 y257.38267
g1 x64.210941 y257.267749
g1 x64.16663 y257.160692
g1 x64.105427 y257.060778
g1 x64.029289 y256.971706
g1 x63.940172 y256.895663
g1 x63.83985 y256.834282
g1 x63.730456 y256.789019
g1 x63.617079 y256.761719
g1 x63.500028 y256.752504
g1 x63.382603 y256.761748
g1 x63.26885 y256.789019
g1 x63.16073 y256.833962
g1 x63.059884 y256.895663
g1 x62.970768 y256.971706
g1 x62.89463 y257.060777
g1 x62.833428 y257.160691
g1 x62.78852 y257.269189
g1 x62.761251 y257.382669
g1 x62.752235 y257.500144
g1 x62.761251 y257.617619
g0 z30
(Block-name: path4)
(Block-expand: 0)
(Block-enable: 0)

(End cutting path id: path4)


(Start cutting path id: path4)
(Change tool to Default tool)

G00 Z30.000000
G00 X59.518025 Y217.734845

G01 Z-1.000000 F100.0(Penetrate)
G01 X59.573025 Y217.963744 Z-1.000000 F400.000000
G01 X59.663025 Y218.181144 Z-1.000000
G01 X59.786025 Y218.381943 Z-1.000000
G01 X59.939025 Y218.560944 Z-1.000000
G01 X60.118025 Y218.713643 Z-1.000000
G01 X60.319025 Y218.836643 Z-1.000000
G01 X60.536025 Y218.926843 Z-1.000000
G01 X60.765025 Y218.981743 Z-1.000000
G01 X61.000025 Y219.000233 Z-1.000000
G01 X61.235025 Y218.981743 Z-1.000000
G01 X61.463025 Y218.926843 Z-1.000000
G01 X61.681025 Y218.836643 Z-1.000000
G01 X61.882025 Y218.713643 Z-1.000000
G01 X62.061025 Y218.560944 Z-1.000000
G01 X62.214025 Y218.381943 Z-1.000000
G01 X62.337025 Y218.181143 Z-1.000000
G01 X62.427025 Y217.963743 Z-1.000000
G01 X62.481025 Y217.734844 Z-1.000000
G01 X62.500025 Y217.500142 Z-1.000000
G01 X62.481025 Y217.265641 Z-1.000000
G01 X62.427025 Y217.036742 Z-1.000000
G01 X62.337025 Y216.819342 Z-1.000000
G01 X62.214025 Y216.618441 Z-1.000000
G01 X62.061025 Y216.439543 Z-1.000000
G01 X61.882024 Y216.286741 Z-1.000000
G01 X61.681024 Y216.163742 Z-1.000000
G01 X61.463024 Y216.073642 Z-1.000000
G01 X61.235024 Y216.018642 Z-1.000000
G01 X61.000024 Y216.000252 Z-1.000000
G01 X60.765024 Y216.018642 Z-1.000000
G01 X60.536024 Y216.073642 Z-1.000000
G01 X60.319024 Y216.163742 Z-1.000000
G01 X60.118024 Y216.286741 Z-1.000000
G01 X59.939024 Y216.439543 Z-1.000000
G01 X59.786024 Y216.618441 Z-1.000000
G01 X59.663025 Y216.819342 Z-1.000000
G01 X59.573025 Y217.036742 Z-1.000000
G01 X59.518025 Y217.265641 Z-1.000000
G01 X59.500025 Y217.500143 Z-1.000000
G01 X59.518025 Y217.734845 Z-1.000000
G00 Z30.000000
(Block-name: path4 [in,cut])
(Block-expand: 0)
(Block-enable: 1)
g0 x60.261252 y217.617817
g1 z-1 f300
g1 x60.288513 y217.73127 f650
g1 x60.333411 y217.839724
g1 x60.394633 y217.939669
g1 x60.470741 y218.028712
g1 x60.559859 y218.104735
g1 x60.660752 y218.166476
g1 x60.768847 y218.211408
g1 x60.882585 y218.238675
g1 x61.000025 y218.247915
g1 x61.117091 y218.238704
g1 x61.230453 y218.211408
g1 x61.339822 y218.166155
g1 x61.440191 y218.104735
g1 x61.529309 y218.028712
g1 x61.605417 y217.93967
g1 x61.666639 y217.839724
g1 x61.71094 y217.732711
g1 x61.738045 y217.617817
g1 x61.747569 y217.500168
g1 x61.738051 y217.382693
g1 x61.71094 y217.267774
g1 x61.666606 y217.160683
g1 x61.605418 y217.060741
g1 x61.529309 y216.97175
g1 x61.440085 y216.895585
g1 x61.339948 y216.834307
g1 x61.230451 y216.789052
g1 x61.117089 y216.761706
g1 x61.000024 y216.752545
g1 x60.882584 y216.761735
g1 x60.768846 y216.789052
g1 x60.660623 y216.833987
g1 x60.559964 y216.895584
g1 x60.47074 y216.971749
g1 x60.394632 y217.06074
g1 x60.333444 y217.160682
g1 x60.288513 y217.269216
g1 x60.261246 y217.382693
g1 x60.252229 y217.500167
g1 x60.261252 y217.617817
g1 z-2 f300
g1 x60.288513 y217.73127 f650
g1 x60.333411 y217.839724
g1 x60.394633 y217.939669
g1 x60.470741 y218.028712
g1 x60.559859 y218.104735
g1 x60.660752 y218.166476
g1 x60.768847 y218.211408
g1 x60.882585 y218.238675
g1 x61.000025 y218.247915
g1 x61.117091 y218.238704
g1 x61.230453 y218.211408
g1 x61.339822 y218.166155
g1 x61.440191 y218.104735
g1 x61.529309 y218.028712
g1 x61.605417 y217.93967
g1 x61.666639 y217.839724
g1 x61.71094 y217.732711
g1 x61.738045 y217.617817
g1 x61.747569 y217.500168
g1 x61.738051 y217.382693
g1 x61.71094 y217.267774
g1 x61.666606 y217.160683
g1 x61.605418 y217.060741
g1 x61.529309 y216.97175
g1 x61.440085 y216.895585
g1 x61.339948 y216.834307
g1 x61.230451 y216.789052
g1 x61.117089 y216.761706
g1 x61.000024 y216.752545
g1 x60.882584 y216.761735
g1 x60.768846 y216.789052
g1 x60.660623 y216.833987
g1 x60.559964 y216.895584
g1 x60.47074 y216.971749
g1 x60.394632 y217.06074
g1 x60.333444 y217.160682
g1 x60.288513 y217.269216
g1 x60.261246 y217.382693
g1 x60.252229 y217.500167
g1 x60.261252 y217.617817
g1 z-3 f300
g1 x60.288513 y217.73127 f650
g1 x60.333411 y217.839724
g1 x60.394633 y217.939669
g1 x60.470741 y218.028712
g1 x60.559859 y218.104735
g1 x60.660752 y218.166476
g1 x60.768847 y218.211408
g1 x60.882585 y218.238675
g1 x61.000025 y218.247915
g1 x61.117091 y218.238704
g1 x61.230453 y218.211408
g1 x61.339822 y218.166155
g1 x61.440191 y218.104735
g1 x61.529309 y218.028712
g1 x61.605417 y217.93967
g1 x61.666639 y217.839724
g1 x61.71094 y217.732711
g1 x61.738045 y217.617817
g1 x61.747569 y217.500168
g1 x61.738051 y217.382693
g1 x61.71094 y217.267774
g1 x61.666606 y217.160683
g1 x61.605418 y217.060741
g1 x61.529309 y216.97175
g1 x61.440085 y216.895585
g1 x61.339948 y216.834307
g1 x61.230451 y216.789052
g1 x61.117089 y216.761706
g1 x61.000024 y216.752545
g1 x60.882584 y216.761735
g1 x60.768846 y216.789052
g1 x60.660623 y216.833987
g1 x60.559964 y216.895584
g1 x60.47074 y216.971749
g1 x60.394632 y217.06074
g1 x60.333444 y217.160682
g1 x60.288513 y217.269216
g1 x60.261246 y217.382693
g1 x60.252229 y217.500167
g1 x60.261252 y217.617817
g0 z30
(Block-name: path4)
(Block-expand: 0)
(Block-enable: 0)

(End cutting path id: path4)


(Start cutting path id: path4)
(Change tool to Default tool)

G00 Z30.000000
G00 X59.518027 Y242.734845

G01 Z-1.000000 F100.0(Penetrate)
G01 X59.573027 Y242.963745 Z-1.000000 F400.000000
G01 X59.663027 Y243.181145 Z-1.000000
G01 X59.786027 Y243.381945 Z-1.000000
G01 X59.939027 Y243.560945 Z-1.000000
G01 X60.118027 Y243.713645 Z-1.000000
G01 X60.319027 Y243.836645 Z-1.000000
G01 X60.536027 Y243.926845 Z-1.000000
G01 X60.765027 Y243.981745 Z-1.000000
G01 X61.000027 Y244.000245 Z-1.000000
G01 X61.235027 Y243.981745 Z-1.000000
G01 X61.463027 Y243.926845 Z-1.000000
G01 X61.681027 Y243.836645 Z-1.000000
G01 X61.882027 Y243.713645 Z-1.000000
G01 X62.061027 Y243.560945 Z-1.000000
G01 X62.214027 Y243.381945 Z-1.000000
G01 X62.337027 Y243.181145 Z-1.000000
G01 X62.427027 Y242.963745 Z-1.000000
G01 X62.481027 Y242.734845 Z-1.000000
G01 X62.500027 Y242.500145 Z-1.000000
G01 X62.481027 Y242.265645 Z-1.000000
G01 X62.427027 Y242.036745 Z-1.000000
G01 X62.337027 Y241.819345 Z-1.000000
G01 X62.214027 Y241.618445 Z-1.000000
G01 X62.061027 Y241.439545 Z-1.000000
G01 X61.882027 Y241.286745 Z-1.000000
G01 X61.681027 Y241.163745 Z-1.000000
G01 X61.463027 Y241.073645 Z-1.000000
G01 X61.235027 Y241.018645 Z-1.000000
G01 X61.000027 Y241.000245 Z-1.000000
G01 X60.765027 Y241.018645 Z-1.000000
G01 X60.536027 Y241.073645 Z-1.000000
G01 X60.319027 Y241.163745 Z-1.000000
G01 X60.118027 Y241.286745 Z-1.000000
G01 X59.939027 Y241.439545 Z-1.000000
G01 X59.786027 Y241.618445 Z-1.000000
G01 X59.663027 Y241.819345 Z-1.000000
G01 X59.573027 Y242.036745 Z-1.000000
G01 X59.518027 Y242.265645 Z-1.000000
G01 X59.500027 Y242.500145 Z-1.000000
G01 X59.518027 Y242.734845 Z-1.000000
G00 Z30.000000
(Block-name: path4 [in,cut])
(Block-expand: 0)
(Block-enable: 1)
g0 x60.261254 y242.617817
g1 z-1 f300
g1 x60.288515 y242.731271 f650
g1 x60.333413 y242.839726
g1 x60.394635 y242.939671
g1 x60.470743 y243.028713
g1 x60.559862 y243.104738
g1 x60.660754 y243.166478
g1 x60.768849 y243.21141
g1 x60.882602 y243.238681
g1 x61.000027 y243.247925
g1 x61.117078 y243.23871
g1 x61.230455 y243.21141
g1 x61.339824 y243.166157
g1 x61.440192 y243.104738
g1 x61.529311 y243.028713
g1 x61.605419 y242.939671
g1 x61.666641 y242.839726
g1 x61.710942 y242.732713
g1 x61.738047 y242.617818
g1 x61.747571 y242.500171
g1 x61.738053 y242.382697
g1 x61.710942 y242.267777
g1 x61.666609 y242.160687
g1 x61.605419 y242.060744
g1 x61.529311 y241.971752
g1 x61.440088 y241.895589
g1 x61.33995 y241.83431
g1 x61.230454 y241.789055
g1 x61.117077 y241.761705
g1 x61.000027 y241.75254
g1 x60.882602 y241.761735
g1 x60.768849 y241.789055
g1 x60.660627 y241.83399
g1 x60.559966 y241.895589
g1 x60.470743 y241.971752
g1 x60.394635 y242.060744
g1 x60.333445 y242.160687
g1 x60.288515 y242.269219
g1 x60.261248 y242.382697
g1 x60.252231 y242.500169
g1 x60.261254 y242.617817
g1 z-2 f300
g1 x60.288515 y242.731271 f650
g1 x60.333413 y242.839726
g1 x60.394635 y242.939671
g1 x60.470743 y243.028713
g1 x60.559862 y243.104738
g1 x60.660754 y243.166478
g1 x60.768849 y243.21141
g1 x60.882602 y243.238681
g1 x61.000027 y243.247925
g1 x61.117078 y243.23871
g1 x61.230455 y243.21141
g1 x61.339824 y243.166157
g1 x61.440192 y243.104738
g1 x61.529311 y243.028713
g1 x61.605419 y242.939671
g1 x61.666641 y242.839726
g1 x61.710942 y242.732713
g1 x61.738047 y242.617818
g1 x61.747571 y242.500171
g1 x61.738053 y242.382697
g1 x61.710942 y242.267777
g1 x61.666609 y242.160687
g1 x61.605419 y242.060744
g1 x61.529311 y241.971752
g1 x61.440088 y241.895589
g1 x61.33995 y241.83431
g1 x61.230454 y241.789055
g1 x61.117077 y241.761705
g1 x61.000027 y241.75254
g1 x60.882602 y241.761735
g1 x60.768849 y241.789055
g1 x60.660627 y241.83399
g1 x60.559966 y241.895589
g1 x60.470743 y241.971752
g1 x60.394635 y242.060744
g1 x60.333445 y242.160687
g1 x60.288515 y242.269219
g1 x60.261248 y242.382697
g1 x60.252231 y242.500169
g1 x60.261254 y242.617817
g1 z-3 f300
g1 x60.288515 y242.731271 f650
g1 x60.333413 y242.839726
g1 x60.394635 y242.939671
g1 x60.470743 y243.028713
g1 x60.559862 y243.104738
g1 x60.660754 y243.166478
g1 x60.768849 y243.21141
g1 x60.882602 y243.238681
g1 x61.000027 y243.247925
g1 x61.117078 y243.23871
g1 x61.230455 y243.21141
g1 x61.339824 y243.166157
g1 x61.440192 y243.104738
g1 x61.529311 y243.028713
g1 x61.605419 y242.939671
g1 x61.666641 y242.839726
g1 x61.710942 y242.732713
g1 x61.738047 y242.617818
g1 x61.747571 y242.500171
g1 x61.738053 y242.382697
g1 x61.710942 y242.267777
g1 x61.666609 y242.160687
g1 x61.605419 y242.060744
g1 x61.529311 y241.971752
g1 x61.440088 y241.895589
g1 x61.33995 y241.83431
g1 x61.230454 y241.789055
g1 x61.117077 y241.761705
g1 x61.000027 y241.75254
g1 x60.882602 y241.761735
g1 x60.768849 y241.789055
g1 x60.660627 y241.83399
g1 x60.559966 y241.895589
g1 x60.470743 y241.971752
g1 x60.394635 y242.060744
g1 x60.333445 y242.160687
g1 x60.288515 y242.269219
g1 x60.261248 y242.382697
g1 x60.252231 y242.500169
g1 x60.261254 y242.617817
g0 z30
(Block-name: path4)
(Block-expand: 0)
(Block-enable: 0)

(End cutting path id: path4)


(Start cutting path id: path4)
(Change tool to Default tool)

G00 Z30.000000
G00 X34.518027 Y242.734847

G01 Z-1.000000 F100.0(Penetrate)
G01 X34.573027 Y242.963747 Z-1.000000 F400.000000
G01 X34.663027 Y243.181147 Z-1.000000
G01 X34.786027 Y243.381947 Z-1.000000
G01 X34.939027 Y243.560947 Z-1.000000
G01 X35.118027 Y243.713647 Z-1.000000
G01 X35.319027 Y243.836647 Z-1.000000
G01 X35.536027 Y243.926847 Z-1.000000
G01 X35.765027 Y243.981747 Z-1.000000
G01 X36.000027 Y244.000247 Z-1.000000
G01 X36.235027 Y243.981747 Z-1.000000
G01 X36.463027 Y243.926847 Z-1.000000
G01 X36.681027 Y243.836647 Z-1.000000
G01 X36.882027 Y243.713647 Z-1.000000
G01 X37.061027 Y243.560947 Z-1.000000
G01 X37.214027 Y243.381947 Z-1.000000
G01 X37.337027 Y243.181147 Z-1.000000
G01 X37.427027 Y242.963747 Z-1.000000
G01 X37.481027 Y242.734847 Z-1.000000
G01 X37.500027 Y242.500147 Z-1.000000
G01 X37.481027 Y242.265647 Z-1.000000
G01 X37.427027 Y242.036747 Z-1.000000
G01 X37.337027 Y241.819347 Z-1.000000
G01 X37.214026 Y241.618447 Z-1.000000
G01 X37.061026 Y241.439547 Z-1.000000
G01 X36.882026 Y241.286747 Z-1.000000
G01 X36.681026 Y241.163747 Z-1.000000
G01 X36.463026 Y241.073647 Z-1.000000
G01 X36.235026 Y241.018647 Z-1.000000
G01 X36.000026 Y241.000247 Z-1.000000
G01 X35.765026 Y241.018647 Z-1.000000
G01 X35.536026 Y241.073647 Z-1.000000
G01 X35.319026 Y241.163747 Z-1.000000
G01 X35.118026 Y241.286747 Z-1.000000
G01 X34.939026 Y241.439547 Z-1.000000
G01 X34.786026 Y241.618447 Z-1.000000
G01 X34.663026 Y241.819347 Z-1.000000
G01 X34.573026 Y242.036747 Z-1.000000
G01 X34.518026 Y242.265647 Z-1.000000
G01 X34.500027 Y242.500147 Z-1.000000
G01 X34.518027 Y242.734847 Z-1.000000
G00 Z30.000000
(Block-name: path4 [in,cut])
(Block-expand: 0)
(Block-enable: 1)
g0 x35.261254 y242.617819
g1 z-1 f300
g1 x35.288515 y242.731273 f650
g1 x35.333413 y242.839728
g1 x35.394635 y242.939673
g1 x35.470743 y243.028715
g1 x35.559862 y243.10474
g1 x35.660754 y243.16648
g1 x35.768849 y243.211412
g1 x35.882602 y243.238683
g1 x36.000027 y243.247927
g1 x36.117078 y243.238712
g1 x36.230455 y243.211412
g1 x36.339824 y243.166159
g1 x36.440192 y243.10474
g1 x36.529311 y243.028715
g1 x36.605419 y242.939673
g1 x36.666641 y242.839728
g1 x36.710942 y242.732715
g1 x36.738047 y242.61782
g1 x36.747571 y242.500173
g1 x36.738053 y242.382699
g1 x36.710942 y242.267779
g1 x36.666609 y242.16069
g1 x36.605419 y242.060747
g1 x36.52931 y241.971754
g1 x36.440087 y241.895591
g1 x36.339949 y241.834312
g1 x36.230453 y241.789057
g1 x36.117076 y241.761707
g1 x36.000026 y241.752542
g1 x35.882601 y241.761737
g1 x35.768848 y241.789057
g1 x35.660626 y241.833992
g1 x35.559965 y241.895591
g1 x35.470742 y241.971754
g1 x35.394634 y242.060746
g1 x35.333444 y242.160689
g1 x35.288514 y242.269221
g1 x35.261248 y242.382697
g1 x35.252231 y242.50017
g1 x35.261254 y242.617819
g1 z-2 f300
g1 x35.288515 y242.731273 f650
g1 x35.333413 y242.839728
g1 x35.394635 y242.939673
g1 x35.470743 y243.028715
g1 x35.559862 y243.10474
g1 x35.660754 y243.16648
g1 x35.768849 y243.211412
g1 x35.882602 y243.238683
g1 x36.000027 y243.247927
g1 x36.117078 y243.238712
g1 x36.230455 y243.211412
g1 x36.339824 y243.166159
g1 x36.440192 y243.10474
g1 x36.529311 y243.028715
g1 x36.605419 y242.939673
g1 x36.666641 y242.839728
g1 x36.710942 y242.732715
g1 x36.738047 y242.61782
g1 x36.747571 y242.500173
g1 x36.738053 y242.382699
g1 x36.710942 y242.267779
g1 x36.666609 y242.16069
g1 x36.605419 y242.060747
g1 x36.52931 y241.971754
g1 x36.440087 y241.895591
g1 x36.339949 y241.834312
g1 x36.230453 y241.789057
g1 x36.117076 y241.761707
g1 x36.000026 y241.752542
g1 x35.882601 y241.761737
g1 x35.768848 y241.789057
g1 x35.660626 y241.833992
g1 x35.559965 y241.895591
g1 x35.470742 y241.971754
g1 x35.394634 y242.060746
g1 x35.333444 y242.160689
g1 x35.288514 y242.269221
g1 x35.261248 y242.382697
g1 x35.252231 y242.50017
g1 x35.261254 y242.617819
g1 z-3 f300
g1 x35.288515 y242.731273 f650
g1 x35.333413 y242.839728
g1 x35.394635 y242.939673
g1 x35.470743 y243.028715
g1 x35.559862 y243.10474
g1 x35.660754 y243.16648
g1 x35.768849 y243.211412
g1 x35.882602 y243.238683
g1 x36.000027 y243.247927
g1 x36.117078 y243.238712
g1 x36.230455 y243.211412
g1 x36.339824 y243.166159
g1 x36.440192 y243.10474
g1 x36.529311 y243.028715
g1 x36.605419 y242.939673
g1 x36.666641 y242.839728
g1 x36.710942 y242.732715
g1 x36.738047 y242.61782
g1 x36.747571 y242.500173
g1 x36.738053 y242.382699
g1 x36.710942 y242.267779
g1 x36.666609 y242.16069
g1 x36.605419 y242.060747
g1 x36.52931 y241.971754
g1 x36.440087 y241.895591
g1 x36.339949 y241.834312
g1 x36.230453 y241.789057
g1 x36.117076 y241.761707
g1 x36.000026 y241.752542
g1 x35.882601 y241.761737
g1 x35.768848 y241.789057
g1 x35.660626 y241.833992
g1 x35.559965 y241.895591
g1 x35.470742 y241.971754
g1 x35.394634 y242.060746
g1 x35.333444 y242.160689
g1 x35.288514 y242.269221
g1 x35.261248 y242.382697
g1 x35.252231 y242.50017
g1 x35.261254 y242.617819
g0 z30
(Block-name: path4)
(Block-expand: 0)
(Block-enable: 0)

(End cutting path id: path4)


(Start cutting path id: path4)
(Change tool to Default tool)

G00 Z30.000000
G00 X34.518024 Y217.734847

G01 Z-1.000000 F100.0(Penetrate)
G01 X34.573024 Y217.963746 Z-1.000000 F400.000000
G01 X34.663024 Y218.181146 Z-1.000000
G01 X34.786024 Y218.381946 Z-1.000000
G01 X34.939024 Y218.560947 Z-1.000000
G01 X35.118024 Y218.713646 Z-1.000000
G01 X35.319024 Y218.836646 Z-1.000000
G01 X35.536024 Y218.926846 Z-1.000000
G01 X35.765024 Y218.981746 Z-1.000000
G01 X36.000024 Y219.000236 Z-1.000000
G01 X36.235024 Y218.981746 Z-1.000000
G01 X36.463024 Y218.926846 Z-1.000000
G01 X36.681024 Y218.836646 Z-1.000000
G01 X36.882024 Y218.713646 Z-1.000000
G01 X37.061024 Y218.560947 Z-1.000000
G01 X37.214024 Y218.381946 Z-1.000000
G01 X37.337024 Y218.181146 Z-1.000000
G01 X37.427024 Y217.963746 Z-1.000000
G01 X37.481024 Y217.734847 Z-1.000000
G01 X37.500024 Y217.500145 Z-1.000000
G01 X37.481024 Y217.265644 Z-1.000000
G01 X37.427024 Y217.036745 Z-1.000000
G01 X37.337024 Y216.819345 Z-1.000000
G01 X37.214024 Y216.618444 Z-1.000000
G01 X37.061024 Y216.439546 Z-1.000000
G01 X36.882024 Y216.286744 Z-1.000000
G01 X36.681024 Y216.163745 Z-1.000000
G01 X36.463024 Y216.073645 Z-1.000000
G01 X36.235024 Y216.018645 Z-1.000000
G01 X36.000024 Y216.000255 Z-1.000000
G01 X35.765024 Y216.018645 Z-1.000000
G01 X35.536024 Y216.073645 Z-1.000000
G01 X35.319024 Y216.163745 Z-1.000000
G01 X35.118024 Y216.286744 Z-1.000000
G01 X34.939024 Y216.439546 Z-1.000000
G01 X34.786024 Y216.618444 Z-1.000000
G01 X34.663024 Y216.819345 Z-1.000000
G01 X34.573024 Y217.036745 Z-1.000000
G01 X34.518024 Y217.265644 Z-1.000000
G01 X34.500024 Y217.500145 Z-1.000000
G01 X34.518024 Y217.734847 Z-1.000000
G00 Z30.000000
(Block-name: path4 [in,cut])
(Block-expand: 0)
(Block-enable: 1)
g0 x35.261251 y217.617819
g1 z-1 f300
g1 x35.288512 y217.731272 f650
g1 x35.33341 y217.839727
g1 x35.394632 y217.939673
g1 x35.47074 y218.028715
g1 x35.559858 y218.104738
g1 x35.660751 y218.166479
g1 x35.768846 y218.211411
g1 x35.882584 y218.238678
g1 x36.000024 y218.247918
g1 x36.11709 y218.238707
g1 x36.230452 y218.211411
g1 x36.339821 y218.166158
g1 x36.44019 y218.104738
g1 x36.529308 y218.028715
g1 x36.605416 y217.939673
g1 x36.666638 y217.839727
g1 x36.710939 y217.732714
g1 x36.738044 y217.61782
g1 x36.747568 y217.500171
g1 x36.73805 y217.382696
g1 x36.710939 y217.267777
g1 x36.666605 y217.160686
g1 x36.605417 y217.060744
g1 x36.529308 y216.971752
g1 x36.440084 y216.895587
g1 x36.339948 y216.83431
g1 x36.230451 y216.789055
g1 x36.117089 y216.761709
g1 x36.000024 y216.752548
g1 x35.882584 y216.761738
g1 x35.768846 y216.789055
g1 x35.660623 y216.83399
g1 x35.559964 y216.895587
g1 x35.47074 y216.971752
g1 x35.394631 y217.060744
g1 x35.333443 y217.160686
g1 x35.288512 y217.269219
g1 x35.261245 y217.382696
g1 x35.252228 y217.50017
g1 x35.261251 y217.617819
g1 z-2 f300
g1 x35.288512 y217.731272 f650
g1 x35.33341 y217.839727
g1 x35.394632 y217.939673
g1 x35.47074 y218.028715
g1 x35.559858 y218.104738
g1 x35.660751 y218.166479
g1 x35.768846 y218.211411
g1 x35.882584 y218.238678
g1 x36.000024 y218.247918
g1 x36.11709 y218.238707
g1 x36.230452 y218.211411
g1 x36.339821 y218.166158
g1 x36.44019 y218.104738
g1 x36.529308 y218.028715
g1 x36.605416 y217.939673
g1 x36.666638 y217.839727
g1 x36.710939 y217.732714
g1 x36.738044 y217.61782
g1 x36.747568 y217.500171
g1 x36.73805 y217.382696
g1 x36.710939 y217.267777
g1 x36.666605 y217.160686
g1 x36.605417 y217.060744
g1 x36.529308 y216.971752
g1 x36.440084 y216.895587
g1 x36.339948 y216.83431
g1 x36.230451 y216.789055
g1 x36.117089 y216.761709
g1 x36.000024 y216.752548
g1 x35.882584 y216.761738
g1 x35.768846 y216.789055
g1 x35.660623 y216.83399
g1 x35.559964 y216.895587
g1 x35.47074 y216.971752
g1 x35.394631 y217.060744
g1 x35.333443 y217.160686
g1 x35.288512 y217.269219
g1 x35.261245 y217.382696
g1 x35.252228 y217.50017
g1 x35.261251 y217.617819
g1 z-3 f300
g1 x35.288512 y217.731272 f650
g1 x35.33341 y217.839727
g1 x35.394632 y217.939673
g1 x35.47074 y218.028715
g1 x35.559858 y218.104738
g1 x35.660751 y218.166479
g1 x35.768846 y218.211411
g1 x35.882584 y218.238678
g1 x36.000024 y218.247918
g1 x36.11709 y218.238707
g1 x36.230452 y218.211411
g1 x36.339821 y218.166158
g1 x36.44019 y218.104738
g1 x36.529308 y218.028715
g1 x36.605416 y217.939673
g1 x36.666638 y217.839727
g1 x36.710939 y217.732714
g1 x36.738044 y217.61782
g1 x36.747568 y217.500171
g1 x36.73805 y217.382696
g1 x36.710939 y217.267777
g1 x36.666605 y217.160686
g1 x36.605417 y217.060744
g1 x36.529308 y216.971752
g1 x36.440084 y216.895587
g1 x36.339948 y216.83431
g1 x36.230451 y216.789055
g1 x36.117089 y216.761709
g1 x36.000024 y216.752548
g1 x35.882584 y216.761738
g1 x35.768846 y216.789055
g1 x35.660623 y216.83399
g1 x35.559964 y216.895587
g1 x35.47074 y216.971752
g1 x35.394631 y217.060744
g1 x35.333443 y217.160686
g1 x35.288512 y217.269219
g1 x35.261245 y217.382696
g1 x35.252228 y217.50017
g1 x35.261251 y217.617819
g0 z30
(Block-name: path4)
(Block-expand: 0)
(Block-enable: 0)

(End cutting path id: path4)


(Start cutting path id: path4)
(Change tool to Default tool)

G00 Z30.000000
G00 X32.018028 Y257.734677

G01 Z-1.000000 F100.0(Penetrate)
G01 X32.073028 Y257.963557 Z-1.000000 F400.000000
G01 X32.163028 Y258.180997 Z-1.000000
G01 X32.286028 Y258.381797 Z-1.000000
G01 X32.439028 Y258.560787 Z-1.000000
G01 X32.618028 Y258.713527 Z-1.000000
G01 X32.819028 Y258.836507 Z-1.000000
G01 X33.036028 Y258.926707 Z-1.000000
G01 X33.265028 Y258.981607 Z-1.000000
G01 X33.500028 Y259.000107 Z-1.000000
G01 X33.735028 Y258.981607 Z-1.000000
G01 X33.963028 Y258.926707 Z-1.000000
G01 X34.181028 Y258.836507 Z-1.000000
G01 X34.382028 Y258.713527 Z-1.000000
G01 X34.561028 Y258.560787 Z-1.000000
G01 X34.714028 Y258.381797 Z-1.000000
G01 X34.837028 Y258.180997 Z-1.000000
G01 X34.927028 Y257.963557 Z-1.000000
G01 X34.981028 Y257.734677 Z-1.000000
G01 X35.000028 Y257.500147 Z-1.000000
G01 X34.981028 Y257.265617 Z-1.000000
G01 X34.927028 Y257.036737 Z-1.000000
G01 X34.837028 Y256.819297 Z-1.000000
G01 X34.714028 Y256.618497 Z-1.000000
G01 X34.561028 Y256.439507 Z-1.000000
G01 X34.382028 Y256.286767 Z-1.000000
G01 X34.181028 Y256.163787 Z-1.000000
G01 X33.963028 Y256.073587 Z-1.000000
G01 X33.735028 Y256.018687 Z-1.000000
