(Block-name: Header)
(Block-expand: 0)
(Block-enable: 1)
%
(Header)
(Generated by gcodetools from Inkscape.)
(Using default header. To add your own header create file "header" in the output dir.)
M3
(Header end.)
G21 (All units in mm)

(Start cutting path id: path4)
(Change tool to Default tool)

G00 Z30.000000
(Block-name: path4)
(Block-expand: 0)
(Block-enable: 0)

(End cutting path id: path4)


(Start cutting path id: path4)
(Change tool to Default tool)

G00 Z30.000000
G00 X116.017997 Y47.735010

G01 Z-1.000000 F100.0(Penetrate)
G01 X116.072997 Y47.964010 Z-1.000000 F400.000000
G01 X116.162997 Y48.181010 Z-1.000000
G01 X116.285997 Y48.382010 Z-1.000000
G01 X116.438997 Y48.561010 Z-1.000000
G01 X116.617997 Y48.714010 Z-1.000000
G01 X116.818997 Y48.837009 Z-1.000000
G01 X117.035997 Y48.927009 Z-1.000000
G01 X117.264997 Y48.982009 Z-1.000000
G01 X117.499997 Y49.000009 Z-1.000000
G01 X117.734997 Y48.982009 Z-1.000000
G01 X117.963997 Y48.927009 Z-1.000000
G01 X118.180997 Y48.837009 Z-1.000000
G01 X118.381997 Y48.714009 Z-1.000000
G01 X118.560997 Y48.561009 Z-1.000000
G01 X118.713997 Y48.382009 Z-1.000000
G01 X118.835997 Y48.181009 Z-1.000000
G01 X118.926997 Y47.964009 Z-1.000000
G01 X118.980997 Y47.735009 Z-1.000000
G01 X118.999997 Y47.500009 Z-1.000000
G01 X118.980997 Y47.265009 Z-1.000000
G01 X118.926997 Y47.037009 Z-1.000000
G01 X118.835997 Y46.819009 Z-1.000000
G01 X118.713997 Y46.618009 Z-1.000000
G01 X118.560997 Y46.439009 Z-1.000000
G01 X118.381997 Y46.286009 Z-1.000000
G01 X118.180997 Y46.163009 Z-1.000000
G01 X117.963997 Y46.073009 Z-1.000000
G01 X117.734997 Y46.019009 Z-1.000000
G01 X117.499997 Y46.000009 Z-1.000000
G01 X117.264997 Y46.019009 Z-1.000000
G01 X117.035997 Y46.073009 Z-1.000000
G01 X116.818997 Y46.163009 Z-1.000000
G01 X116.617997 Y46.286009 Z-1.000000
G01 X116.438997 Y46.439009 Z-1.000000
G01 X116.285997 Y46.618010 Z-1.000000
G01 X116.162997 Y46.819010 Z-1.000000
G01 X116.072997 Y47.037010 Z-1.000000
G01 X116.017997 Y47.265010 Z-1.000000
G01 X115.999997 Y47.500010 Z-1.000000
G01 X116.017997 Y47.735010 Z-1.000000
G00 Z30.000000
(Block-name: path4 [in,cut])
(Block-expand: 0)
(Block-enable: 1)
g0 x116.761236 y47.618055
g1 z-1 f300
g1 x116.788442 y47.731332 f650
g1 x116.833319 y47.839536
g1 x116.894713 y47.939863
g1 x116.970951 y48.029056
g1 x117.060143 y48.105293
g1 x117.16047 y48.166686
g1 x117.268675 y48.211564
g1 x117.381952 y48.23877
g1 x117.499997 y48.247812
g1 x117.618042 y48.23877
g1 x117.731319 y48.211564
g1 x117.839523 y48.166687
g1 x117.93985 y48.105293
g1 x118.029043 y48.029055
g1 x118.104391 y47.940903
g1 x118.165919 y47.839534
g1 x118.211295 y47.731329
g1 x118.238005 y47.618057
g1 x118.24755 y47.500009
g1 x118.238035 y47.38233
g1 x118.211295 y47.269428
g1 x118.165598 y47.159957
g1 x118.104391 y47.059115
g1 x118.029043 y46.970963
g1 x117.93985 y46.894725
g1 x117.839523 y46.833331
g1 x117.73276 y46.789051
g1 x117.618045 y46.762001
g1 x117.499997 y46.752456
g1 x117.381949 y46.762001
g1 x117.267234 y46.789051
g1 x117.160471 y46.833331
g1 x117.060144 y46.894725
g1 x116.970952 y46.970962
g1 x116.894714 y47.060156
g1 x116.833639 y47.159961
g1 x116.788442 y47.269439
g1 x116.761207 y47.382339
g1 x116.752194 y47.50001
g1 x116.761236 y47.618055
g1 z-2 f300
g1 x116.788442 y47.731332 f650
g1 x116.833319 y47.839536
g1 x116.894713 y47.939863
g1 x116.970951 y48.029056
g1 x117.060143 y48.105293
g1 x117.16047 y48.166686
g1 x117.268675 y48.211564
g1 x117.381952 y48.23877
g1 x117.499997 y48.247812
g1 x117.618042 y48.23877
g1 x117.731319 y48.211564
g1 x117.839523 y48.166687
g1 x117.93985 y48.105293
g1 x118.029043 y48.029055
g1 x118.104391 y47.940903
g1 x118.165919 y47.839534
g1 x118.211295 y47.731329
g1 x118.238005 y47.618057
g1 x118.24755 y47.500009
g1 x118.238035 y47.38233
g1 x118.211295 y47.269428
g1 x118.165598 y47.159957
g1 x118.104391 y47.059115
g1 x118.029043 y46.970963
g1 x117.93985 y46.894725
g1 x117.839523 y46.833331
g1 x117.73276 y46.789051
g1 x117.618045 y46.762001
g1 x117.499997 y46.752456
g1 x117.381949 y46.762001
g1 x117.267234 y46.789051
g1 x117.160471 y46.833331
g1 x117.060144 y46.894725
g1 x116.970952 y46.970962
g1 x116.894714 y47.060156
g1 x116.833639 y47.159961
g1 x116.788442 y47.269439
g1 x116.761207 y47.382339
g1 x116.752194 y47.50001
g1 x116.761236 y47.618055
g1 z-3 f300
g1 x116.788442 y47.731332 f650
g1 x116.833319 y47.839536
g1 x116.894713 y47.939863
g1 x116.970951 y48.029056
g1 x117.060143 y48.105293
g1 x117.16047 y48.166686
g1 x117.268675 y48.211564
g1 x117.381952 y48.23877
g1 x117.499997 y48.247812
g1 x117.618042 y48.23877
g1 x117.731319 y48.211564
g1 x117.839523 y48.166687
g1 x117.93985 y48.105293
g1 x118.029043 y48.029055
g1 x118.104391 y47.940903
g1 x118.165919 y47.839534
g1 x118.211295 y47.731329
g1 x118.238005 y47.618057
g1 x118.24755 y47.500009
g1 x118.238035 y47.38233
g1 x118.211295 y47.269428
g1 x118.165598 y47.159957
g1 x118.104391 y47.059115
g1 x118.029043 y46.970963
g1 x117.93985 y46.894725
g1 x117.839523 y46.833331
g1 x117.73276 y46.789051
g1 x117.618045 y46.762001
g1 x117.499997 y46.752456
g1 x117.381949 y46.762001
g1 x117.267234 y46.789051
g1 x117.160471 y46.833331
g1 x117.060144 y46.894725
g1 x116.970952 y46.970962
g1 x116.894714 y47.060156
g1 x116.833639 y47.159961
g1 x116.788442 y47.269439
g1 x116.761207 y47.382339
g1 x116.752194 y47.50001
g1 x116.761236 y47.618055
g0 z30
(Block-name: path4)
(Block-expand: 0)
(Block-enable: 0)

(End cutting path id: path4)


(Start cutting path id: path4)
(Change tool to Default tool)

G00 Z30.000000
G00 X85.500011 Y237.500011

G01 Z-1.000000 F100.0(Penetrate)
G01 X85.561011 Y238.282311 Z-1.000000 F400.000000
G01 X85.745011 Y239.045111 Z-1.000000
G01 X86.045011 Y239.770111 Z-1.000000
G01 X86.455011 Y240.439011 Z-1.000000
G01 X86.964011 Y241.035611 Z-1.000000
G01 X87.561011 Y241.545111 Z-1.000000
G01 X88.230012 Y241.955111 Z-1.000000
G01 X88.955012 Y242.255411 Z-1.000000
G01 X89.718012 Y242.438511 Z-1.000000
G01 X90.500015 Y242.500011 Z-1.000000
G01 X144.500017 Y242.500006 Z-1.000000
G01 X145.282017 Y242.438506 Z-1.000000
G01 X146.045017 Y242.255405 Z-1.000000
G01 X146.770017 Y241.955105 Z-1.000000
G01 X147.439017 Y241.545105 Z-1.000000
G01 X148.035017 Y241.035605 Z-1.000000
G01 X148.545017 Y240.439005 Z-1.000000
G01 X148.955017 Y239.770105 Z-1.000000
G01 X149.255016 Y239.045105 Z-1.000000
G01 X149.438016 Y238.282305 Z-1.000000
G01 X149.500016 Y237.500005 Z-1.000000
G01 X149.500011 Y187.499999 Z-1.000000
G01 X149.438011 Y186.717809 Z-1.000000
G01 X149.255011 Y185.954999 Z-1.000000
G01 X148.955011 Y185.230099 Z-1.000000
G01 X148.545011 Y184.561209 Z-1.000000
G01 X148.035011 Y183.964499 Z-1.000000
G01 X147.439011 Y183.454999 Z-1.000000
G01 X146.770011 Y183.045009 Z-1.000000
G01 X146.045011 Y182.744799 Z-1.000000
G01 X145.282011 Y182.561599 Z-1.000000
G01 X144.500011 Y182.499999 Z-1.000000
G01 X90.500009 Y182.500005 Z-1.000000
G01 X89.718006 Y182.561605 Z-1.000000
G01 X88.955006 Y182.744805 Z-1.000000
G01 X88.230006 Y183.045015 Z-1.000000
G01 X87.561006 Y183.455005 Z-1.000000
G01 X86.964006 Y183.964505 Z-1.000000
G01 X86.455006 Y184.561215 Z-1.000000
G01 X86.045006 Y185.230105 Z-1.000000
G01 X85.745006 Y185.955005 Z-1.000000
G01 X85.561006 Y186.717815 Z-1.000000
G01 X85.500006 Y187.500005 Z-1.000000
G01 X85.500011 Y237.500011 Z-1.000000
G00 Z30.000000
(Block-name: path4 [in,cut])
(Block-expand: 0)
(Block-enable: 1)
g0 x86.250011 y237.470815
g1 z-1 f300
g1 x86.3041 y238.164483 f650
g1 x86.460385 y238.812388
g1 x86.715388 y239.428644
g1 x87.063728 y239.996948
g1 x87.496041 y240.503663
g1 x88.003104 y240.936408
g1 x88.571569 y241.284794
g1 x89.187455 y241.539898
g1 x89.835642 y241.695446
g1 x90.529461 y241.750011
g1 x144.470571 y241.750006
g1 x145.164386 y241.695441
g1 x145.812574 y241.539892
g1 x146.428459 y241.284788
g1 x146.996658 y240.936565
g1 x147.503062 y240.503657
g1 x147.936491 y239.996631
g1 x148.28464 y239.428638
g1 x148.539463 y238.812815
g1 x148.695003 y238.164477
g1 x148.750016 y237.470332
g1 x148.750011 y187.529677
g1 x148.694998 y186.83564
g1 x148.539462 y186.187306
g1 x148.284645 y185.571584
g1 x147.936469 y185.003556
g1 x147.50303 y184.496425
g1 x146.996655 y184.063542
g1 x146.428491 y183.715348
g1 x145.812564 y183.460303
g1 x145.164287 y183.304649
g1 x144.470517 y183.249999
g1 x90.529503 y183.250005
g1 x89.83573 y183.304655
g1 x89.187453 y183.460309
g1 x88.571526 y183.715354
g1 x88.003096 y184.063711
g1 x87.496062 y184.496431
g1 x87.063739 y185.00325
g1 x86.715372 y185.57159
g1 x86.460377 y186.187745
g1 x86.304094 y186.835646
g1 x86.250006 y187.529205
g1 x86.250011 y237.470815
g1 z-2 f300
g1 x86.3041 y238.164483 f650
g1 x86.460385 y238.812388
g1 x86.715388 y239.428644
g1 x87.063728 y239.996948
g1 x87.496041 y240.503663
g1 x88.003104 y240.936408
g1 x88.571569 y241.284794
g1 x89.187455 y241.539898
g1 x89.835642 y241.695446
g1 x90.529461 y241.750011
g1 x144.470571 y241.750006
g1 x145.164386 y241.695441
g1 x145.812574 y241.539892
g1 x146.428459 y241.284788
g1 x146.996658 y240.936565
g1 x147.503062 y240.503657
g1 x147.936491 y239.996631
g1 x148.28464 y239.428638
g1 x148.539463 y238.812815
g1 x148.695003 y238.164477
g1 x148.750016 y237.470332
g1 x148.750011 y187.529677
g1 x148.694998 y186.83564
g1 x148.539462 y186.187306
g1 x148.284645 y185.571584
g1 x147.936469 y185.003556
g1 x147.50303 y184.496425
g1 x146.996655 y184.063542
g1 x146.428491 y183.715348
g1 x145.812564 y183.460303
g1 x145.164287 y183.304649
g1 x144.470517 y183.249999
g1 x90.529503 y183.250005
g1 x89.83573 y183.304655
g1 x89.187453 y183.460309
g1 x88.571526 y183.715354
g1 x88.003096 y184.063711
g1 x87.496062 y184.496431
g1 x87.063739 y185.00325
g1 x86.715372 y185.57159
g1 x86.460377 y186.187745
g1 x86.304094 y186.835646
g1 x86.250006 y187.529205
g1 x86.250011 y237.470815
g1 z-3 f300
g1 x86.3041 y238.164483 f650
g1 x86.460385 y238.812388
g1 x86.715388 y239.428644
g1 x87.063728 y239.996948
g1 x87.496041 y240.503663
g1 x88.003104 y240.936408
g1 x88.571569 y241.284794
g1 x89.187455 y241.539898
g1 x89.835642 y241.695446
g1 x90.529461 y241.750011
g1 x144.470571 y241.750006
g1 x145.164386 y241.695441
g1 x145.812574 y241.539892
g1 x146.428459 y241.284788
g1 x146.996658 y240.936565
g1 x147.503062 y240.503657
g1 x147.936491 y239.996631
g1 x148.28464 y239.428638
g1 x148.539463 y238.812815
g1 x148.695003 y238.164477
g1 x148.750016 y237.470332
g1 x148.750011 y187.529677
g1 x148.694998 y186.83564
g1 x148.539462 y186.187306
g1 x148.284645 y185.571584
g1 x147.936469 y185.003556
g1 x147.50303 y184.496425
g1 x146.996655 y184.063542
g1 x146.428491 y183.715348
g1 x145.812564 y183.460303
g1 x145.164287 y183.304649
g1 x144.470517 y183.249999
g1 x90.529503 y183.250005
g1 x89.83573 y183.304655
g1 x89.187453 y183.460309
g1 x88.571526 y183.715354
g1 x88.003096 y184.063711
g1 x87.496062 y184.496431
g1 x87.063739 y185.00325
g1 x86.715372 y185.57159
g1 x86.460377 y186.187745
g1 x86.304094 y186.835646
g1 x86.250006 y187.529205
g1 x86.250011 y237.470815
g0 z30
(Block-name: path4)
(Block-expand: 0)
(Block-enable: 0)

(End cutting path id: path4)


(Start cutting path id: path4)
(Change tool to Default tool)

G00 Z30.000000
G00 X144.549002 Y93.126008

G01 Z-1.000000 F100.0(Penetrate)
G01 X144.696002 Y93.736008 Z-1.000000 F400.000000
G01 X144.936002 Y94.316008 Z-1.000000
G01 X145.264002 Y94.851008 Z-1.000000
G01 X145.672002 Y95.329008 Z-1.000000
G01 X146.149002 Y95.736008 Z-1.000000
G01 X146.684002 Y96.064008 Z-1.000000
G01 X147.264002 Y96.304007 Z-1.000000
G01 X147.874002 Y96.451007 Z-1.000000
G01 X148.500002 Y96.500007 Z-1.000000
G01 X149.126002 Y96.451007 Z-1.000000
G01 X149.736002 Y96.304007 Z-1.000000
G01 X150.316002 Y96.064007 Z-1.000000
G01 X150.851002 Y95.736007 Z-1.000000
G01 X151.328002 Y95.329007 Z-1.000000
G01 X151.736002 Y94.851007 Z-1.000000
G01 X152.064002 Y94.316007 Z-1.000000
G01 X152.304002 Y93.736007 Z-1.000000
G01 X152.451002 Y93.126007 Z-1.000000
G01 X152.500002 Y92.500007 Z-1.000000
G01 X152.451002 Y91.874007 Z-1.000000
G01 X152.304002 Y91.264007 Z-1.000000
G01 X152.064002 Y90.684007 Z-1.000000
G01 X151.736002 Y90.149007 Z-1.000000
G01 X151.328002 Y89.672007 Z-1.000000
G01 X150.851002 Y89.264007 Z-1.000000
G01 X150.316002 Y88.936007 Z-1.000000
G01 X149.736002 Y88.696007 Z-1.000000
G01 X149.126002 Y88.549007 Z-1.000000
G01 X148.500002 Y88.500007 Z-1.000000
G01 X147.874002 Y88.549007 Z-1.000000
G01 X147.264002 Y88.696007 Z-1.000000
G01 X146.684002 Y88.936007 Z-1.000000
G01 X146.149002 Y89.264007 Z-1.000000
G01 X145.672002 Y89.672007 Z-1.000000
G01 X145.264002 Y90.149008 Z-1.000000
G01 X144.936002 Y90.684008 Z-1.000000
G01 X144.696002 Y91.264008 Z-1.000000
G01 X144.549002 Y91.874008 Z-1.000000
G01 X144.500002 Y92.500008 Z-1.000000
G01 X144.549002 Y93.126008 Z-1.000000
G00 Z30.000000
(Block-name: path4 [in,cut])
(Block-expand: 0)
(Block-enable: 1)
g0 x145.292071 y93.008153
g1 z-1 f300
g1 x145.411408 y93.503362 f650
g1 x145.606364 y93.974506
g1 x145.87265 y94.408844
g1 x146.203941 y94.796974
g1 x146.591109 y95.127325
g1 x147.025504 y95.393645
g1 x147.496647 y95.588601
g1 x147.991857 y95.707938
g1 x148.500002 y95.747713
g1 x149.008147 y95.707938
g1 x149.503356 y95.588601
g1 x149.9745 y95.393645
g1 x150.408895 y95.127324
g1 x150.796063 y94.796973
g1 x151.127354 y94.408843
g1 x151.39364 y93.974505
g1 x151.588596 y93.503361
g1 x151.707933 y93.008152
g1 x151.747708 y92.500007
g1 x151.707933 y91.991862
g1 x151.588596 y91.496653
g1 x151.39364 y91.025509
g1 x151.127558 y90.591503
g1 x150.796062 y90.203947
g1 x150.408506 y89.872451
g1 x149.9745 y89.606369
g1 x149.503356 y89.411413
g1 x149.008147 y89.292076
g1 x148.500002 y89.252301
g1 x147.991857 y89.292076
g1 x147.496648 y89.411413
g1 x147.025504 y89.606369
g1 x146.591498 y89.872451
g1 x146.203942 y90.203946
g1 x145.872447 y90.591504
g1 x145.606364 y91.02551
g1 x145.411408 y91.496654
g1 x145.292071 y91.991863
g1 x145.252296 y92.500008
g1 x145.292071 y93.008153
g1 z-2 f300
g1 x145.411408 y93.503362 f650
g1 x145.606364 y93.974506
g1 x145.87265 y94.408844
g1 x146.203941 y94.796974
g1 x146.591109 y95.127325
g1 x147.025504 y95.393645
g1 x147.496647 y95.588601
g1 x147.991857 y95.707938
g1 x148.500002 y95.747713
g1 x149.008147 y95.707938
g1 x149.503356 y95.588601
g1 x149.9745 y95.393645
g1 x150.408895 y95.127324
g1 x150.796063 y94.796973
g1 x151.127354 y94.408843
g1 x151.39364 y93.974505
g1 x151.588596 y93.503361
g1 x151.707933 y93.008152
g1 x151.747708 y92.500007
g1 x151.707933 y91.991862
g1 x151.588596 y91.496653
g1 x151.39364 y91.025509
g1 x151.127558 y90.591503
g1 x150.796062 y90.203947
g1 x150.408506 y89.872451
g1 x149.9745 y89.606369
g1 x149.503356 y89.411413
g1 x149.008147 y89.292076
g1 x148.500002 y89.252301
g1 x147.991857 y89.292076
g1 x147.496648 y89.411413
g1 x147.025504 y89.606369
g1 x146.591498 y89.872451
g1 x146.203942 y90.203946
g1 x145.872447 y90.591504
g1 x145.606364 y91.02551
g1 x145.411408 y91.496654
g1 x145.292071 y91.991863
g1 x145.252296 y92.500008
g1 x145.292071 y93.008153
g1 z-3 f300
g1 x145.411408 y93.503362 f650
g1 x145.606364 y93.974506
g1 x145.87265 y94.408844
g1 x146.203941 y94.796974
g1 x146.591109 y95.127325
g1 x147.025504 y95.393645
g1 x147.496647 y95.588601
g1 x147.991857 y95.707938
g1 x148.500002 y95.747713
g1 x149.008147 y95.707938
g1 x149.503356 y95.588601
g1 x149.9745 y95.393645
g1 x150.408895 y95.127324
g1 x150.796063 y94.796973
g1 x151.127354 y94.408843
g1 x151.39364 y93.974505
g1 x151.588596 y93.503361
g1 x151.707933 y93.008152
g1 x151.747708 y92.500007
g1 x151.707933 y91.991862
g1 x151.588596 y91.496653
g1 x151.39364 y91.025509
g1 x151.127558 y90.591503
g1 x150.796062 y90.203947
g1 x150.408506 y89.872451
g1 x149.9745 y89.606369
g1 x149.503356 y89.411413
g1 x149.008147 y89.292076
g1 x148.500002 y89.252301
g1 x147.991857 y89.292076
g1 x147.496648 y89.411413
g1 x147.025504 y89.606369
g1 x146.591498 y89.872451
g1 x146.203942 y90.203946
g1 x145.872447 y90.591504
g1 x145.606364 y91.02551
g1 x145.411408 y91.496654
g1 x145.292071 y91.991863
g1 x145.252296 y92.500008
g1 x145.292071 y93.008153
g0 z30
(Block-name: path4)
(Block-expand: 0)
(Block-enable: 0)

(End cutting path id: path4)


(Start cutting path id: path4)
(Change tool to Default tool)

G00 Z30.000000
G00 X149.018008 Y152.734708

G01 Z-1.000000 F100.0(Penetrate)
G01 X149.073008 Y152.963608 Z-1.000000 F400.000000
G01 X149.163008 Y153.181008 Z-1.000000
G01 X149.286008 Y153.381808 Z-1.000000
G01 X149.439008 Y153.560808 Z-1.000000
G01 X149.618008 Y153.713508 Z-1.000000
G01 X149.819008 Y153.836508 Z-1.000000
G01 X150.036008 Y153.926708 Z-1.000000
G01 X150.265008 Y153.981608 Z-1.000000
G01 X150.500008 Y154.000108 Z-1.000000
G01 X150.735008 Y153.981608 Z-1.000000
G01 X150.963008 Y153.926708 Z-1.000000
G01 X151.181008 Y153.836508 Z-1.000000
G01 X151.382008 Y153.713508 Z-1.000000
G01 X151.561008 Y153.560808 Z-1.000000
G01 X151.714008 Y153.381808 Z-1.000000
G01 X151.837008 Y153.181008 Z-1.000000
G01 X151.927008 Y152.963608 Z-1.000000
G01 X151.981008 Y152.734708 Z-1.000000
G01 X152.000008 Y152.500008 Z-1.000000
G01 X151.981008 Y152.265008 Z-1.000000
G01 X151.927008 Y152.037008 Z-1.000000
G01 X151.837008 Y151.819008 Z-1.000000
G01 X151.714008 Y151.618008 Z-1.000000
G01 X151.561008 Y151.439008 Z-1.000000
G01 X151.382008 Y151.287008 Z-1.000000
G01 X151.181008 Y151.164008 Z-1.000000
G01 X150.963008 Y151.073008 Z-1.000000
G01 X150.735008 Y151.019008 Z-1.000000
G01 X150.500008 Y151.000008 Z-1.000000
G01 X150.265008 Y151.019008 Z-1.000000
G01 X150.036008 Y151.073008 Z-1.000000
G01 X149.819008 Y151.164008 Z-1.000000
G01 X149.618008 Y151.287008 Z-1.000000
G01 X149.439008 Y151.439008 Z-1.000000
G01 X149.286008 Y151.618008 Z-1.000000
G01 X149.163008 Y151.819008 Z-1.000000
G01 X149.073008 Y152.037008 Z-1.000000
G01 X149.018008 Y152.265008 Z-1.000000
G01 X149.000008 Y152.500008 Z-1.000000
G01 X149.018008 Y152.734708 Z-1.000000
G00 Z30.000000
(Block-name: path4 [in,cut])
(Block-expand: 0)
(Block-enable: 1)
g0 x149.761235 y152.61768
g1 z-1 f300
g1 x149.788496 y152.731134 f650
g1 x149.833394 y152.839589
g1 x149.894616 y152.939534
g1 x149.970724 y153.028576
g1 x150.059843 y153.104601
g1 x150.160735 y153.166341
g1 x150.26883 y153.211273
g1 x150.382583 y153.238544
g1 x150.500008 y153.247788
g1 x150.617059 y153.238573
g1 x150.730436 y153.211273
g1 x150.839805 y153.16602
g1 x150.940173 y153.104601
g1 x151.029292 y153.028576
g1 x151.1054 y152.939534
g1 x151.166622 y152.839589
g1 x151.210923 y152.732576
g1 x151.238028 y152.617681
g1 x151.247558 y152.499969
g1 x151.238046 y152.382329
g1 x151.210966 y152.26799
g1 x151.166366 y152.159959
g1 x151.105292 y152.060155
g1 x151.029848 y151.97189
g1 x150.940903 y151.896362
g1 x150.838798 y151.833879
g1 x150.730589 y151.78871
g1 x150.617687 y151.76197
g1 x150.500008 y151.752455
g1 x150.38196 y151.762
g1 x150.268688 y151.78871
g1 x150.161745 y151.833557
g1 x150.059113 y151.896362
g1 x149.970168 y151.97189
g1 x149.894724 y152.060155
g1 x149.83365 y152.159959
g1 x149.788453 y152.269437
g1 x149.761218 y152.382337
g1 x149.752208 y152.499971
g1 x149.761235 y152.61768
g1 z-2 f300
g1 x149.788496 y152.731134 f650
g1 x149.833394 y152.839589
g1 x149.894616 y152.939534
g1 x149.970724 y153.028576
g1 x150.059843 y153.104601
g1 x150.160735 y153.166341
g1 x150.26883 y153.211273
g1 x150.382583 y153.238544
g1 x150.500008 y153.247788
g1 x150.617059 y153.238573
g1 x150.730436 y153.211273
g1 x150.839805 y153.16602
g1 x150.940173 y153.104601
g1 x151.029292 y153.028576
g1 x151.1054 y152.939534
g1 x151.166622 y152.839589
g1 x151.210923 y152.732576
g1 x151.238028 y152.617681
g1 x151.247558 y152.499969
g1 x151.238046 y152.382329
g1 x151.210966 y152.26799
g1 x151.166366 y152.159959
g1 x151.105292 y152.060155
g1 x151.029848 y151.97189
g1 x150.940903 y151.896362
g1 x150.838798 y151.833879
g1 x150.730589 y151.78871
g1 x150.617687 y151.76197
g1 x150.500008 y151.752455
g1 x150.38196 y151.762
g1 x150.268688 y151.78871
g1 x150.161745 y151.833557
g1 x150.059113 y151.896362
g1 x149.970168 y151.97189
g1 x149.894724 y152.060155
g1 x149.83365 y152.159959
g1 x149.788453 y152.269437
g1 x149.761218 y152.382337
g1 x149.752208 y152.499971
g1 x149.761235 y152.61768
g1 z-3 f300
g1 x149.788496 y152.731134 f650
g1 x149.833394 y152.839589
g1 x149.894616 y152.939534
g1 x149.970724 y153.028576
g1 x150.059843 y153.104601
g1 x150.160735 y153.166341
g1 x150.26883 y153.211273
g1 x150.382583 y153.238544
g1 x150.500008 y153.247788
g1 x150.617059 y153.238573
g1 x150.730436 y153.211273
g1 x150.839805 y153.16602
g1 x150.940173 y153.104601
g1 x151.029292 y153.028576
g1 x151.1054 y152.939534
g1 x151.166622 y152.839589
g1 x151.210923 y152.732576
g1 x151.238028 y152.617681
g1 x151.247558 y152.499969
g1 x151.238046 y152.382329
g1 x151.210966 y152.26799
g1 x151.166366 y152.159959
g1 x151.105292 y152.060155
g1 x151.029848 y151.97189
g1 x150.940903 y151.896362
g1 x150.838798 y151.833879
g1 x150.730589 y151.78871
g1 x150.617687 y151.76197
g1 x150.500008 y151.752455
g1 x150.38196 y151.762
g1 x150.268688 y151.78871
g1 x150.161745 y151.833557
g1 x150.059113 y151.896362
g1 x149.970168 y151.97189
g1 x149.894724 y152.060155
g1 x149.83365 y152.159959
g1 x149.788453 y152.269437
g1 x149.761218 y152.382337
g1 x149.752208 y152.499971
g1 x149.761235 y152.61768
g0 z30
(Block-name: path4)
(Block-expand: 0)
(Block-enable: 0)

(End cutting path id: path4)


(Start cutting path id: path4)
(Change tool to Default tool)

G00 Z30.000000
G00 X129.092004 Y119.673010

G01 Z-1.000000 F100.0(Penetrate)
G01 X129.367004 Y120.818010 Z-1.000000 F400.000000
G01 X129.817005 Y121.905010 Z-1.000000
G01 X130.432005 Y122.908010 Z-1.000000
G01 X131.197005 Y123.803010 Z-1.000000
G01 X132.091005 Y124.568010 Z-1.000000
G01 X133.095005 Y125.183009 Z-1.000000
G01 X134.182005 Y125.633009 Z-1.000000
G01 X135.327005 Y125.908009 Z-1.000000
G01 X136.500005 Y126.000009 Z-1.000000
G01 X137.673005 Y125.908009 Z-1.000000
G01 X138.818005 Y125.633009 Z-1.000000
G01 X139.905005 Y125.183009 Z-1.000000
G01 X140.908005 Y124.568009 Z-1.000000
G01 X141.803005 Y123.803009 Z-1.000000
G01 X142.568005 Y122.908008 Z-1.000000
G01 X143.182005 Y121.905008 Z-1.000000
G01 X143.633005 Y120.818008 Z-1.000000
G01 X143.908005 Y119.673008 Z-1.000000
G01 X144.000005 Y118.500008 Z-1.000000
G01 X143.908004 Y117.327008 Z-1.000000
G01 X143.633004 Y116.182008 Z-1.000000
G01 X143.182004 Y115.095008 Z-1.000000
G01 X142.568004 Y114.092008 Z-1.000000
G01 X141.803004 Y113.197008 Z-1.000000
G01 X140.908004 Y112.432008 Z-1.000000
G01 X139.905004 Y111.817008 Z-1.000000
G01 X138.818004 Y111.367009 Z-1.000000
G01 X137.673004 Y111.092009 Z-1.000000
G01 X136.500004 Y111.000009 Z-1.000000
G01 X135.327004 Y111.092009 Z-1.000000
G01 X134.182004 Y111.367009 Z-1.000000
G01 X133.095004 Y111.817009 Z-1.000000
G01 X132.091004 Y112.432009 Z-1.000000
G01 X131.197004 Y113.197009 Z-1.000000
G01 X130.432004 Y114.092009 Z-1.000000
G01 X129.817004 Y115.095010 Z-1.000000
G01 X129.367004 Y116.182010 Z-1.000000
G01 X129.092004 Y117.327010 Z-1.000000
G01 X129.000004 Y118.500010 Z-1.000000
G01 X129.092004 Y119.673010 Z-1.000000
G00 Z30.000000
(Block-name: path4 [in,cut])
(Block-expand: 0)
(Block-enable: 1)
g0 x129.835082 y119.555386
g1 z-1 f300
g1 x130.082506 y120.585571 f650
g1 x130.487327 y121.563436
g1 x131.040504 y122.465609
g1 x131.729094 y123.271215
g1 x132.533456 y123.959511
g1 x133.436424 y124.512623
g1 x134.414444 y124.917507
g1 x135.444629 y125.164931
g1 x136.500005 y125.247706
g1 x137.555381 y125.164931
g1 x138.585566 y124.917507
g1 x139.563431 y124.512687
g1 x140.465604 y123.95951
g1 x141.271051 y123.271055
g1 x141.959328 y122.465815
g1 x142.511733 y121.563434
g1 x142.917572 y120.585281
g1 x143.164927 y119.555384
g1 x143.247702 y118.500008
g1 x143.164926 y117.444632
g1 x142.917571 y116.414735
g1 x142.511732 y115.436582
g1 x141.959328 y114.534201
g1 x141.27105 y113.728962
g1 x140.465603 y113.040507
g1 x139.563431 y112.48733
g1 x138.585565 y112.082511
g1 x137.55538 y111.835087
g1 x136.500004 y111.752312
g1 x135.444628 y111.835087
g1 x134.414443 y112.082511
g1 x133.436423 y112.487395
g1 x132.533456 y113.040508
g1 x131.729093 y113.728804
g1 x131.040503 y114.53441
g1 x130.487326 y115.436584
g1 x130.082506 y116.414449
g1 x129.835082 y117.444634
g1 x129.752307 y118.50001
g1 x129.835082 y119.555386
g1 z-2 f300
g1 x130.082506 y120.585571 f650
g1 x130.487327 y121.563436
g1 x131.040504 y122.465609
g1 x131.729094 y123.271215
g1 x132.533456 y123.959511
g1 x133.436424 y124.512623
g1 x134.414444 y124.917507
g1 x135.444629 y125.164931
g1 x136.500005 y125.247706
g1 x137.555381 y125.164931
g1 x138.585566 y124.917507
g1 x139.563431 y124.512687
g1 x140.465604 y123.95951
g1 x141.271051 y123.271055
g1 x141.959328 y122.465815
g1 x142.511733 y121.563434
g1 x142.917572 y120.585281
g1 x143.164927 y119.555384
g1 x143.247702 y118.500008
g1 x143.164926 y117.444632
g1 x142.917571 y116.414735
g1 x142.511732 y115.436582
g1 x141.959328 y114.534201
g1 x141.27105 y113.728962
g1 x140.465603 y113.040507
g1 x139.563431 y112.48733
g1 x138.585565 y112.082511
g1 x137.55538 y111.835087
g1 x136.500004 y111.752312
g1 x135.444628 y111.835087
g1 x134.414443 y112.082511
g1 x133.436423 y112.487395
g1 x132.533456 y113.040508
g1 x131.729093 y113.728804
g1 x131.040503 y114.53441
g1 x130.487326 y115.436584
g1 x130.082506 y116.414449
g1 x129.835082 y117.444634
g1 x129.752307 y118.50001
g1 x129.835082 y119.555386
g1 z-3 f300
g1 x130.082506 y120.585571 f650
g1 x130.487327 y121.563436
g1 x131.040504 y122.465609
g1 x131.729094 y123.271215
g1 x132.533456 y123.959511
g1 x133.436424 y124.512623
g1 x134.414444 y124.917507
g1 x135.444629 y125.164931
g1 x136.500005 y125.247706
g1 x137.555381 y125.164931
g1 x138.585566 y124.917507
g1 x139.563431 y124.512687
g1 x140.465604 y123.95951
g1 x141.271051 y123.271055
g1 x141.959328 y122.465815
g1 x142.511733 y121.563434
g1 x142.917572 y120.585281
g1 x143.164927 y119.555384
g1 x143.247702 y118.500008
g1 x143.164926 y117.444632
g1 x142.917571 y116.414735
g1 x142.511732 y115.436582
g1 x141.959328 y114.534201
g1 x141.27105 y113.728962
g1 x140.465603 y113.040507
g1 x139.563431 y112.48733
g1 x138.585565 y112.082511
g1 x137.55538 y111.835087
g1 x136.500004 y111.752312
g1 x135.444628 y111.835087
g1 x134.414443 y112.082511
g1 x133.436423 y112.487395
g1 x132.533456 y113.040508
g1 x131.729093 y113.728804
g1 x131.040503 y114.53441
g1 x130.487326 y115.436584
g1 x130.082506 y116.414449
g1 x129.835082 y117.444634
g1 x129.752307 y118.50001
g1 x129.835082 y119.555386
g0 z30
(Block-name: path4)
(Block-expand: 0)
(Block-enable: 0)

(End cutting path id: path4)


(Start cutting path id: path4)
(Change tool to Default tool)

G00 Z30.000000
G00 X135.000003 Y107.000009

G01 Z-1.000000 F100.0(Penetrate)
G01 X135.018003 Y107.235009 Z-1.000000 F400.000000
G01 X135.073003 Y107.464009 Z-1.000000
G01 X135.163003 Y107.681009 Z-1.000000
G01 X135.286003 Y107.882009 Z-1.000000
G01 X135.439003 Y108.061009 Z-1.000000
G01 X135.618003 Y108.214009 Z-1.000000
G01 X135.819003 Y108.337009 Z-1.000000
G01 X136.036003 Y108.427009 Z-1.000000
G01 X136.265003 Y108.482009 Z-1.000000
G01 X136.500003 Y108.500009 Z-1.000000
G01 X136.735003 Y108.482009 Z-1.000000
G01 X136.963003 Y108.427009 Z-1.000000
G01 X137.181003 Y108.337009 Z-1.000000
G01 X137.382003 Y108.214009 Z-1.000000
G01 X137.561003 Y108.061009 Z-1.000000
G01 X137.713003 Y107.882009 Z-1.000000
G01 X137.836003 Y107.681009 Z-1.000000
G01 X137.926003 Y107.464009 Z-1.000000
G01 X137.982003 Y107.235009 Z-1.000000
G01 X138.000003 Y107.000009 Z-1.000000
G01 X138.000003 Y105.000009 Z-1.000000
G01 X137.982003 Y104.765009 Z-1.000000
G01 X137.926003 Y104.537009 Z-1.000000
G01 X137.836003 Y104.319009 Z-1.000000
G01 X137.713003 Y104.118009 Z-1.000000
G01 X137.561003 Y103.939009 Z-1.000000
G01 X137.382003 Y103.787009 Z-1.000000
G01 X137.181003 Y103.664009 Z-1.000000
G01 X136.963003 Y103.573009 Z-1.000000
G01 X136.735003 Y103.519009 Z-1.000000
G01 X136.500003 Y103.500009 Z-1.000000
G01 X136.265003 Y103.519009 Z-1.000000
G01 X136.036003 Y103.573009 Z-1.000000
G01 X135.819003 Y103.664009 Z-1.000000
G01 X135.618003 Y103.787009 Z-1.000000
G01 X135.439003 Y103.939009 Z-1.000000
G01 X135.286003 Y104.118009 Z-1.000000
G01 X135.163003 Y104.319009 Z-1.000000
G01 X135.073003 Y104.537009 Z-1.000000
G01 X135.018003 Y104.765009 Z-1.000000
G01 X135.000003 Y105.000009 Z-1.000000
G01 X135.000003 Y107.000009 Z-1.000000
G00 Z30.000000
(Block-name: path4 [in,cut])
(Block-expand: 0)
(Block-enable: 1)
g0 x135.750003 y106.971328
g1 z-1 f300
g1 x135.761242 y107.118054 f650
g1 x135.788448 y107.231331
g1 x135.833325 y107.339535
g1 x135.894719 y107.439862
g1 x135.970957 y107.529055
g1 x136.06015 y107.605293
g1 x136.160477 y107.666687
g1 x136.268681 y107.711564
g1 x136.381958 y107.73877
g1 x136.500003 y107.747812
g1 x136.617674 y107.738799
g1 x136.730574 y107.711564
g1 x136.840052 y107.666367
g1 x136.939856 y107.605293
g1 x137.028121 y107.529849
g1 x137.103649 y107.440904
g1 x137.165681 y107.339535
g1 x137.211154 y107.229894
g1 x137.238883 y107.116502
g1 x137.250003 y106.971328
g1 x137.250003 y105.02869
g1 x137.238912 y104.883897
g1 x137.211154 y104.770882
g1 x137.165361 y104.65996
g1 x137.103649 y104.559114
g1 x137.028911 y104.471101
g1 x136.940898 y104.396363
g1 x136.838793 y104.33388
g1 x136.730584 y104.288711
g1 x136.617682 y104.261971
g1 x136.500003 y104.252456
g1 x136.381955 y104.262001
g1 x136.268683 y104.288711
g1 x136.16174 y104.333558
g1 x136.059108 y104.396363
g1 x135.970163 y104.471891
g1 x135.894719 y104.560156
g1 x135.833645 y104.65996
g1 x135.788448 y104.769438
g1 x135.761213 y104.882338
g1 x135.750003 y105.02869
g1 x135.750003 y106.971328
g1 z-2 f300
g1 x135.761242 y107.118054 f650
g1 x135.788448 y107.231331
g1 x135.833325 y107.339535
g1 x135.894719 y107.439862
g1 x135.970957 y107.529055
g1 x136.06015 y107.605293
g1 x136.160477 y107.666687
g1 x136.268681 y107.711564
g1 x136.381958 y107.73877
g1 x136.500003 y107.747812
g1 x136.617674 y107.738799
g1 x136.730574 y107.711564
g1 x136.840052 y107.666367
g1 x136.939856 y107.605293
g1 x137.028121 y107.529849
g1 x137.103649 y107.440904
g1 x137.165681 y107.339535
g1 x137.211154 y107.229894
g1 x137.238883 y107.116502
g1 x137.250003 y106.971328
g1 x137.250003 y105.02869
g1 x137.238912 y104.883897
g1 x137.211154 y104.770882
g1 x137.165361 y104.65996
g1 x137.103649 y104.559114
g1 x137.028911 y104.471101
g1 x136.940898 y104.396363
g1 x136.838793 y104.33388
g1 x136.730584 y104.288711
g1 x136.617682 y104.261971
g1 x136.500003 y104.252456
g1 x136.381955 y104.262001
g1 x136.268683 y104.288711
g1 x136.16174 y104.333558
g1 x136.059108 y104.396363
g1 x135.970163 y104.471891
g1 x135.894719 y104.560156
g1 x135.833645 y104.65996
g1 x135.788448 y104.769438
g1 x135.761213 y104.882338
g1 x135.750003 y105.02869
g1 x135.750003 y106.971328
g1 z-3 f300
g1 x135.761242 y107.118054 f650
g1 x135.788448 y107.231331
g1 x135.833325 y107.339535
g1 x135.894719 y107.439862
g1 x135.970957 y107.529055
g1 x136.06015 y107.605293
g1 x136.160477 y107.666687
g1 x136.268681 y107.711564
g1 x136.381958 y107.73877
g1 x136.500003 y107.747812
g1 x136.617674 y107.738799
g1 x136.730574 y107.711564
g1 x136.840052 y107.666367
g1 x136.939856 y107.605293
g1 x137.028121 y107.529849
g1 x137.103649 y107.440904
g1 x137.165681 y107.339535
g1 x137.211154 y107.229894
g1 x137.238883 y107.116502
g1 x137.250003 y106.971328
g1 x137.250003 y105.02869
g1 x137.238912 y104.883897
g1 x137.211154 y104.770882
g1 x137.165361 y104.65996
g1 x137.103649 y104.559114
g1 x137.028911 y104.471101
g1 x136.940898 y104.396363
g1 x136.838793 y104.33388
g1 x136.730584 y104.288711
g1 x136.617682 y104.261971
g1 x136.500003 y104.252456
g1 x136.381955 y104.262001
g1 x136.268683 y104.288711
g1 x136.16174 y104.333558
g1 x136.059108 y104.396363
g1 x135.970163 y104.471891
g1 x135.894719 y104.560156
g1 x135.833645 y104.65996
g1 x135.788448 y104.769438
g1 x135.761213 y104.882338
g1 x135.750003 y105.02869
g1 x135.750003 y106.971328
g0 z30
(Block-name: path4)
(Block-expand: 0)
(Block-enable: 0)

(End cutting path id: path4)


(Start cutting path id: path4)
(Change tool to Default tool)

G00 Z30.000000
G00 X135.000006 Y132.000009

G01 Z-1.000000 F100.0(Penetrate)
G01 X135.018006 Y132.235009 Z-1.000000 F400.000000
G01 X135.073006 Y132.464009 Z-1.000000
G01 X135.163006 Y132.681009 Z-1.000000
G01 X135.286006 Y132.882009 Z-1.000000
G01 X135.439006 Y133.061009 Z-1.000000
G01 X135.618006 Y133.214009 Z-1.000000
G01 X135.819006 Y133.337009 Z-1.000000
G01 X136.036006 Y133.427009 Z-1.000000
G01 X136.265006 Y133.482009 Z-1.000000
G01 X136.500006 Y133.500009 Z-1.000000
G01 X136.735006 Y133.482009 Z-1.000000
G01 X136.963006 Y133.427009 Z-1.000000
G01 X137.181006 Y133.337009 Z-1.000000
G01 X137.382006 Y133.214009 Z-1.000000
G01 X137.561006 Y133.061009 Z-1.000000
G01 X137.713006 Y132.882009 Z-1.000000
G01 X137.836006 Y132.681009 Z-1.000000
G01 X137.926006 Y132.464009 Z-1.000000
G01 X137.982006 Y132.235009 Z-1.000000
G01 X138.000006 Y132.000009 Z-1.000000
G01 X138.000006 Y130.000009 Z-1.000000
G01 X137.982006 Y129.765009 Z-1.000000
G01 X137.926005 Y129.537009 Z-1.000000
G01 X137.836005 Y129.319009 Z-1.000000
G01 X137.713005 Y129.118009 Z-1.000000
G01 X137.561005 Y128.939009 Z-1.000000
G01 X137.382005 Y128.787009 Z-1.000000
G01 X137.181005 Y128.664009 Z-1.000000
G01 X136.963005 Y128.573009 Z-1.000000
G01 X136.735005 Y128.519009 Z-1.000000
G01 X136.500005 Y128.500009 Z-1.000000
G01 X136.265005 Y128.519009 Z-1.000000
G01 X136.036005 Y128.573009 Z-1.000000
G01 X135.819005 Y128.664009 Z-1.000000
G01 X135.618005 Y128.787009 Z-1.000000
G01 X135.439005 Y128.939009 Z-1.000000
G01 X135.286005 Y129.118009 Z-1.000000
G01 X135.163005 Y129.319009 Z-1.000000
G01 X135.073005 Y129.537009 Z-1.000000
G01 X135.018005 Y129.765009 Z-1.000000
G01 X135.000005 Y130.000009 Z-1.000000
G01 X135.000006 Y132.000009 Z-1.000000
G00 Z30.000000
(Block-name: path4 [in,cut])
(Block-expand: 0)
(Block-enable: 1)
g0 x135.750006 y131.971327
g1 z-1 f300
g1 x135.761245 y132.118054 f650
g1 x135.788451 y132.231331
g1 x135.833328 y132.339535
g1 x135.894722 y132.439862
g1 x135.97096 y132.529055
g1 x136.060153 y132.605293
g1 x136.16048 y132.666687
g1 x136.268684 y132.711564
g1 x136.381961 y132.73877
g1 x136.500006 y132.747812
g1 x136.617677 y132.738799
g1 x136.730577 y132.711564
g1 x136.840055 y132.666367
g1 x136.939859 y132.605293
g1 x137.028124 y132.529849
g1 x137.103652 y132.440904
g1 x137.165684 y132.339535
g1 x137.211157 y132.229894
g1 x137.238886 y132.116502
g1 x137.250006 y131.971328
g1 x137.250006 y130.02869
g1 x137.238916 y129.883898
g1 x137.211157 y129.770883
g1 x137.165363 y129.65996
g1 x137.103651 y129.559114
g1 x137.028913 y129.471101
g1 x136.9409 y129.396363
g1 x136.838795 y129.33388
g1 x136.730586 y129.288711
g1 x136.617684 y129.261971
g1 x136.500005 y129.252456
g1 x136.381957 y129.262001
g1 x136.268685 y129.288711
g1 x136.161742 y129.333558
g1 x136.05911 y129.396363
g1 x135.970165 y129.471891
g1 x135.894721 y129.560156
g1 x135.833647 y129.65996
g1 x135.78845 y129.769438
g1 x135.761215 y129.882338
g1 x135.750005 y130.02869
g1 x135.750006 y131.971327
g1 z-2 f300
g1 x135.761245 y132.118054 f650
g1 x135.788451 y132.231331
g1 x135.833328 y132.339535
g1 x135.894722 y132.439862
g1 x135.97096 y132.529055
g1 x136.060153 y132.605293
g1 x136.16048 y132.666687
g1 x136.268684 y132.711564
g1 x136.381961 y132.73877
g1 x136.500006 y132.747812
g1 x136.617677 y132.738799
g1 x136.730577 y132.711564
g1 x136.840055 y132.666367
g1 x136.939859 y132.605293
g1 x137.028124 y132.529849
g1 x137.103652 y132.440904
g1 x137.165684 y132.339535
g1 x137.211157 y132.229894
g1 x137.238886 y132.116502
g1 x137.250006 y131.971328
g1 x137.250006 y130.02869
g1 x137.238916 y129.883898
g1 x137.211157 y129.770883
g1 x137.165363 y129.65996
g1 x137.103651 y129.559114
g1 x137.028913 y129.471101
g1 x136.9409 y129.396363
g1 x136.838795 y129.33388
g1 x136.730586 y129.288711
g1 x136.617684 y129.261971
g1 x136.500005 y129.252456
g1 x136.381957 y129.262001
g1 x136.268685 y129.288711
g1 x136.161742 y129.333558
g1 x136.05911 y129.396363
g1 x135.970165 y129.471891
g1 x135.894721 y129.560156
g1 x135.833647 y129.65996
g1 x135.78845 y129.769438
g1 x135.761215 y129.882338
g1 x135.750005 y130.02869
g1 x135.750006 y131.971327
g1 z-3 f300
g1 x135.761245 y132.118054 f650
g1 x135.788451 y132.231331
g1 x135.833328 y132.339535
g1 x135.894722 y132.439862
g1 x135.97096 y132.529055
g1 x136.060153 y132.605293
g1 x136.16048 y132.666687
g1 x136.268684 y132.711564
g1 x136.381961 y132.73877
g1 x136.500006 y132.747812
g1 x136.617677 y132.738799
g1 x136.730577 y132.711564
g1 x136.840055 y132.666367
g1 x136.939859 y132.605293
g1 x137.028124 y132.529849
g1 x137.103652 y132.440904
g1 x137.165684 y132.339535
g1 x137.211157 y132.229894
g1 x137.238886 y132.116502
g1 x137.250006 y131.971328
g1 x137.250006 y130.02869
g1 x137.238916 y129.883898
g1 x137.211157 y129.770883
g1 x137.165363 y129.65996
g1 x137.103651 y129.559114
g1 x137.028913 y129.471101
g1 x136.9409 y129.396363
g1 x136.838795 y129.33388
g1 x136.730586 y129.288711
g1 x136.617684 y129.261971
g1 x136.500005 y129.252456
g1 x136.381957 y129.262001
g1 x136.268685 y129.288711
g1 x136.161742 y129.333558
g1 x136.05911 y129.396363
g1 x135.970165 y129.471891
g1 x135.894721 y129.560156
g1 x135.833647 y129.65996
g1 x135.78845 y129.769438
g1 x135.761215 y129.882338
g1 x135.750005 y130.02869
g1 x135.750006 y131.971327
g0 z30
(Block-name: path4)
(Block-expand: 0)
(Block-enable: 0)

(End cutting path id: path4)


(Start cutting path id: path4)
(Change tool to Default tool)

G00 Z30.000000
G00 X127.500007 Y149.500010

G01 Z-1.000000 F100.0(Penetrate)
G01 X130.500007 Y149.500010 Z-1.000000 F400.000000
G01 X130.500006 Y139.500010 Z-1.000000
G01 X127.500006 Y139.500010 Z-1.000000
G01 X127.500007 Y149.500010 Z-1.000000
G00 Z30.000000
(Block-name: path4 [in,cut])
(Block-expand: 0)
(Block-enable: 1)
g0 x128.250007 y148.75001
g1 z-1 f300
g1 x129.750007 y148.75001 f650
g1 x129.750006 y140.25001
g1 x128.250006 y140.25001
g1 x128.250007 y148.75001
g1 z-2 f300
g1 x129.750007 y148.75001 f650
g1 x129.750006 y140.25001
g1 x128.250006 y140.25001
g1 x128.250007 y148.75001
g1 z-3 f300
g1 x129.750007 y148.75001 f650
g1 x129.750006 y140.25001
g1 x128.250006 y140.25001
g1 x128.250007 y148.75001
g0 z30
(Block-name: path4)
(Block-expand: 0)
(Block-enable: 0)

(End cutting path id: path4)


(Start cutting path id: path4)
(Change tool to Default tool)

G00 Z30.000000
G00 X94.549000 Y93.126013

G01 Z-1.000000 F100.0(Penetrate)
G01 X94.696000 Y93.736013 Z-1.000000 F400.000000
G01 X94.936000 Y94.316013 Z-1.000000
G01 X95.264000 Y94.851013 Z-1.000000
G01 X95.672000 Y95.329013 Z-1.000000
G01 X96.149000 Y95.736012 Z-1.000000
G01 X96.684000 Y96.064012 Z-1.000000
G01 X97.264000 Y96.304012 Z-1.000000
G01 X97.874000 Y96.451012 Z-1.000000
G01 X98.500000 Y96.500012 Z-1.000000
G01 X99.126000 Y96.451012 Z-1.000000
G01 X99.736000 Y96.304012 Z-1.000000
G01 X100.316001 Y96.064012 Z-1.000000
G01 X100.851001 Y95.736012 Z-1.000000
G01 X101.328001 Y95.329012 Z-1.000000
G01 X101.736001 Y94.851012 Z-1.000000
G01 X102.064001 Y94.316012 Z-1.000000
G01 X102.304001 Y93.736012 Z-1.000000
G01 X102.451001 Y93.126012 Z-1.000000
G01 X102.500001 Y92.500012 Z-1.000000
G01 X102.451001 Y91.874012 Z-1.000000
G01 X102.304001 Y91.264012 Z-1.000000
G01 X102.064001 Y90.684012 Z-1.000000
G01 X101.736001 Y90.149012 Z-1.000000
G01 X101.328001 Y89.672012 Z-1.000000
G01 X100.851001 Y89.264012 Z-1.000000
G01 X100.316001 Y88.936012 Z-1.000000
G01 X99.736000 Y88.696012 Z-1.000000
G01 X99.126000 Y88.549012 Z-1.000000
G01 X98.500000 Y88.500012 Z-1.000000
G01 X97.874000 Y88.549012 Z-1.000000
G01 X97.264000 Y88.696012 Z-1.000000
G01 X96.684000 Y88.936012 Z-1.000000
G01 X96.149000 Y89.264012 Z-1.000000
G01 X95.672000 Y89.672012 Z-1.000000
G01 X95.264000 Y90.149012 Z-1.000000
G01 X94.936000 Y90.684012 Z-1.000000
G01 X94.696000 Y91.264013 Z-1.000000
G01 X94.549000 Y91.874013 Z-1.000000
G01 X94.500000 Y92.500013 Z-1.000000
G01 X94.549000 Y93.126013 Z-1.000000
G00 Z30.000000
(Block-name: path4 [in,cut])
(Block-expand: 0)
(Block-enable: 1)
g0 x95.292069 y93.008158
g1 z-1 f300
g1 x95.411406 y93.503367 f650
g1 x95.606362 y93.974511
g1 x95.872648 y94.408849
g1 x96.203939 y94.796979
g1 x96.591106 y95.127328
g1 x97.025502 y95.39365
g1 x97.496646 y95.588606
g1 x97.991855 y95.707943
g1 x98.5 y95.747718
g1 x99.008145 y95.707943
g1 x99.503354 y95.588606
g1 x99.974499 y95.39365
g1 x100.408894 y95.127329
g1 x100.796062 y94.796978
g1 x101.127353 y94.408848
g1 x101.393639 y93.97451
g1 x101.588595 y93.503366
g1 x101.707932 y93.008157
g1 x101.747707 y92.500012
g1 x101.707932 y91.991867
g1 x101.588595 y91.496658
g1 x101.393639 y91.025514
g1 x101.127557 y90.591508
g1 x100.796061 y90.203952
g1 x100.408505 y89.872456
g1 x99.974499 y89.606374
g1 x99.503354 y89.411418
g1 x99.008145 y89.292081
g1 x98.5 y89.252306
g1 x97.991855 y89.292081
g1 x97.496646 y89.411418
g1 x97.025502 y89.606374
g1 x96.591496 y89.872456
g1 x96.20394 y90.203952
g1 x95.872444 y90.591508
g1 x95.606362 y91.025514
g1 x95.411406 y91.496659
g1 x95.292069 y91.991868
g1 x95.252294 y92.500013
g1 x95.292069 y93.008158
g1 z-2 f300
g1 x95.411406 y93.503367 f650
g1 x95.606362 y93.974511
g1 x95.872648 y94.408849
g1 x96.203939 y94.796979
g1 x96.591106 y95.127328
g1 x97.025502 y95.39365
g1 x97.496646 y95.588606
g1 x97.991855 y95.707943
g1 x98.5 y95.747718
g1 x99.008145 y95.707943
g1 x99.503354 y95.588606
g1 x99.974499 y95.39365
g1 x100.408894 y95.127329
g1 x100.796062 y94.796978
g1 x101.127353 y94.408848
g1 x101.393639 y93.97451
g1 x101.588595 y93.503366
g1 x101.707932 y93.008157
g1 x101.747707 y92.500012
g1 x101.707932 y91.991867
g1 x101.588595 y91.496658
g1 x101.393639 y91.025514
g1 x101.127557 y90.591508
g1 x100.796061 y90.203952
g1 x100.408505 y89.872456
g1 x99.974499 y89.606374
g1 x99.503354 y89.411418
g1 x99.008145 y89.292081
g1 x98.5 y89.252306
g1 x97.991855 y89.292081
g1 x97.496646 y89.411418
g1 x97.025502 y89.606374
g1 x96.591496 y89.872456
g1 x96.20394 y90.203952
g1 x95.872444 y90.591508
g1 x95.606362 y91.025514
g1 x95.411406 y91.496659
g1 x95.292069 y91.991868
g1 x95.252294 y92.500013
g1 x95.292069 y93.008158
g1 z-3 f300
g1 x95.411406 y93.503367 f650
g1 x95.606362 y93.974511
g1 x95.872648 y94.408849
g1 x96.203939 y94.796979
g1 x96.591106 y95.127328
g1 x97.025502 y95.39365
g1 x97.496646 y95.588606
g1 x97.991855 y95.707943
g1 x98.5 y95.747718
g1 x99.008145 y95.707943
g1 x99.503354 y95.588606
g1 x99.974499 y95.39365
g1 x100.408894 y95.127329
g1 x100.796062 y94.796978
g1 x101.127353 y94.408848
g1 x101.393639 y93.97451
g1 x101.588595 y93.503366
g1 x101.707932 y93.008157
g1 x101.747707 y92.500012
g1 x101.707932 y91.991867
g1 x101.588595 y91.496658
g1 x101.393639 y91.025514
g1 x101.127557 y90.591508
g1 x100.796061 y90.203952
g1 x100.408505 y89.872456
g1 x99.974499 y89.606374
g1 x99.503354 y89.411418
g1 x99.008145 y89.292081
g1 x98.5 y89.252306
g1 x97.991855 y89.292081
g1 x97.496646 y89.411418
g1 x97.025502 y89.606374
g1 x96.591496 y89.872456
g1 x96.20394 y90.203952
g1 x95.872444 y90.591508
g1 x95.606362 y91.025514
g1 x95.411406 y91.496659
g1 x95.292069 y91.991868
g1 x95.252294 y92.500013
g1 x95.292069 y93.008158
g0 z30
(Block-name: path4)
(Block-expand: 0)
(Block-enable: 0)

(End cutting path id: path4)


(Start cutting path id: path4)
(Change tool to Default tool)

G00 Z30.000000
G00 X99.018006 Y152.734713

G01 Z-1.000000 F100.0(Penetrate)
G01 X99.073006 Y152.963613 Z-1.000000 F400.000000
G01 X99.163006 Y153.181013 Z-1.000000
G01 X99.286006 Y153.381813 Z-1.000000
G01 X99.439006 Y153.560813 Z-1.000000
G01 X99.618006 Y153.713513 Z-1.000000
G01 X99.819006 Y153.836513 Z-1.000000
G01 X100.036007 Y153.926713 Z-1.000000
G01 X100.265007 Y153.981613 Z-1.000000
G01 X100.500007 Y154.000113 Z-1.000000
G01 X100.735007 Y153.981613 Z-1.000000
G01 X100.963007 Y153.926713 Z-1.000000
G01 X101.181007 Y153.836513 Z-1.000000
G01 X101.382007 Y153.713513 Z-1.000000
G01 X101.561007 Y153.560813 Z-1.000000
G01 X101.714007 Y153.381813 Z-1.000000
G01 X101.837007 Y153.181013 Z-1.000000
G01 X101.927007 Y152.963613 Z-1.000000
G01 X101.981007 Y152.734713 Z-1.000000
G01 X102.000007 Y152.500013 Z-1.000000
G01 X101.981007 Y152.265013 Z-1.000000
G01 X101.927007 Y152.037013 Z-1.000000
G01 X101.837007 Y151.819013 Z-1.000000
G01 X101.714007 Y151.618013 Z-1.000000
G01 X101.561007 Y151.439013 Z-1.000000
G01 X101.382007 Y151.287013 Z-1.000000
G01 X101.181007 Y151.164013 Z-1.000000
G01 X100.963007 Y151.073013 Z-1.000000
G01 X100.735007 Y151.019013 Z-1.000000
G01 X100.500007 Y151.000013 Z-1.000000
G01 X100.265007 Y151.019013 Z-1.000000
G01 X100.036007 Y151.073013 Z-1.000000
G01 X99.819006 Y151.164013 Z-1.000000
G01 X99.618006 Y151.287013 Z-1.000000
G01 X99.439006 Y151.439013 Z-1.000000
G01 X99.286006 Y151.618013 Z-1.000000
G01 X99.163006 Y151.819013 Z-1.000000
G01 X99.073006 Y152.037013 Z-1.000000
G01 X99.018006 Y152.265013 Z-1.000000
G01 X99.000006 Y152.500013 Z-1.000000
G01 X99.018006 Y152.734713 Z-1.000000
G00 Z30.000000
(Block-name: path4 [in,cut])
(Block-expand: 0)
(Block-enable: 1)
g0 x99.761233 y152.617685
g1 z-1 f300
g1 x99.788494 y152.731139 f650
g1 x99.833392 y152.839594
g1 x99.894614 y152.939539
g1 x99.970722 y153.028581
g1 x100.059841 y153.104606
g1 x100.160732 y153.166345
g1 x100.268829 y153.211277
g1 x100.382582 y153.238549
g1 x100.500007 y153.247793
g1 x100.617058 y153.238578
g1 x100.730435 y153.211278
g1 x100.839804 y153.166025
g1 x100.940172 y153.104606
g1 x101.029291 y153.028581
g1 x101.105399 y152.939539
g1 x101.166621 y152.839594
g1 x101.210922 y152.732581
g1 x101.238027 y152.617686
g1 x101.247557 y152.499974
g1 x101.238045 y152.382334
g1 x101.210965 y152.267995
g1 x101.166365 y152.159964
g1 x101.105291 y152.06016
g1 x101.029847 y151.971895
g1 x100.940902 y151.896367
g1 x100.838797 y151.833884
g1 x100.730588 y151.788715
g1 x100.617686 y151.761975
g1 x100.500007 y151.75246
g1 x100.381959 y151.762005
g1 x100.268686 y151.788715
g1 x100.161743 y151.833562
g1 x100.059111 y151.896367
g1 x99.970166 y151.971895
g1 x99.894722 y152.06016
g1 x99.833648 y152.159964
g1 x99.788451 y152.269442
g1 x99.761216 y152.382342
g1 x99.752206 y152.499976
g1 x99.761233 y152.617685
g1 z-2 f300
g1 x99.788494 y152.731139 f650
g1 x99.833392 y152.839594
g1 x99.894614 y152.939539
g1 x99.970722 y153.028581
g1 x100.059841 y153.104606
g1 x100.160732 y153.166345
g1 x100.268829 y153.211277
g1 x100.382582 y153.238549
g1 x100.500007 y153.247793
g1 x100.617058 y153.238578
g1 x100.730435 y153.211278
g1 x100.839804 y153.166025
g1 x100.940172 y153.104606
g1 x101.029291 y153.028581
g1 x101.105399 y152.939539
g1 x101.166621 y152.839594
g1 x101.210922 y152.732581
g1 x101.238027 y152.617686
g1 x101.247557 y152.499974
g1 x101.238045 y152.382334
g1 x101.210965 y152.267995
g1 x101.166365 y152.159964
g1 x101.105291 y152.06016
g1 x101.029847 y151.971895
g1 x100.940902 y151.896367
g1 x100.838797 y151.833884
g1 x100.730588 y151.788715
g1 x100.617686 y151.761975
g1 x100.500007 y151.75246
g1 x100.381959 y151.762005
g1 x100.268686 y151.788715
g1 x100.161743 y151.833562
g1 x100.059111 y151.896367
g1 x99.970166 y151.971895
g1 x99.894722 y152.06016
g1 x99.833648 y152.159964
g1 x99.788451 y152.269442
g1 x99.761216 y152.382342
g1 x99.752206 y152.499976
g1 x99.761233 y152.617685
g1 z-3 f300
g1 x99.788494 y152.731139 f650
g1 x99.833392 y152.839594
g1 x99.894614 y152.939539
g1 x99.970722 y153.028581
g1 x100.059841 y153.104606
g1 x100.160732 y153.166345
g1 x100.268829 y153.211277
g1 x100.382582 y153.238549
g1 x100.500007 y153.247793
g1 x100.617058 y153.238578
g1 x100.730435 y153.211278
g1 x100.839804 y153.166025
g1 x100.940172 y153.104606
g1 x101.029291 y153.028581
g1 x101.105399 y152.939539
g1 x101.166621 y152.839594
g1 x101.210922 y152.732581
g1 x101.238027 y152.617686
g1 x101.247557 y152.499974
g1 x101.238045 y152.382334
g1 x101.210965 y152.267995
g1 x101.166365 y152.159964
g1 x101.105291 y152.06016
g1 x101.029847 y151.971895
g1 x100.940902 y151.896367
g1 x100.838797 y151.833884
g1 x100.730588 y151.788715
g1 x100.617686 y151.761975
g1 x100.500007 y151.75246
g1 x100.381959 y151.762005
g1 x100.268686 y151.788715
g1 x100.161743 y151.833562
g1 x100.059111 y151.896367
g1 x99.970166 y151.971895
g1 x99.894722 y152.06016
g1 x99.833648 y152.159964
g1 x99.788451 y152.269442
g1 x99.761216 y152.382342
g1 x99.752206 y152.499976
g1 x99.761233 y152.617685
g0 z30
(Block-name: path4)
(Block-expand: 0)
(Block-enable: 0)

(End cutting path id: path4)


(Start cutting path id: path4)
(Change tool to Default tool)

G00 Z30.000000
G00 X79.091999 Y119.673015

G01 Z-1.000000 F100.0(Penetrate)
G01 X79.366999 Y120.818015 Z-1.000000 F400.000000
G01 X79.817000 Y121.905015 Z-1.000000
G01 X80.432000 Y122.908015 Z-1.000000
G01 X81.197000 Y123.803014 Z-1.000000
G01 X82.091000 Y124.568014 Z-1.000000
G01 X83.095000 Y125.183014 Z-1.000000
G01 X84.182000 Y125.633014 Z-1.000000
G01 X85.327000 Y125.908014 Z-1.000000
G01 X86.500000 Y126.000014 Z-1.000000
G01 X87.673000 Y125.908014 Z-1.000000
G01 X88.818000 Y125.633014 Z-1.000000
G01 X89.905000 Y125.183014 Z-1.000000
G01 X90.908003 Y124.568014 Z-1.000000
G01 X91.803003 Y123.803013 Z-1.000000
G01 X92.568003 Y122.908013 Z-1.000000
G01 X93.182003 Y121.905013 Z-1.000000
G01 X93.633003 Y120.818013 Z-1.000000
G01 X93.908003 Y119.673013 Z-1.000000
G01 X94.000003 Y118.500013 Z-1.000000
G01 X93.908002 Y117.327013 Z-1.000000
G01 X93.633002 Y116.182013 Z-1.000000
G01 X93.182002 Y115.095013 Z-1.000000
G01 X92.568002 Y114.092013 Z-1.000000
G01 X91.803002 Y113.197013 Z-1.000000
G01 X90.908002 Y112.432013 Z-1.000000
G01 X89.904999 Y111.817013 Z-1.000000
G01 X88.817999 Y111.367013 Z-1.000000
G01 X87.672999 Y111.092014 Z-1.000000
G01 X86.499999 Y111.000014 Z-1.000000
G01 X85.326999 Y111.092014 Z-1.000000
G01 X84.181999 Y111.367014 Z-1.000000
G01 X83.094999 Y111.817014 Z-1.000000
G01 X82.090999 Y112.432014 Z-1.000000
G01 X81.196999 Y113.197014 Z-1.000000
G01 X80.431999 Y114.092014 Z-1.000000
G01 X79.816999 Y115.095014 Z-1.000000
G01 X79.366999 Y116.182015 Z-1.000000
G01 X79.091999 Y117.327015 Z-1.000000
G01 X78.999999 Y118.500015 Z-1.000000
G01 X79.091999 Y119.673015 Z-1.000000
G00 Z30.000000
(Block-name: path4 [in,cut])
(Block-expand: 0)
(Block-enable: 1)
g0 x79.835077 y119.555391
g1 z-1 f300
g1 x80.082501 y120.585576 f650
g1 x80.487322 y121.563441
g1 x81.040499 y122.465614
g1 x81.729089 y123.271218
g1 x82.533452 y123.959515
g1 x83.436419 y124.512628
g1 x84.414439 y124.917512
g1 x85.444624 y125.164936
g1 x86.5 y125.247711
g1 x87.555376 y125.164936
g1 x88.585561 y124.917512
g1 x89.563427 y124.512692
g1 x90.465602 y123.959515
g1 x91.271049 y123.271059
g1 x91.959327 y122.46582
g1 x92.511731 y121.563439
g1 x92.91757 y120.585286
g1 x93.164925 y119.555389
g1 x93.2477 y118.500013
g1 x93.164924 y117.444637
g1 x92.917569 y116.41474
g1 x92.51173 y115.436587
g1 x91.959326 y114.534206
g1 x91.271048 y113.728967
g1 x90.465601 y113.040512
g1 x89.563426 y112.487335
g1 x88.58556 y112.082515
g1 x87.555375 y111.835092
g1 x86.499999 y111.752317
g1 x85.444623 y111.835092
g1 x84.414438 y112.082516
g1 x83.436418 y112.4874
g1 x82.533451 y113.040513
g1 x81.729088 y113.728809
g1 x81.040498 y114.534415
g1 x80.487321 y115.436588
g1 x80.082501 y116.414454
g1 x79.835077 y117.444639
g1 x79.752302 y118.500015
g1 x79.835077 y119.555391
g1 z-2 f300
g1 x80.082501 y120.585576 f650
g1 x80.487322 y121.563441
g1 x81.040499 y122.465614
g1 x81.729089 y123.271218
g1 x82.533452 y123.959515
g1 x83.436419 y124.512628
g1 x84.414439 y124.917512
g1 x85.444624 y125.164936
g1 x86.5 y125.247711
g1 x87.555376 y125.164936
g1 x88.585561 y124.917512
g1 x89.563427 y124.512692
g1 x90.465602 y123.959515
g1 x91.271049 y123.271059
g1 x91.959327 y122.46582
g1 x92.511731 y121.563439
g1 x92.91757 y120.585286
g1 x93.164925 y119.555389
g1 x93.2477 y118.500013
g1 x93.164924 y117.444637
g1 x92.917569 y116.41474
g1 x92.51173 y115.436587
g1 x91.959326 y114.534206
g1 x91.271048 y113.728967
g1 x90.465601 y113.040512
g1 x89.563426 y112.487335
g1 x88.58556 y112.082515
g1 x87.555375 y111.835092
g1 x86.499999 y111.752317
g1 x85.444623 y111.835092
g1 x84.414438 y112.082516
g1 x83.436418 y112.4874
g1 x82.533451 y113.040513
g1 x81.729088 y113.728809
g1 x81.040498 y114.534415
g1 x80.487321 y115.436588
g1 x80.082501 y116.414454
g1 x79.835077 y117.444639
g1 x79.752302 y118.500015
g1 x79.835077 y119.555391
g1 z-3 f300
g1 x80.082501 y120.585576 f650
g1 x80.487322 y121.563441
g1 x81.040499 y122.465614
g1 x81.729089 y123.271218
g1 x82.533452 y123.959515
g1 x83.436419 y124.512628
g1 x84.414439 y124.917512
g1 x85.444624 y125.164936
g1 x86.5 y125.247711
g1 x87.555376 y125.164936
g1 x88.585561 y124.917512
g1 x89.563427 y124.512692
g1 x90.465602 y123.959515
g1 x91.271049 y123.271059
g1 x91.959327 y122.46582
g1 x92.511731 y121.563439
g1 x92.91757 y120.585286
g1 x93.164925 y119.555389
g1 x93.2477 y118.500013
g1 x93.164924 y117.444637
g1 x92.917569 y116.41474
g1 x92.51173 y115.436587
g1 x91.959326 y114.534206
g1 x91.271048 y113.728967
g1 x90.465601 y113.040512
g1 x89.563426 y112.487335
g1 x88.58556 y112.082515
g1 x87.555375 y111.835092
g1 x86.499999 y111.752317
g1 x85.444623 y111.835092
g1 x84.414438 y112.082516
g1 x83.436418 y112.4874
g1 x82.533451 y113.040513
g1 x81.729088 y113.728809
g1 x81.040498 y114.534415
g1 x80.487321 y115.436588
g1 x80.082501 y116.414454
g1 x79.835077 y117.444639
g1 x79.752302 y118.500015
g1 x79.835077 y119.555391
g0 z30
(Block-name: path4)
(Block-expand: 0)
(Block-enable: 0)

(End cutting path id: path4)


(Start cutting path id: path4)
(Change tool to Default tool)

G00 Z30.000000
G00 X85.000001 Y132.000014

G01 Z-1.000000 F100.0(Penetrate)
G01 X85.018001 Y132.235014 Z-1.000000 F400.000000
G01 X85.073001 Y132.464014 Z-1.000000
G01 X85.163001 Y132.681014 Z-1.000000
G01 X85.286001 Y132.882014 Z-1.000000
G01 X85.439001 Y133.061014 Z-1.000000
G01 X85.618001 Y133.214014 Z-1.000000
G01 X85.819001 Y133.337014 Z-1.000000
G01 X86.036001 Y133.427014 Z-1.000000
G01 X86.265001 Y133.482014 Z-1.000000
G01 X86.500001 Y133.500014 Z-1.000000
G01 X86.735001 Y133.482014 Z-1.000000
G01 X86.963001 Y133.427014 Z-1.000000
G01 X87.181001 Y133.337014 Z-1.000000
G01 X87.382001 Y133.214014 Z-1.000000
G01 X87.561001 Y133.061014 Z-1.000000
G01 X87.713001 Y132.882014 Z-1.000000
G01 X87.836001 Y132.681014 Z-1.000000
G01 X87.926001 Y132.464014 Z-1.000000
G01 X87.982001 Y132.235014 Z-1.000000
G01 X88.000001 Y132.000014 Z-1.000000
G01 X88.000001 Y130.000014 Z-1.000000
G01 X87.982001 Y129.765014 Z-1.000000
G01 X87.926000 Y129.537014 Z-1.000000
G01 X87.836000 Y129.319014 Z-1.000000
G01 X87.713000 Y129.118014 Z-1.000000
G01 X87.561000 Y128.939014 Z-1.000000
G01 X87.382000 Y128.787014 Z-1.000000
G01 X87.181000 Y128.664014 Z-1.000000
G01 X86.963000 Y128.573014 Z-1.000000
G01 X86.735000 Y128.519014 Z-1.000000
G01 X86.500000 Y128.500014 Z-1.000000
G01 X86.265000 Y128.519014 Z-1.000000
G01 X86.036000 Y128.573014 Z-1.000000
G01 X85.819000 Y128.664014 Z-1.000000
G01 X85.618000 Y128.787014 Z-1.000000
G01 X85.439000 Y128.939014 Z-1.000000
G01 X85.286000 Y129.118014 Z-1.000000
G01 X85.163000 Y129.319014 Z-1.000000
G01 X85.073000 Y129.537014 Z-1.000000
G01 X85.018000 Y129.765014 Z-1.000000
G01 X85.000000 Y130.000014 Z-1.000000
G01 X85.000001 Y132.000014 Z-1.000000
G00 Z30.000000
(Block-name: path4 [in,cut])
(Block-expand: 0)
(Block-enable: 1)
g0 x85.750001 y131.971332
g1 z-1 f300
g1 x85.76124 y132.118059 f650
g1 x85.788446 y132.231336
g1 x85.833323 y132.33954
g1 x85.894717 y132.439867
g1 x85.970955 y132.52906
g1 x86.060148 y132.605298
g1 x86.160475 y132.666692
g1 x86.268679 y132.711569
g1 x86.381956 y132.738775
g1 x86.500001 y132.747817
g1 x86.617672 y132.738804
g1 x86.730572 y132.711569
g1 x86.84005 y132.666372
g1 x86.939854 y132.605298
g1 x87.028119 y132.529854
g1 x87.103647 y132.440909
g1 x87.165679 y132.33954
g1 x87.211152 y132.229899
g1 x87.238881 y132.116507
g1 x87.250001 y131.971333
g1 x87.250001 y130.028695
g1 x87.238911 y129.883903
g1 x87.211152 y129.770888
g1 x87.165358 y129.659965
g1 x87.103646 y129.559119
g1 x87.028908 y129.471106
g1 x86.940895 y129.396368
g1 x86.83879 y129.333885
g1 x86.730581 y129.288716
g1 x86.617679 y129.261976
g1 x86.5 y129.252461
g1 x86.381952 y129.262006
g1 x86.26868 y129.288716
g1 x86.161737 y129.333563
g1 x86.059105 y129.396368
g1 x85.97016 y129.471896
g1 x85.894716 y129.560161
g1 x85.833642 y129.659965
g1 x85.788445 y129.769443
g1 x85.76121 y129.882343
g1 x85.75 y130.028695
g1 x85.750001 y131.971332
g1 z-2 f300
g1 x85.76124 y132.118059 f650
g1 x85.788446 y132.231336
g1 x85.833323 y132.33954
g1 x85.894717 y132.439867
g1 x85.970955 y132.52906
g1 x86.060148 y132.605298
g1 x86.160475 y132.666692
g1 x86.268679 y132.711569
g1 x86.381956 y132.738775
g1 x86.500001 y132.747817
g1 x86.617672 y132.738804
g1 x86.730572 y132.711569
g1 x86.84005 y132.666372
g1 x86.939854 y132.605298
g1 x87.028119 y132.529854
g1 x87.103647 y132.440909
g1 x87.165679 y132.33954
g1 x87.211152 y132.229899
g1 x87.238881 y132.116507
g1 x87.250001 y131.971333
g1 x87.250001 y130.028695
g1 x87.238911 y129.883903
g1 x87.211152 y129.770888
g1 x87.165358 y129.659965
g1 x87.103646 y129.559119
g1 x87.028908 y129.471106
g1 x86.940895 y129.396368
g1 x86.83879 y129.333885
g1 x86.730581 y129.288716
g1 x86.617679 y129.261976
g1 x86.5 y129.252461
g1 x86.381952 y129.262006
g1 x86.26868 y129.288716
g1 x86.161737 y129.333563
g1 x86.059105 y129.396368
g1 x85.97016 y129.471896
g1 x85.894716 y129.560161
g1 x85.833642 y129.659965
g1 x85.788445 y129.769443
g1 x85.76121 y129.882343
g1 x85.75 y130.028695
g1 x85.750001 y131.971332
g1 z-3 f300
g1 x85.76124 y132.118059 f650
g1 x85.788446 y132.231336
g1 x85.833323 y132.33954
g1 x85.894717 y132.439867
g1 x85.970955 y132.52906
g1 x86.060148 y132.605298
g1 x86.160475 y132.666692
g1 x86.268679 y132.711569
g1 x86.381956 y132.738775
g1 x86.500001 y132.747817
g1 x86.617672 y132.738804
g1 x86.730572 y132.711569
g1 x86.84005 y132.666372
g1 x86.939854 y132.605298
g1 x87.028119 y132.529854
g1 x87.103647 y132.440909
g1 x87.165679 y132.33954
g1 x87.211152 y132.229899
g1 x87.238881 y132.116507
g1 x87.250001 y131.971333
g1 x87.250001 y130.028695
g1 x87.238911 y129.883903
g1 x87.211152 y129.770888
g1 x87.165358 y129.659965
g1 x87.103646 y129.559119
g1 x87.028908 y129.471106
g1 x86.940895 y129.396368
g1 x86.83879 y129.333885
g1 x86.730581 y129.288716
g1 x86.617679 y129.261976
g1 x86.5 y129.252461
g1 x86.381952 y129.262006
g1 x86.26868 y129.288716
g1 x86.161737 y129.333563
g1 x86.059105 y129.396368
g1 x85.97016 y129.471896
g1 x85.894716 y129.560161
g1 x85.833642 y129.659965
g1 x85.788445 y129.769443
g1 x85.76121 y129.882343
g1 x85.75 y130.028695
g1 x85.750001 y131.971332
g0 z30
(Block-name: path4)
(Block-expand: 0)
(Block-enable: 0)

(End cutting path id: path4)


(Start cutting path id: path4)
(Change tool to Default tool)

G00 Z30.000000
G00 X84.999998 Y107.000014

G01 Z-1.000000 F100.0(Penetrate)
G01 X85.017998 Y107.235014 Z-1.000000 F400.000000
G01 X85.072998 Y107.464014 Z-1.000000
G01 X85.162998 Y107.681014 Z-1.000000
G01 X85.285998 Y107.882014 Z-1.000000
G01 X85.438998 Y108.061014 Z-1.000000
G01 X85.617998 Y108.214014 Z-1.000000
G01 X85.818998 Y108.337014 Z-1.000000
G01 X86.035998 Y108.427014 Z-1.000000
G01 X86.264998 Y108.482014 Z-1.000000
G01 X86.499998 Y108.500014 Z-1.000000
G01 X86.734998 Y108.482014 Z-1.000000
G01 X86.962998 Y108.427014 Z-1.000000
G01 X87.180998 Y108.337014 Z-1.000000
G01 X87.381998 Y108.214014 Z-1.000000
G01 X87.560998 Y108.061014 Z-1.000000
G01 X87.712998 Y107.882014 Z-1.000000
G01 X87.835998 Y107.681014 Z-1.000000
G01 X87.925998 Y107.464014 Z-1.000000
G01 X87.981998 Y107.235013 Z-1.000000
G01 X87.999998 Y107.000013 Z-1.000000
G01 X87.999998 Y105.000013 Z-1.000000
G01 X87.981998 Y104.765013 Z-1.000000
G01 X87.925998 Y104.537013 Z-1.000000
G01 X87.835998 Y104.319013 Z-1.000000
G01 X87.712998 Y104.118013 Z-1.000000
G01 X87.560998 Y103.939013 Z-1.000000
G01 X87.381998 Y103.787013 Z-1.000000
G01 X87.180998 Y103.664014 Z-1.000000
G01 X86.962998 Y103.573014 Z-1.000000
G01 X86.734998 Y103.519014 Z-1.000000
G01 X86.499998 Y103.500014 Z-1.000000
G01 X86.264998 Y103.519014 Z-1.000000
G01 X86.035998 Y103.573014 Z-1.000000
G01 X85.818998 Y103.664014 Z-1.000000
G01 X85.617998 Y103.787014 Z-1.000000
G01 X85.438998 Y103.939014 Z-1.000000
G01 X85.285998 Y104.118014 Z-1.000000
G01 X85.162998 Y104.319014 Z-1.000000
G01 X85.072998 Y104.537014 Z-1.000000
G01 X85.017998 Y104.765014 Z-1.000000
G01 X84.999998 Y105.000014 Z-1.000000
G01 X84.999998 Y107.000014 Z-1.000000
G00 Z30.000000
(Block-name: path4 [in,cut])
(Block-expand: 0)
(Block-enable: 1)
g0 x85.749998 y106.971333
g1 z-1 f300
g1 x85.761237 y107.118059 f650
g1 x85.788443 y107.231336
g1 x85.83332 y107.33954
g1 x85.894714 y107.439867
g1 x85.970952 y107.52906
g1 x86.060145 y107.605298
g1 x86.160472 y107.666692
g1 x86.268676 y107.711569
g1 x86.381953 y107.738775
g1 x86.499998 y107.747817
g1 x86.617669 y107.738804
g1 x86.730569 y107.711569
g1 x86.840047 y107.666372
g1 x86.939851 y107.605298
g1 x87.028116 y107.529854
g1 x87.103644 y107.440909
g1 x87.165676 y107.33954
g1 x87.211149 y107.229899
g1 x87.238878 y107.116506
g1 x87.249998 y106.971332
g1 x87.249998 y105.028694
g1 x87.238907 y104.883901
g1 x87.211149 y104.770886
g1 x87.165356 y104.659964
g1 x87.103644 y104.559118
g1 x87.028906 y104.471105
g1 x86.940894 y104.396368
g1 x86.838789 y104.333886
g1 x86.730579 y104.288716
g1 x86.617677 y104.261976
g1 x86.499998 y104.252461
g1 x86.38195 y104.262006
g1 x86.268678 y104.288716
g1 x86.161735 y104.333563
g1 x86.059103 y104.396368
g1 x85.970158 y104.471896
g1 x85.894714 y104.560161
g1 x85.83364 y104.659965
g1 x85.788443 y104.769443
g1 x85.761208 y104.882343
g1 x85.749998 y105.028695
g1 x85.749998 y106.971333
g1 z-2 f300
g1 x85.761237 y107.118059 f650
g1 x85.788443 y107.231336
g1 x85.83332 y107.33954
g1 x85.894714 y107.439867
g1 x85.970952 y107.52906
g1 x86.060145 y107.605298
g1 x86.160472 y107.666692
g1 x86.268676 y107.711569
g1 x86.381953 y107.738775
g1 x86.499998 y107.747817
g1 x86.617669 y107.738804
g1 x86.730569 y107.711569
g1 x86.840047 y107.666372
g1 x86.939851 y107.605298
g1 x87.028116 y107.529854
g1 x87.103644 y107.440909
g1 x87.165676 y107.33954
g1 x87.211149 y107.229899
g1 x87.238878 y107.116506
g1 x87.249998 y106.971332
g1 x87.249998 y105.028694
g1 x87.238907 y104.883901
g1 x87.211149 y104.770886
g1 x87.165356 y104.659964
g1 x87.103644 y104.559118
g1 x87.028906 y104.471105
g1 x86.940894 y104.396368
g1 x86.838789 y104.333886
g1 x86.730579 y104.288716
g1 x86.617677 y104.261976
g1 x86.499998 y104.252461
g1 x86.38195 y104.262006
g1 x86.268678 y104.288716
g1 x86.161735 y104.333563
g1 x86.059103 y104.396368
g1 x85.970158 y104.471896
g1 x85.894714 y104.560161
g1 x85.83364 y104.659965
g1 x85.788443 y104.769443
g1 x85.761208 y104.882343
g1 x85.749998 y105.028695
g1 x85.749998 y106.971333
g1 z-3 f300
g1 x85.761237 y107.118059 f650
g1 x85.788443 y107.231336
g1 x85.83332 y107.33954
g1 x85.894714 y107.439867
g1 x85.970952 y107.52906
g1 x86.060145 y107.605298
g1 x86.160472 y107.666692
g1 x86.268676 y107.711569
g1 x86.381953 y107.738775
g1 x86.499998 y107.747817
g1 x86.617669 y107.738804
g1 x86.730569 y107.711569
g1 x86.840047 y107.666372
g1 x86.939851 y107.605298
g1 x87.028116 y107.529854
g1 x87.103644 y107.440909
g1 x87.165676 y107.33954
g1 x87.211149 y107.229899
g1 x87.238878 y107.116506
g1 x87.249998 y106.971332
g1 x87.249998 y105.028694
g1 x87.238907 y104.883901
g1 x87.211149 y104.770886
g1 x87.165356 y104.659964
g1 x87.103644 y104.559118
g1 x87.028906 y104.471105
g1 x86.940894 y104.396368
g1 x86.838789 y104.333886
g1 x86.730579 y104.288716
g1 x86.617677 y104.261976
g1 x86.499998 y104.252461
g1 x86.38195 y104.262006
g1 x86.268678 y104.288716
g1 x86.161735 y104.333563
g1 x86.059103 y104.396368
g1 x85.970158 y104.471896
g1 x85.894714 y104.560161
g1 x85.83364 y104.659965
g1 x85.788443 y104.769443
g1 x85.761208 y104.882343
g1 x85.749998 y105.028695
g1 x85.749998 y106.971333
g0 z30
(Block-name: path4)
(Block-expand: 0)
(Block-enable: 0)

(End cutting path id: path4)


(Start cutting path id: path4)
(Change tool to Default tool)

G00 Z30.000000
G00 X77.500002 Y149.500015

G01 Z-1.000000 F100.0(Penetrate)
G01 X80.500002 Y149.500015 Z-1.000000 F400.000000
G01 X80.500001 Y139.500015 Z-1.000000
G01 X77.500001 Y139.500015 Z-1.000000
G01 X77.500002 Y149.500015 Z-1.000000
G00 Z30.000000
(Block-name: path4 [in,cut])
(Block-expand: 0)
(Block-enable: 1)
g0 x78.250002 y148.750015
g1 z-1 f300
g1 x79.750002 y148.750015 f650
g1 x79.750001 y140.250015
g1 x78.250001 y140.250015
g1 x78.250002 y148.750015
g1 z-2 f300
g1 x79.750002 y148.750015 f650
g1 x79.750001 y140.250015
g1 x78.250001 y140.250015
g1 x78.250002 y148.750015
g1 z-3 f300
g1 x79.750002 y148.750015 f650
g1 x79.750001 y140.250015
g1 x78.250001 y140.250015
g1 x78.250002 y148.750015
g0 z30
(Block-name: path4)
(Block-expand: 0)
(Block-enable: 0)

(End cutting path id: path4)


(Start cutting path id: path4)
(Change tool to Default tool)

G00 Z30.000000
G00 X49.018394 Y67.735017

G01 Z-1.000000 F100.0(Penetrate)
G01 X49.073294 Y67.964017 Z-1.000000 F400.000000
G01 X49.163494 Y68.181017 Z-1.000000
G01 X49.286493 Y68.382017 Z-1.000000
G01 X49.439183 Y68.561017 Z-1.000000
G01 X49.618204 Y68.714016 Z-1.000000
G01 X49.818994 Y68.837016 Z-1.000000
G01 X50.036404 Y68.927016 Z-1.000000
G01 X50.265294 Y68.982016 Z-1.000000
G01 X50.499984 Y69.000016 Z-1.000000
G01 X50.734484 Y68.982016 Z-1.000000
G01 X50.963394 Y68.927016 Z-1.000000
G01 X51.180774 Y68.837016 Z-1.000000
G01 X51.381704 Y68.714016 Z-1.000000
G01 X51.560584 Y68.561016 Z-1.000000
G01 X51.713384 Y68.382016 Z-1.000000
G01 X51.836394 Y68.181016 Z-1.000000
G01 X51.926494 Y67.964016 Z-1.000000
G01 X51.981494 Y67.735016 Z-1.000000
G01 X51.999994 Y67.500016 Z-1.000000
G01 X51.981494 Y67.265016 Z-1.000000
G01 X51.926494 Y67.037016 Z-1.000000
G01 X51.836394 Y66.819016 Z-1.000000
G01 X51.713384 Y66.618016 Z-1.000000
G01 X51.560584 Y66.439016 Z-1.000000
G01 X51.381704 Y66.286016 Z-1.000000
G01 X51.180774 Y66.163016 Z-1.000000
G01 X50.963394 Y66.073016 Z-1.000000
G01 X50.734484 Y66.019016 Z-1.000000
G01 X50.499983 Y66.000016 Z-1.000000
G01 X50.265293 Y66.019016 Z-1.000000
G01 X50.036403 Y66.073016 Z-1.000000
G01 X49.818993 Y66.163016 Z-1.000000
G01 X49.618204 Y66.286016 Z-1.000000
G01 X49.439183 Y66.439016 Z-1.000000
G01 X49.286493 Y66.618016 Z-1.000000
G01 X49.163494 Y66.819017 Z-1.000000
G01 X49.073294 Y67.037017 Z-1.000000
G01 X49.018394 Y67.265017 Z-1.000000
G01 X48.999894 Y67.500017 Z-1.000000
G01 X49.018394 Y67.735017 Z-1.000000
G00 Z30.000000
(Block-name: path4 [in,cut])
(Block-expand: 0)
(Block-enable: 1)
g0 x49.761458 y67.617442
g1 z-1 f300
g1 x49.788729 y67.731195 f650
g1 x49.833662 y67.839291
g1 x49.895407 y67.940194
g1 x49.971409 y68.029291
g1 x50.060465 y68.105402
g1 x50.160415 y68.16663
g1 x50.268875 y68.211528
g1 x50.382327 y68.238789
g1 x50.499961 y68.247812
g1 x50.617436 y68.238794
g1 x50.730912 y68.21153
g1 x50.839445 y68.166594
g1 x50.939406 y68.105403
g1 x51.028364 y68.029316
g1 x51.104549 y67.940067
g1 x51.166155 y67.839403
g1 x51.211084 y67.731194
g1 x51.238442 y67.617285
g1 x51.247674 y67.500016
g1 x51.238471 y67.383121
g1 x51.211084 y67.269589
g1 x51.165834 y67.160106
g1 x51.104549 y67.059965
g1 x51.028364 y66.970716
g1 x50.939406 y66.894629
g1 x50.839445 y66.833438
g1 x50.732353 y66.789099
g1 x50.617436 y66.76199
g1 x50.499959 y66.752472
g1 x50.382325 y66.761995
g1 x50.267432 y66.789101
g1 x50.160415 y66.833402
g1 x50.060466 y66.894629
g1 x49.97141 y66.970741
g1 x49.895408 y67.059839
g1 x49.833982 y67.160218
g1 x49.788729 y67.269589
g1 x49.761429 y67.382966
g1 x49.752214 y67.500017
g1 x49.761458 y67.617442
g1 z-2 f300
g1 x49.788729 y67.731195 f650
g1 x49.833662 y67.839291
g1 x49.895407 y67.940194
g1 x49.971409 y68.029291
g1 x50.060465 y68.105402
g1 x50.160415 y68.16663
g1 x50.268875 y68.211528
g1 x50.382327 y68.238789
g1 x50.499961 y68.247812
g1 x50.617436 y68.238794
g1 x50.730912 y68.21153
g1 x50.839445 y68.166594
g1 x50.939406 y68.105403
g1 x51.028364 y68.029316
g1 x51.104549 y67.940067
g1 x51.166155 y67.839403
g1 x51.211084 y67.731194
g1 x51.238442 y67.617285
g1 x51.247674 y67.500016
g1 x51.238471 y67.383121
g1 x51.211084 y67.269589
g1 x51.165834 y67.160106
g1 x51.104549 y67.059965
g1 x51.028364 y66.970716
g1 x50.939406 y66.894629
g1 x50.839445 y66.833438
g1 x50.732353 y66.789099
g1 x50.617436 y66.76199
g1 x50.499959 y66.752472
g1 x50.382325 y66.761995
g1 x50.267432 y66.789101
g1 x50.160415 y66.833402
g1 x50.060466 y66.894629
g1 x49.97141 y66.970741
g1 x49.895408 y67.059839
g1 x49.833982 y67.160218
g1 x49.788729 y67.269589
g1 x49.761429 y67.382966
g1 x49.752214 y67.500017
g1 x49.761458 y67.617442
g1 z-3 f300
g1 x49.788729 y67.731195 f650
g1 x49.833662 y67.839291
g1 x49.895407 y67.940194
g1 x49.971409 y68.029291
g1 x50.060465 y68.105402
g1 x50.160415 y68.16663
g1 x50.268875 y68.211528
g1 x50.382327 y68.238789
g1 x50.499961 y68.247812
g1 x50.617436 y68.238794
g1 x50.730912 y68.21153
g1 x50.839445 y68.166594
g1 x50.939406 y68.105403
g1 x51.028364 y68.029316
g1 x51.104549 y67.940067
g1 x51.166155 y67.839403
g1 x51.211084 y67.731194
g1 x51.238442 y67.617285
g1 x51.247674 y67.500016
g1 x51.238471 y67.383121
g1 x51.211084 y67.269589
g1 x51.165834 y67.160106
g1 x51.104549 y67.059965
g1 x51.028364 y66.970716
g1 x50.939406 y66.894629
g1 x50.839445 y66.833438
g1 x50.732353 y66.789099
g1 x50.617436 y66.76199
g1 x50.499959 y66.752472
g1 x50.382325 y66.761995
g1 x50.267432 y66.789101
g1 x50.160415 y66.833402
g1 x50.060466 y66.894629
g1 x49.97141 y66.970741
g1 x49.895408 y67.059839
g1 x49.833982 y67.160218
g1 x49.788729 y67.269589
g1 x49.761429 y67.382966
g1 x49.752214 y67.500017
g1 x49.761458 y67.617442
g0 z30
(Block-name: path4)
(Block-expand: 0)
(Block-enable: 0)

(End cutting path id: path4)


(Start cutting path id: path4)
(Change tool to Default tool)

G00 Z30.000000
G00 X49.018396 Y92.735017

G01 Z-1.000000 F100.0(Penetrate)
G01 X49.073296 Y92.964017 Z-1.000000 F400.000000
G01 X49.163496 Y93.181017 Z-1.000000
G01 X49.286495 Y93.382017 Z-1.000000
G01 X49.439185 Y93.561017 Z-1.000000
G01 X49.618206 Y93.714017 Z-1.000000
G01 X49.818996 Y93.837017 Z-1.000000
G01 X50.036406 Y93.927017 Z-1.000000
G01 X50.265296 Y93.982017 Z-1.000000
G01 X50.499986 Y94.000017 Z-1.000000
G01 X50.734486 Y93.982017 Z-1.000000
G01 X50.963396 Y93.927017 Z-1.000000
G01 X51.180776 Y93.837017 Z-1.000000
G01 X51.381706 Y93.714017 Z-1.000000
G01 X51.560586 Y93.561017 Z-1.000000
G01 X51.713386 Y93.382017 Z-1.000000
G01 X51.836396 Y93.181017 Z-1.000000
G01 X51.926496 Y92.964017 Z-1.000000
G01 X51.981496 Y92.735017 Z-1.000000
G01 X51.999996 Y92.500017 Z-1.000000
G01 X51.981496 Y92.265017 Z-1.000000
G01 X51.926496 Y92.037017 Z-1.000000
G01 X51.836396 Y91.819017 Z-1.000000
G01 X51.713386 Y91.618017 Z-1.000000
G01 X51.560586 Y91.439017 Z-1.000000
G01 X51.381706 Y91.286017 Z-1.000000
G01 X51.180776 Y91.163017 Z-1.000000
G01 X50.963396 Y91.073017 Z-1.000000
G01 X50.734486 Y91.019017 Z-1.000000
G01 X50.499986 Y91.000017 Z-1.000000
G01 X50.265296 Y91.019017 Z-1.000000
G01 X50.036406 Y91.073017 Z-1.000000
G01 X49.818996 Y91.163017 Z-1.000000
G01 X49.618206 Y91.286017 Z-1.000000
G01 X49.439185 Y91.439017 Z-1.000000
G01 X49.286495 Y91.618017 Z-1.000000
G01 X49.163496 Y91.819017 Z-1.000000
G01 X49.073296 Y92.037017 Z-1.000000
G01 X49.018396 Y92.265017 Z-1.000000
G01 X48.999896 Y92.500017 Z-1.000000
G01 X49.018396 Y92.735017 Z-1.000000
G00 Z30.000000
(Block-name: path4 [in,cut])
(Block-expand: 0)
(Block-enable: 1)
g0 x49.76146 y92.617442
g1 z-1 f300
g1 x49.788731 y92.731195 f650
g1 x49.833664 y92.839291
g1 x49.895409 y92.940194
g1 x49.971412 y93.029292
g1 x50.060468 y93.105403
g1 x50.160417 y93.166631
g1 x50.268877 y93.211529
g1 x50.382329 y93.23879
g1 x50.499963 y93.247813
g1 x50.617438 y93.238795
g1 x50.730914 y93.211531
g1 x50.839447 y93.166595
g1 x50.939408 y93.105404
g1 x51.028366 y93.029317
g1 x51.104551 y92.940068
g1 x51.166157 y92.839404
g1 x51.211086 y92.731195
g1 x51.238444 y92.617286
g1 x51.247676 y92.500017
g1 x51.238473 y92.383122
g1 x51.211086 y92.26959
g1 x51.165836 y92.160107
g1 x51.104551 y92.059966
g1 x51.028366 y91.970717
g1 x50.939408 y91.89463
g1 x50.839447 y91.833439
g1 x50.732355 y91.7891
g1 x50.617438 y91.761991
g1 x50.499961 y91.752473
g1 x50.382328 y91.761996
g1 x50.267435 y91.789102
g1 x50.160417 y91.833403
g1 x50.060468 y91.894631
g1 x49.971412 y91.970742
g1 x49.895409 y92.05984
g1 x49.833984 y92.160219
g1 x49.788731 y92.269589
g1 x49.761431 y92.382966
g1 x49.752216 y92.500017
g1 x49.76146 y92.617442
g1 z-2 f300
g1 x49.788731 y92.731195 f650
g1 x49.833664 y92.839291
g1 x49.895409 y92.940194
g1 x49.971412 y93.029292
g1 x50.060468 y93.105403
g1 x50.160417 y93.166631
g1 x50.268877 y93.211529
g1 x50.382329 y93.23879
g1 x50.499963 y93.247813
g1 x50.617438 y93.238795
g1 x50.730914 y93.211531
g1 x50.839447 y93.166595
g1 x50.939408 y93.105404
g1 x51.028366 y93.029317
g1 x51.104551 y92.940068
g1 x51.166157 y92.839404
g1 x51.211086 y92.731195
g1 x51.238444 y92.617286
g1 x51.247676 y92.500017
g1 x51.238473 y92.383122
g1 x51.211086 y92.26959
g1 x51.165836 y92.160107
g1 x51.104551 y92.059966
g1 x51.028366 y91.970717
g1 x50.939408 y91.89463
g1 x50.839447 y91.833439
g1 x50.732355 y91.7891
g1 x50.617438 y91.761991
g1 x50.499961 y91.752473
g1 x50.382328 y91.761996
g1 x50.267435 y91.789102
g1 x50.160417 y91.833403
g1 x50.060468 y91.894631
g1 x49.971412 y91.970742
g1 x49.895409 y92.05984
g1 x49.833984 y92.160219
g1 x49.788731 y92.269589
g1 x49.761431 y92.382966
g1 x49.752216 y92.500017
g1 x49.76146 y92.617442
g1 z-3 f300
g1 x49.788731 y92.731195 f650
g1 x49.833664 y92.839291
g1 x49.895409 y92.940194
g1 x49.971412 y93.029292
g1 x50.060468 y93.105403
g1 x50.160417 y93.166631
g1 x50.268877 y93.211529
g1 x50.382329 y93.23879
g1 x50.499963 y93.247813
g1 x50.617438 y93.238795
g1 x50.730914 y93.211531
g1 x50.839447 y93.166595
g1 x50.939408 y93.105404
g1 x51.028366 y93.029317
g1 x51.104551 y92.940068
g1 x51.166157 y92.839404
g1 x51.211086 y92.731195
g1 x51.238444 y92.617286
g1 x51.247676 y92.500017
g1 x51.238473 y92.383122
g1 x51.211086 y92.26959
g1 x51.165836 y92.160107
g1 x51.104551 y92.059966
g1 x51.028366 y91.970717
g1 x50.939408 y91.89463
g1 x50.839447 y91.833439
g1 x50.732355 y91.7891
g1 x50.617438 y91.761991
g1 x50.499961 y91.752473
g1 x50.382328 y91.761996
g1 x50.267435 y91.789102
g1 x50.160417 y91.833403
g1 x50.060468 y91.894631
g1 x49.971412 y91.970742
g1 x49.895409 y92.05984
g1 x49.833984 y92.160219
g1 x49.788731 y92.269589
g1 x49.761431 y92.382966
g1 x49.752216 y92.500017
g1 x49.76146 y92.617442
g0 z30
(Block-name: path4)
(Block-expand: 0)
(Block-enable: 0)

(End cutting path id: path4)


(Start cutting path id: path4)
(Change tool to Default tool)

G00 Z30.000000
G00 X24.018396 Y92.735019

G01 Z-1.000000 F100.0(Penetrate)
G01 X24.073296 Y92.964019 Z-1.000000 F400.000000
G01 X24.163496 Y93.181019 Z-1.000000
G01 X24.286505 Y93.382019 Z-1.000000
G01 X24.439196 Y93.561019 Z-1.000000
G01 X24.618216 Y93.714019 Z-1.000000
G01 X24.819006 Y93.837019 Z-1.000000
G01 X25.036416 Y93.927019 Z-1.000000
G01 X25.265306 Y93.982019 Z-1.000000
G01 X25.500016 Y94.000019 Z-1.000000
G01 X25.734516 Y93.982019 Z-1.000000
G01 X25.963406 Y93.927019 Z-1.000000
G01 X26.180816 Y93.837019 Z-1.000000
G01 X26.381716 Y93.714019 Z-1.000000
G01 X26.560596 Y93.561019 Z-1.000000
G01 X26.713396 Y93.382019 Z-1.000000
G01 X26.836396 Y93.181019 Z-1.000000
G01 X26.926496 Y92.964019 Z-1.000000
G01 X26.981496 Y92.735019 Z-1.000000
G01 X26.999996 Y92.500019 Z-1.000000
G01 X26.981496 Y92.265019 Z-1.000000
G01 X26.926496 Y92.037019 Z-1.000000
G01 X26.836396 Y91.819019 Z-1.000000
G01 X26.713396 Y91.618019 Z-1.000000
G01 X26.560596 Y91.439019 Z-1.000000
G01 X26.381715 Y91.286019 Z-1.000000
G01 X26.180815 Y91.163019 Z-1.000000
G01 X25.963405 Y91.073019 Z-1.000000
G01 X25.734515 Y91.019019 Z-1.000000
G01 X25.500015 Y91.000019 Z-1.000000
G01 X25.265305 Y91.019019 Z-1.000000
G01 X25.036415 Y91.073019 Z-1.000000
G01 X24.819005 Y91.163019 Z-1.000000
G01 X24.618215 Y91.286019 Z-1.000000
G01 X24.439195 Y91.439019 Z-1.000000
G01 X24.286504 Y91.618019 Z-1.000000
G01 X24.163496 Y91.819019 Z-1.000000
G01 X24.073296 Y92.037019 Z-1.000000
G01 X24.018396 Y92.265019 Z-1.000000
G01 X23.999896 Y92.500019 Z-1.000000
G01 X24.018396 Y92.735019 Z-1.000000
G00 Z30.000000
(Block-name: path4 [in,cut])
(Block-expand: 0)
(Block-enable: 1)
g0 x24.76146 y92.617444
g1 z-1 f300
g1 x24.788731 y92.731197 f650
g1 x24.833659 y92.839281
g1 x24.89541 y92.940184
g1 x24.971423 y93.029294
g1 x25.060479 y93.105406
g1 x25.160427 y93.166633
g1 x25.268887 y93.211531
g1 x25.382336 y93.238792
g1 x25.49999 y93.247815
g1 x25.617461 y93.238798
g1 x25.730935 y93.211531
g1 x25.83948 y93.166597
g1 x25.939399 y93.105422
g1 x26.028376 y93.029319
g1 x26.104552 y92.94008
g1 x26.166151 y92.839419
g1 x26.211086 y92.731197
g1 x26.238444 y92.617288
g1 x26.247676 y92.500019
g1 x26.238473 y92.383124
g1 x26.211086 y92.269592
g1 x26.165831 y92.160096
g1 x26.104552 y92.059958
g1 x26.028376 y91.97072
g1 x25.939399 y91.894616
g1 x25.839479 y91.833441
g1 x25.732376 y91.789104
g1 x25.617459 y91.761993
g1 x25.499988 y91.752475
g1 x25.382334 y91.761999
g1 x25.267444 y91.789104
g1 x25.160426 y91.833405
g1 x25.060478 y91.894632
g1 x24.971422 y91.970744
g1 x24.89541 y92.059853
g1 x24.833979 y92.160232
g1 x24.788731 y92.269591
g1 x24.761431 y92.382968
g1 x24.752216 y92.500019
g1 x24.76146 y92.617444
g1 z-2 f300
g1 x24.788731 y92.731197 f650
g1 x24.833659 y92.839281
g1 x24.89541 y92.940184
g1 x24.971423 y93.029294
g1 x25.060479 y93.105406
g1 x25.160427 y93.166633
g1 x25.268887 y93.211531
g1 x25.382336 y93.238792
g1 x25.49999 y93.247815
g1 x25.617461 y93.238798
g1 x25.730935 y93.211531
g1 x25.83948 y93.166597
g1 x25.939399 y93.105422
g1 x26.028376 y93.029319
g1 x26.104552 y92.94008
g1 x26.166151 y92.839419
g1 x26.211086 y92.731197
g1 x26.238444 y92.617288
g1 x26.247676 y92.500019
g1 x26.238473 y92.383124
g1 x26.211086 y92.269592
g1 x26.165831 y92.160096
g1 x26.104552 y92.059958
g1 x26.028376 y91.97072
g1 x25.939399 y91.894616
g1 x25.839479 y91.833441
g1 x25.732376 y91.789104
g1 x25.617459 y91.761993
g1 x25.499988 y91.752475
g1 x25.382334 y91.761999
g1 x25.267444 y91.789104
g1 x25.160426 y91.833405
g1 x25.060478 y91.894632
g1 x24.971422 y91.970744
g1 x24.89541 y92.059853
g1 x24.833979 y92.160232
g1 x24.788731 y92.269591
g1 x24.761431 y92.382968
g1 x24.752216 y92.500019
g1 x24.76146 y92.617444
g1 z-3 f300
g1 x24.788731 y92.731197 f650
g1 x24.833659 y92.839281
g1 x24.89541 y92.940184
g1 x24.971423 y93.029294
g1 x25.060479 y93.105406
g1 x25.160427 y93.166633
g1 x25.268887 y93.211531
g1 x25.382336 y93.238792
g1 x25.49999 y93.247815
g1 x25.617461 y93.238798
g1 x25.730935 y93.211531
g1 x25.83948 y93.166597
g1 x25.939399 y93.105422
g1 x26.028376 y93.029319
g1 x26.104552 y92.94008
g1 x26.166151 y92.839419
g1 x26.211086 y92.731197
g1 x26.238444 y92.617288
g1 x26.247676 y92.500019
g1 x26.238473 y92.383124
g1 x26.211086 y92.269592
g1 x26.165831 y92.160096
g1 x26.104552 y92.059958
g1 x26.028376 y91.97072
g1 x25.939399 y91.894616
g1 x25.839479 y91.833441
g1 x25.732376 y91.789104
g1 x25.617459 y91.761993
g1 x25.499988 y91.752475
g1 x25.382334 y91.761999
g1 x25.267444 y91.789104
g1 x25.160426 y91.833405
g1 x25.060478 y91.894632
g1 x24.971422 y91.970744
g1 x24.89541 y92.059853
g1 x24.833979 y92.160232
g1 x24.788731 y92.269591
g1 x24.761431 y92.382968
g1 x24.752216 y92.500019
g1 x24.76146 y92.617444
g0 z30
(Block-name: path4)
(Block-expand: 0)
(Block-enable: 0)

(End cutting path id: path4)


(Start cutting path id: path4)
(Change tool to Default tool)

G00 Z30.000000
G00 X24.018393 Y67.735019

G01 Z-1.000000 F100.0(Penetrate)
G01 X24.073293 Y67.964019 Z-1.000000 F400.000000
G01 X24.163493 Y68.181019 Z-1.000000
G01 X24.286502 Y68.382019 Z-1.000000
G01 X24.439193 Y68.561019 Z-1.000000
G01 X24.618213 Y68.714019 Z-1.000000
G01 X24.819003 Y68.837019 Z-1.000000
G01 X25.036413 Y68.927019 Z-1.000000
G01 X25.265303 Y68.982019 Z-1.000000
G01 X25.500013 Y69.000019 Z-1.000000
G01 X25.734513 Y68.982019 Z-1.000000
G01 X25.963403 Y68.927019 Z-1.000000
G01 X26.180813 Y68.837019 Z-1.000000
G01 X26.381713 Y68.714019 Z-1.000000
G01 X26.560593 Y68.561019 Z-1.000000
G01 X26.713393 Y68.382019 Z-1.000000
G01 X26.836393 Y68.181019 Z-1.000000
G01 X26.926493 Y67.964019 Z-1.000000
G01 X26.981493 Y67.735019 Z-1.000000
G01 X26.999993 Y67.500019 Z-1.000000
G01 X26.981493 Y67.265019 Z-1.000000
G01 X26.926493 Y67.037019 Z-1.000000
G01 X26.836393 Y66.819019 Z-1.000000
G01 X26.713393 Y66.618019 Z-1.000000
G01 X26.560593 Y66.439019 Z-1.000000
G01 X26.381713 Y66.286019 Z-1.000000
G01 X26.180813 Y66.163019 Z-1.000000
G01 X25.963403 Y66.073019 Z-1.000000
G01 X25.734513 Y66.019019 Z-1.000000
G01 X25.500013 Y66.000019 Z-1.000000
G01 X25.265303 Y66.019019 Z-1.000000
G01 X25.036413 Y66.073019 Z-1.000000
G01 X24.819003 Y66.163019 Z-1.000000
G01 X24.618213 Y66.286019 Z-1.000000
G01 X24.439193 Y66.439019 Z-1.000000
G01 X24.286502 Y66.618019 Z-1.000000
G01 X24.163493 Y66.819019 Z-1.000000
G01 X24.073293 Y67.037019 Z-1.000000
G01 X24.018393 Y67.265019 Z-1.000000
G01 X23.999893 Y67.500019 Z-1.000000
G01 X24.018393 Y67.735019 Z-1.000000
G00 Z30.000000
(Block-name: path4 [in,cut])
(Block-expand: 0)
(Block-enable: 1)
g0 x24.761457 y67.617444
g1 z-1 f300
g1 x24.788728 y67.731197 f650
g1 x24.833656 y67.839281
g1 x24.895407 y67.940184
g1 x24.97142 y68.029294
g1 x25.060476 y68.105406
g1 x25.160424 y68.166633
g1 x25.268884 y68.211531
g1 x25.382333 y68.238792
g1 x25.499987 y68.247815
g1 x25.617458 y68.238798
g1 x25.730932 y68.211531
g1 x25.839477 y68.166597
g1 x25.939396 y68.105422
g1 x26.028373 y68.029319
g1 x26.104549 y67.94008
g1 x26.166148 y67.839419
g1 x26.211083 y67.731197
g1 x26.238441 y67.617288
g1 x26.247673 y67.500019
g1 x26.23847 y67.383124
g1 x26.211083 y67.269592
g1 x26.165828 y67.160096
g1 x26.104549 y67.059958
g1 x26.028373 y66.970719
g1 x25.939396 y66.894616
g1 x25.839477 y66.833441
g1 x25.732374 y66.789104
g1 x25.617457 y66.761993
g1 x25.499986 y66.752475
g1 x25.382332 y66.761999
g1 x25.267442 y66.789104
g1 x25.160424 y66.833405
g1 x25.060476 y66.894632
g1 x24.97142 y66.970744
g1 x24.895407 y67.059854
g1 x24.833976 y67.160234
g1 x24.788728 y67.269591
g1 x24.761428 y67.382968
g1 x24.752213 y67.500019
g1 x24.761457 y67.617444
g1 z-2 f300
g1 x24.788728 y67.731197 f650
g1 x24.833656 y67.839281
g1 x24.895407 y67.940184
g1 x24.97142 y68.029294
g1 x25.060476 y68.105406
g1 x25.160424 y68.166633
g1 x25.268884 y68.211531
g1 x25.382333 y68.238792
g1 x25.499987 y68.247815
g1 x25.617458 y68.238798
g1 x25.730932 y68.211531
g1 x25.839477 y68.166597
g1 x25.939396 y68.105422
g1 x26.028373 y68.029319
g1 x26.104549 y67.94008
g1 x26.166148 y67.839419
g1 x26.211083 y67.731197
g1 x26.238441 y67.617288
g1 x26.247673 y67.500019
g1 x26.23847 y67.383124
g1 x26.211083 y67.269592
g1 x26.165828 y67.160096
g1 x26.104549 y67.059958
g1 x26.028373 y66.970719
g1 x25.939396 y66.894616
g1 x25.839477 y66.833441
g1 x25.732374 y66.789104
g1 x25.617457 y66.761993
g1 x25.499986 y66.752475
g1 x25.382332 y66.761999
g1 x25.267442 y66.789104
g1 x25.160424 y66.833405
g1 x25.060476 y66.894632
g1 x24.97142 y66.970744
g1 x24.895407 y67.059854
g1 x24.833976 y67.160234
g1 x24.788728 y67.269591
g1 x24.761428 y67.382968
g1 x24.752213 y67.500019
g1 x24.761457 y67.617444
g1 z-3 f300
g1 x24.788728 y67.731197 f650
g1 x24.833656 y67.839281
g1 x24.895407 y67.940184
g1 x24.97142 y68.029294
g1 x25.060476 y68.105406
g1 x25.160424 y68.166633
g1 x25.268884 y68.211531
g1 x25.382333 y68.238792
g1 x25.499987 y68.247815
g1 x25.617458 y68.238798
g1 x25.730932 y68.211531
g1 x25.839477 y68.166597
g1 x25.939396 y68.105422
g1 x26.028373 y68.029319
g1 x26.104549 y67.94008
g1 x26.166148 y67.839419
g1 x26.211083 y67.731197
g1 x26.238441 y67.617288
g1 x26.247673 y67.500019
g1 x26.23847 y67.383124
g1 x26.211083 y67.269592
g1 x26.165828 y67.160096
g1 x26.104549 y67.059958
g1 x26.028373 y66.970719
g1 x25.939396 y66.894616
g1 x25.839477 y66.833441
g1 x25.732374 y66.789104
g1 x25.617457 y66.761993
g1 x25.499986 y66.752475
g1 x25.382332 y66.761999
g1 x25.267442 y66.789104
g1 x25.160424 y66.833405
g1 x25.060476 y66.894632
g1 x24.97142 y66.970744
g1 x24.895407 y67.059854
g1 x24.833976 y67.160234
g1 x24.788728 y67.269591
g1 x24.761428 y67.382968
g1 x24.752213 y67.500019
g1 x24.761457 y67.617444
g0 z30
(Block-name: path4)
(Block-expand: 0)
(Block-enable: 0)

(End cutting path id: path4)


(Start cutting path id: path4)
(Change tool to Default tool)

G00 Z30.000000
G00 X159.499995 Y22.500005

G01 Z-1.000000 F100.0(Penetrate)
G01 X159.499996 Y32.500005 Z-1.000000 F400.000000
G01 X75.499981 Y32.500013 Z-1.000000
G01 X75.499980 Y22.500013 Z-1.000000
G01 X159.499995 Y22.500005 Z-1.000000
G00 Z30.000000
(Block-name: path4 [out,cut:2])
(Block-expand: 0)
(Block-enable: 1)
(Block-tab: 111.322 21.75 5 5 -2)
(Block-tab: 123.678 33.25 5 5 -2)
g0 x159.499995 y21.750005
g1 z-1 f300
g3 x160.249995 y22.500005 i0 j0.75 f650
g1 x160.249996 y32.500005
g3 x159.499996 y33.250005 i-0.75 j0
g1 x126.928086 y33.250008
g1 x120.428086 y33.250009
g1 z-1 f300
g1 x75.499981 y33.250013 f650
g3 x74.749981 y32.500013 i0 j-0.75
g1 x74.74998 y22.500013
g3 x75.49998 y21.750013 i0.75 j0
g1 x108.07189 y21.75001
g1 x114.57189 y21.750009
g1 z-1 f300
g1 x159.499995 y21.750005 f650
g1 z-2 f300
g3 x160.249995 y22.500005 i0 j0.75 f650
g1 x160.249996 y32.500005
g3 x159.499996 y33.250005 i-0.75 j0
g1 x126.928086 y33.250008
g1 x120.428086 y33.250009
g1 z-2 f300
g1 x75.499981 y33.250013 f650
g3 x74.749981 y32.500013 i0 j-0.75
g1 x74.74998 y22.500013
g3 x75.49998 y21.750013 i0.75 j0
g1 x108.07189 y21.75001
g1 x114.57189 y21.750009
g1 z-2 f300
g1 x159.499995 y21.750005 f650
g1 z-3 f300
g3 x160.249995 y22.500005 i0 j0.75 f650
g1 x160.249996 y32.500005
g3 x159.499996 y33.250005 i-0.75 j0
g1 x126.928086 y33.250008
g0 z-2
g1 x120.428086 y33.250009 f650
g1 z-3 f300
g1 x75.499981 y33.250013 f650
g3 x74.749981 y32.500013 i0 j-0.75
g1 x74.74998 y22.500013
g3 x75.49998 y21.750013 i0.75 j0
g1 x108.07189 y21.75001
g0 z-2
g1 x114.57189 y21.750009 f650
g1 z-3 f300
g1 x159.499995 y21.750005 f650
g0 z30
(Block-name: block)
(Block-expand: 0)
(Block-enable: 0)
G00 X159.499997 Y42.500005

G01 Z-1.000000 F100.0(Penetrate)
G01 X159.499998 Y52.500005 Z-1.000000 F400.000000
G01 X75.499983 Y52.500014 Z-1.000000
G01 X75.499982 Y42.500013 Z-1.000000
G01 X159.499997 Y42.500005 Z-1.000000
G00 Z30.000000
(Block-name: block [out,cut:2])
(Block-expand: 0)
(Block-enable: 1)
(Block-tab: 111.322 41.75 5 5 -2)
(Block-tab: 123.678 53.25 5 5 -2)
g0 x159.499997 y41.750005
g1 z-1 f300
g3 x160.249997 y42.500005 i0 j0.75 f650
g1 x160.249998 y52.500005
g3 x159.499998 y53.250005 i-0.75 j0
g1 x126.928087 y53.250008
g1 x120.428087 y53.250009
g1 z-1 f300
g1 x75.499983 y53.250014 f650
g3 x74.749983 y52.500014 i0 j-0.75
g1 x74.749982 y42.500013
g3 x75.499982 y41.750013 i0.75 j0
g1 x108.071892 y41.75001
g1 x114.571892 y41.750009
g1 z-1 f300
g1 x159.499997 y41.750005 f650
g1 z-2 f300
g3 x160.249997 y42.500005 i0 j0.75 f650
g1 x160.249998 y52.500005
g3 x159.499998 y53.250005 i-0.75 j0
g1 x126.928087 y53.250008
g1 x120.428087 y53.250009
g1 z-2 f300
g1 x75.499983 y53.250014 f650
g3 x74.749983 y52.500014 i0 j-0.75
g1 x74.749982 y42.500013
g3 x75.499982 y41.750013 i0.75 j0
g1 x108.071892 y41.75001
g1 x114.571892 y41.750009
g1 z-2 f300
g1 x159.499997 y41.750005 f650
g1 z-3 f300
g3 x160.249997 y42.500005 i0 j0.75 f650
g1 x160.249998 y52.500005
g3 x159.499998 y53.250005 i-0.75 j0
g1 x126.928087 y53.250008
g0 z-2
g1 x120.428087 y53.250009 f650
g1 z-3 f300
g1 x75.499983 y53.250014 f650
g3 x74.749983 y52.500014 i0 j-0.75
g1 x74.749982 y42.500013
g3 x75.499982 y41.750013 i0.75 j0
g1 x108.071892 y41.75001
g0 z-2
g1 x114.571892 y41.750009 f650
g1 z-3 f300
g1 x159.499997 y41.750005 f650
g0 z30
(Block-name: path4)
(Block-expand: 0)
(Block-enable: 0)

(End cutting path id: path4)


(Start cutting path id: path4)
(Change tool to Default tool)

G00 Z30.000000
G00 X20.561503 Y66.718019

G01 Z-1.000000 F100.0(Penetrate)
G01 X20.744593 Y65.955019 Z-1.000000 F400.000000
G01 X21.044893 Y65.230019 Z-1.000000
G01 X21.454893 Y64.561019 Z-1.000000
G01 X21.964403 Y63.965019 Z-1.000000
G01 X22.560983 Y63.455019 Z-1.000000
G01 X23.229873 Y63.045019 Z-1.000000
G01 X23.954893 Y62.745019 Z-1.000000
G01 X24.717783 Y62.562019 Z-1.000000
G01 X25.500003 Y62.500019 Z-1.000000
G01 X26.282193 Y62.562019 Z-1.000000
G01 X27.044983 Y62.745019 Z-1.000000
G01 X27.769893 Y63.045019 Z-1.000000
G01 X28.438783 Y63.455018 Z-1.000000
G01 X29.035493 Y63.965018 Z-1.000000
G01 X29.544983 Y64.561018 Z-1.000000
G01 X29.954973 Y65.230018 Z-1.000000
G01 X30.255203 Y65.955018 Z-1.000000
G01 X30.438393 Y66.718018 Z-1.000000
G01 X30.499993 Y67.500018 Z-1.000000
G01 X30.499995 Y87.500019 Z-1.000000
G01 X45.499996 Y87.500017 Z-1.000000
G01 X45.499994 Y67.500017 Z-1.000000
G01 X45.561493 Y66.718017 Z-1.000000
G01 X45.744613 Y65.955017 Z-1.000000
G01 X46.044913 Y65.230017 Z-1.000000
G01 X46.454913 Y64.561017 Z-1.000000
G01 X46.964393 Y63.965017 Z-1.000000
G01 X47.561003 Y63.455017 Z-1.000000
G01 X48.229903 Y63.045017 Z-1.000000
G01 X48.954913 Y62.745016 Z-1.000000
G01 X49.717703 Y62.562016 Z-1.000000
G01 X50.500003 Y62.500016 Z-1.000000
G01 X51.282213 Y62.562016 Z-1.000000
G01 X52.045003 Y62.745016 Z-1.000000
G01 X52.769913 Y63.045016 Z-1.000000
G01 X53.438803 Y63.455016 Z-1.000000
G01 X54.035523 Y63.965016 Z-1.000000
G01 X54.545003 Y64.561016 Z-1.000000
G01 X54.955004 Y65.230016 Z-1.000000
G01 X55.255224 Y65.955016 Z-1.000000
G01 X55.438424 Y66.718016 Z-1.000000
G01 X55.500024 Y67.500016 Z-1.000000
G01 X55.500026 Y92.500016 Z-1.000000
G01 X55.438426 Y93.282016 Z-1.000000
G01 X55.255226 Y94.045016 Z-1.000000
G01 X54.955006 Y94.770016 Z-1.000000
G01 X54.545006 Y95.439017 Z-1.000000
G01 X54.035527 Y96.036017 Z-1.000000
G01 X53.438807 Y96.545017 Z-1.000000
G01 X52.769917 Y96.955017 Z-1.000000
G01 X52.045007 Y97.255017 Z-1.000000
G01 X51.282217 Y97.439017 Z-1.000000
G01 X50.500007 Y97.500017 Z-1.000000
G01 X25.500026 Y97.500019 Z-1.000000
G01 X24.717806 Y97.439020 Z-1.000000
G01 X23.954916 Y97.255020 Z-1.000000
G01 X23.229896 Y96.955020 Z-1.000000
G01 X22.561006 Y96.545020 Z-1.000000
G01 X21.964426 Y96.036020 Z-1.000000
G01 X21.454916 Y95.439020 Z-1.000000
G01 X21.044916 Y94.770020 Z-1.000000
G01 X20.744616 Y94.045020 Z-1.000000
G01 X20.561527 Y93.282020 Z-1.000000
G01 X20.500027 Y92.500020 Z-1.000000
G01 X20.500024 Y67.500019 Z-1.000000
G01 X20.561503 Y66.718019 Z-1.000000
G00 Z30.000000
(Block-name: path4 [out,cut:2])
(Block-expand: 0)
(Block-enable: 1)
(Block-tab: 35.9179 98.25 5 5 -2)
(Block-tab: 40.0821 86.75 5 5 -2)
g0 x19.81381 y66.659237
g1 z-1 f300
g1 x19.832206 y66.543016 f650
g1 x20.015296 y65.780016
g1 x20.051682 y65.66801
g1 x20.351982 y64.94301
g1 x20.405428 y64.83812
g1 x20.815428 y64.16912
g1 x20.884814 y64.073669
g1 x21.394324 y63.477669
g1 x21.477056 y63.394938
g1 x22.073636 y62.884938
g1 x22.169037 y62.815583
g1 x22.837927 y62.405583
g1 x22.943116 y62.352004
g1 x23.668136 y62.052004
g1 x23.779948 y62.015708
g1 x24.542838 y61.832708
g1 x24.658523 y61.814364
g1 x25.440743 y61.752364
g1 x25.559266 y61.752364
g1 x26.341456 y61.814364
g1 x26.45716 y61.832713
g1 x27.21995 y62.015713
g1 x27.331777 y62.052019
g1 x28.056687 y62.352019
g1 x28.161838 y62.405583
g1 x28.830728 y62.815582
g1 x28.926069 y62.884884
g1 x29.522779 y63.394884
g1 x29.605581 y63.477679
g1 x30.115071 y64.073679
g1 x30.184452 y64.169126
g1 x30.594442 y64.838126
g1 x30.647908 y64.943066
g1 x30.948138 y65.668066
g1 x30.984478 y65.779925
g1 x31.167668 y66.542925
g1 x31.186077 y66.659121
g1 x31.247677 y67.441121
g1 x31.249993 y67.500018
g1 x31.249995 y86.750019
g1 x36.832068 y86.750018
g1 x43.332068 y86.750017
g1 z-1 f300
g1 x44.749996 y86.750017 f650
g1 x44.749994 y67.500017
g1 x44.752303 y67.441216
g1 x44.813802 y66.659216
g1 x44.832203 y66.542987
g1 x45.015323 y65.779987
g1 x45.051702 y65.668008
g1 x45.352002 y64.943008
g1 x45.405448 y64.838118
g1 x45.815448 y64.169118
g1 x45.88482 y64.073683
g1 x46.3943 y63.477683
g1 x46.47706 y63.394923
g1 x47.07367 y62.884923
g1 x47.169061 y62.815578
g1 x47.837961 y62.405578
g1 x47.943142 y62.352003
g1 x48.668152 y62.052002
g1 x48.779946 y62.01571
g1 x49.542736 y61.83271
g1 x49.658449 y61.81436
g1 x50.440749 y61.75236
g1 x50.559264 y61.752361
g1 x51.341474 y61.814361
g1 x51.45718 y61.83271
g1 x52.21997 y62.01571
g1 x52.331797 y62.052016
g1 x53.056707 y62.352016
g1 x53.161859 y62.40558
g1 x53.830749 y62.81558
g1 x53.926084 y62.884878
g1 x54.522804 y63.394878
g1 x54.605616 y63.477682
g1 x55.115096 y64.073682
g1 x55.184467 y64.169116
g1 x55.594468 y64.838116
g1 x55.647942 y64.943073
g1 x55.948162 y65.668073
g1 x55.984497 y65.779914
g1 x56.167697 y66.542914
g1 x56.186108 y66.659119
g1 x56.247708 y67.441119
g1 x56.250024 y67.500016
g1 x56.250026 y92.500016
g1 x56.24771 y92.558913
g1 x56.18611 y93.340913
g1 x56.167699 y93.457118
g1 x55.984499 y94.220118
g1 x55.948164 y94.331959
g1 x55.647944 y95.056959
g1 x55.594471 y95.161915
g1 x55.184471 y95.830916
g1 x55.115503 y95.925878
g1 x54.606024 y96.522878
g1 x54.522255 y96.606627
g1 x53.925535 y97.115627
g1 x53.830753 y97.184453
g1 x53.161863 y97.594453
g1 x53.056711 y97.648017
g1 x52.331801 y97.948017
g1 x52.220877 y97.984105
g1 x51.458087 y98.168105
g1 x51.340528 y98.186747
g1 x50.558318 y98.247747
g1 x50.500007 y98.250017
g1 x39.167894 y98.250018
g1 x32.667894 y98.250018
g1 z-1 f300
g1 x25.500026 y98.250019 f650
g1 x25.441717 y98.247749
g1 x24.659497 y98.18675
g1 x24.541957 y98.168113
g1 x23.779067 y97.984113
g1 x23.668159 y97.948035
g1 x22.943139 y97.648035
g1 x22.83795 y97.594456
g1 x22.16906 y97.184456
g1 x22.074212 y97.115574
g1 x21.477632 y96.606574
g1 x21.393944 y96.522898
g1 x20.884434 y95.925898
g1 x20.815451 y95.830919
g1 x20.405451 y95.161919
g1 x20.352005 y95.057029
g1 x20.051705 y94.332029
g1 x20.015319 y94.220022
g1 x19.83223 y93.457022
g1 x19.813836 y93.340822
g1 x19.752336 y92.558822
g1 x19.750027 y92.50002
g1 x19.750024 y67.500019
g1 x19.752331 y67.441237
g1 x19.81381 y66.659237
g1 z-2 f300
g1 x19.832206 y66.543016 f650
g1 x20.015296 y65.780016
g1 x20.051682 y65.66801
g1 x20.351982 y64.94301
g1 x20.405428 y64.83812
g1 x20.815428 y64.16912
g1 x20.884814 y64.073669
g1 x21.394324 y63.477669
g1 x21.477056 y63.394938
g1 x22.073636 y62.884938
g1 x22.169037 y62.815583
g1 x22.837927 y62.405583
g1 x22.943116 y62.352004
g1 x23.668136 y62.052004
g1 x23.779948 y62.015708
g1 x24.542838 y61.832708
g1 x24.658523 y61.814364
g1 x25.440743 y61.752364
g1 x25.559266 y61.752364
g1 x26.341456 y61.814364
g1 x26.45716 y61.832713
g1 x27.21995 y62.015713
g1 x27.331777 y62.052019
g1 x28.056687 y62.352019
g1 x28.161838 y62.405583
g1 x28.830728 y62.815582
g1 x28.926069 y62.884884
g1 x29.522779 y63.394884
g1 x29.605581 y63.477679
g1 x30.115071 y64.073679
g1 x30.184452 y64.169126
g1 x30.594442 y64.838126
g1 x30.647908 y64.943066
g1 x30.948138 y65.668066
g1 x30.984478 y65.779925
g1 x31.167668 y66.542925
g1 x31.186077 y66.659121
g1 x31.247677 y67.441121
g1 x31.249993 y67.500018
g1 x31.249995 y86.750019
g1 x36.832068 y86.750018
g1 x43.332068 y86.750017
g1 z-2 f300
g1 x44.749996 y86.750017 f650
g1 x44.749994 y67.500017
g1 x44.752303 y67.441216
g1 x44.813802 y66.659216
g1 x44.832203 y66.542987
g1 x45.015323 y65.779987
g1 x45.051702 y65.668008
g1 x45.352002 y64.943008
g1 x45.405448 y64.838118
g1 x45.815448 y64.169118
g1 x45.88482 y64.073683
g1 x46.3943 y63.477683
g1 x46.47706 y63.394923
g1 x47.07367 y62.884923
g1 x47.169061 y62.815578
g1 x47.837961 y62.405578
g1 x47.943142 y62.352003
g1 x48.668152 y62.052002
g1 x48.779946 y62.01571
g1 x49.542736 y61.83271
g1 x49.658449 y61.81436
g1 x50.440749 y61.75236
g1 x50.559264 y61.752361
g1 x51.341474 y61.814361
g1 x51.45718 y61.83271
g1 x52.21997 y62.01571
g1 x52.331797 y62.052016
g1 x53.056707 y62.352016
g1 x53.161859 y62.40558
g1 x53.830749 y62.81558
g1 x53.926084 y62.884878
g1 x54.522804 y63.394878
g1 x54.605616 y63.477682
g1 x55.115096 y64.073682
g1 x55.184467 y64.169116
g1 x55.594468 y64.838116
g1 x55.647942 y64.943073
g1 x55.948162 y65.668073
g1 x55.984497 y65.779914
g1 x56.167697 y66.542914
g1 x56.186108 y66.659119
g1 x56.247708 y67.441119
g1 x56.250024 y67.500016
g1 x56.250026 y92.500016
g1 x56.24771 y92.558913
g1 x56.18611 y93.340913
g1 x56.167699 y93.457118
g1 x55.984499 y94.220118
g1 x55.948164 y94.331959
g1 x55.647944 y95.056959
g1 x55.594471 y95.161915
g1 x55.184471 y95.830916
g1 x55.115503 y95.925878
g1 x54.606024 y96.522878
g1 x54.522255 y96.606627
g1 x53.925535 y97.115627
g1 x53.830753 y97.184453
g1 x53.161863 y97.594453
g1 x53.056711 y97.648017
g1 x52.331801 y97.948017
g1 x52.220877 y97.984105
g1 x51.458087 y98.168105
g1 x51.340528 y98.186747
g1 x50.558318 y98.247747
g1 x50.500007 y98.250017
g1 x39.167894 y98.250018
g1 x32.667894 y98.250018
g1 z-2 f300
g1 x25.500026 y98.250019 f650
g1 x25.441717 y98.247749
g1 x24.659497 y98.18675
g1 x24.541957 y98.168113
g1 x23.779067 y97.984113
g1 x23.668159 y97.948035
g1 x22.943139 y97.648035
g1 x22.83795 y97.594456
g1 x22.16906 y97.184456
g1 x22.074212 y97.115574
g1 x21.477632 y96.606574
g1 x21.393944 y96.522898
g1 x20.884434 y95.925898
g1 x20.815451 y95.830919
g1 x20.405451 y95.161919
g1 x20.352005 y95.057029
g1 x20.051705 y94.332029
g1 x20.015319 y94.220022
g1 x19.83223 y93.457022
g1 x19.813836 y93.340822
g1 x19.752336 y92.558822
g1 x19.750027 y92.50002
g1 x19.750024 y67.500019
g1 x19.752331 y67.441237
g1 x19.81381 y66.659237
g1 z-3 f300
g1 x19.832206 y66.543016 f650
g1 x20.015296 y65.780016
g1 x20.051682 y65.66801
g1 x20.351982 y64.94301
g1 x20.405428 y64.83812
g1 x20.815428 y64.16912
g1 x20.884814 y64.073669
g1 x21.394324 y63.477669
g1 x21.477056 y63.394938
g1 x22.073636 y62.884938
g1 x22.169037 y62.815583
g1 x22.837927 y62.405583
g1 x22.943116 y62.352004
g1 x23.668136 y62.052004
g1 x23.779948 y62.015708
g1 x24.542838 y61.832708
g1 x24.658523 y61.814364
g1 x25.440743 y61.752364
g1 x25.559266 y61.752364
g1 x26.341456 y61.814364
g1 x26.45716 y61.832713
g1 x27.21995 y62.015713
g1 x27.331777 y62.052019
g1 x28.056687 y62.352019
g1 x28.161838 y62.405583
g1 x28.830728 y62.815582
g1 x28.926069 y62.884884
g1 x29.522779 y63.394884
g1 x29.605581 y63.477679
g1 x30.115071 y64.073679
g1 x30.184452 y64.169126
g1 x30.594442 y64.838126
g1 x30.647908 y64.943066
g1 x30.948138 y65.668066
g1 x30.984478 y65.779925
g1 x31.167668 y66.542925
g1 x31.186077 y66.659121
g1 x31.247677 y67.441121
g1 x31.249993 y67.500018
g1 x31.249995 y86.750019
g1 x36.832068 y86.750018
g0 z-2
g1 x43.332068 y86.750017 f650
g1 z-3 f300
g1 x44.749996 y86.750017 f650
g1 x44.749994 y67.500017
g1 x44.752303 y67.441216
g1 x44.813802 y66.659216
g1 x44.832203 y66.542987
g1 x45.015323 y65.779987
g1 x45.051702 y65.668008
g1 x45.352002 y64.943008
g1 x45.405448 y64.838118
g1 x45.815448 y64.169118
g1 x45.88482 y64.073683
g1 x46.3943 y63.477683
g1 x46.47706 y63.394923
g1 x47.07367 y62.884923
g1 x47.169061 y62.815578
g1 x47.837961 y62.405578
g1 x47.943142 y62.352003
g1 x48.668152 y62.052002
g1 x48.779946 y62.01571
g1 x49.542736 y61.83271
g1 x49.658449 y61.81436
g1 x50.440749 y61.75236
g1 x50.559264 y61.752361
g1 x51.341474 y61.814361
g1 x51.45718 y61.83271
g1 x52.21997 y62.01571
g1 x52.331797 y62.052016
g1 x53.056707 y62.352016
g1 x53.161859 y62.40558
g1 x53.830749 y62.81558
g1 x53.926084 y62.884878
g1 x54.522804 y63.394878
g1 x54.605616 y63.477682
g1 x55.115096 y64.073682
g1 x55.184467 y64.169116
g1 x55.594468 y64.838116
g1 x55.647942 y64.943073
g1 x55.948162 y65.668073
g1 x55.984497 y65.779914
g1 x56.167697 y66.542914
g1 x56.186108 y66.659119
g1 x56.247708 y67.441119
g1 x56.250024 y67.500016
g1 x56.250026 y92.500016
g1 x56.24771 y92.558913
g1 x56.18611 y93.340913
g1 x56.167699 y93.457118
g1 x55.984499 y94.220118
g1 x55.948164 y94.331959
g1 x55.647944 y95.056959
g1 x55.594471 y95.161915
g1 x55.184471 y95.830916
g1 x55.115503 y95.925878
g1 x54.606024 y96.522878
g1 x54.522255 y96.606627
g1 x53.925535 y97.115627
g1 x53.830753 y97.184453
g1 x53.161863 y97.594453
g1 x53.056711 y97.648017
g1 x52.331801 y97.948017
g1 x52.220877 y97.984105
g1 x51.458087 y98.168105
g1 x51.340528 y98.186747
g1 x50.558318 y98.247747
g1 x50.500007 y98.250017
g1 x39.167894 y98.250018
g0 z-2
g1 x32.667894 y98.250018 f650
g1 z-3 f300
g1 x25.500026 y98.250019 f650
g1 x25.441717 y98.247749
g1 x24.659497 y98.18675
g1 x24.541957 y98.168113
g1 x23.779067 y97.984113
g1 x23.668159 y97.948035
g1 x22.943139 y97.648035
g1 x22.83795 y97.594456
g1 x22.16906 y97.184456
g1 x22.074212 y97.115574
g1 x21.477632 y96.606574
g1 x21.393944 y96.522898
g1 x20.884434 y95.925898
g1 x20.815451 y95.830919
g1 x20.405451 y95.161919
