(Block-name: Header)
(Block-expand: 0)
(Block-enable: 1)
%
(Header)
(Generated by gcodetools from Inkscape.)
(Using default header. To add your own header create file "header" in the output dir.)
M3
(Header end.)
G21 (All units in mm)

(Start cutting path id: path4)
(Change tool to Default tool)

G00 Z30.000000
(Block-name: path4)
(Block-expand: 0)
(Block-enable: 0)

(End cutting path id: path4)


(Start cutting path id: path4)
(Change tool to Default tool)

G00 Z30.000000
G00 X77.265446 Y118.435575

G01 Z-1.000000 F100.0(Penetrate)
G01 X77.036546 Y118.490475 Z-1.000000 F400.000000
G01 X76.819146 Y118.580675 Z-1.000000
G01 X76.618346 Y118.703675 Z-1.000000
G01 X76.439346 Y118.856395 Z-1.000000
G01 X76.286646 Y119.035385 Z-1.000000
G01 X76.163646 Y119.236175 Z-1.000000
G01 X76.073446 Y119.453585 Z-1.000000
G01 X76.018546 Y119.682475 Z-1.000000
G01 X76.000046 Y119.917185 Z-1.000000
G01 X76.018546 Y120.152185 Z-1.000000
G01 X76.073446 Y120.380185 Z-1.000000
G01 X76.163646 Y120.598175 Z-1.000000
G01 X76.286646 Y120.799175 Z-1.000000
G01 X76.439346 Y120.978195 Z-1.000000
G01 X76.618346 Y121.130165 Z-1.000000
G01 X76.819146 Y121.253175 Z-1.000000
G01 X77.036546 Y121.344175 Z-1.000000
G01 X77.265446 Y121.398175 Z-1.000000
G01 X77.500146 Y121.417175 Z-1.000000
G01 X77.734646 Y121.398175 Z-1.000000
G01 X77.963546 Y121.344175 Z-1.000000
G01 X78.180946 Y121.253175 Z-1.000000
G01 X78.381846 Y121.130165 Z-1.000000
G01 X78.560746 Y120.978195 Z-1.000000
G01 X78.713546 Y120.799175 Z-1.000000
G01 X78.836546 Y120.598175 Z-1.000000
G01 X78.926646 Y120.380185 Z-1.000000
G01 X78.981646 Y120.152185 Z-1.000000
G01 X79.000046 Y119.917185 Z-1.000000
G01 X78.981646 Y119.682475 Z-1.000000
G01 X78.926646 Y119.453585 Z-1.000000
G01 X78.836546 Y119.236175 Z-1.000000
G01 X78.713546 Y119.035385 Z-1.000000
G01 X78.560746 Y118.856395 Z-1.000000
G01 X78.381846 Y118.703675 Z-1.000000
G01 X78.180946 Y118.580675 Z-1.000000
G01 X77.963546 Y118.490475 Z-1.000000
G01 X77.734646 Y118.435575 Z-1.000000
G01 X77.500146 Y118.417075 Z-1.000000
G01 X77.265446 Y118.435575 Z-1.000000
G00 Z30.000000
(Block-name: path4 [in,cut])
(Block-expand: 0)
(Block-enable: 1)
g0 x77.383095 y119.178628
g1 z-1 f300
g1 x77.269164 y119.205953 f650
g1 x77.160818 y119.250907
g1 x77.060329 y119.312461
g1 x76.971348 y119.388378
g1 x76.895434 y119.477362
g1 x76.833878 y119.577849
g1 x76.788924 y119.6862
g1 x76.761599 y119.800127
g1 x76.752369 y119.917221
g1 x76.761581 y120.034236
g1 x76.78888 y120.147607
g1 x76.83413 y120.256966
g1 x76.895564 y120.357358
g1 x76.970777 y120.445535
g1 x77.059558 y120.520909
g1 x77.161839 y120.583567
g1 x77.269018 y120.62843
g1 x77.382473 y120.655195
g1 x77.50012 y120.664719
g1 x77.617594 y120.655201
g1 x77.731074 y120.62843
g1 x77.83833 y120.583534
g1 x77.940609 y120.520909
g1 x78.02934 y120.445535
g1 x78.104692 y120.357254
g1 x78.165984 y120.257092
g1 x78.211237 y120.147606
g1 x78.238586 y120.034235
g1 x78.247748 y119.917221
g1 x78.238568 y119.800127
g1 x78.211193 y119.6862
g1 x78.166237 y119.577723
g1 x78.104822 y119.477466
g1 x78.028769 y119.388378
g1 x77.939838 y119.312461
g1 x77.839352 y119.250939
g1 x77.730928 y119.205953
g1 x77.616972 y119.178622
g1 x77.500121 y119.169403
g1 x77.383095 y119.178628
g1 z-2 f300
g1 x77.269164 y119.205953 f650
g1 x77.160818 y119.250907
g1 x77.060329 y119.312461
g1 x76.971348 y119.388378
g1 x76.895434 y119.477362
g1 x76.833878 y119.577849
g1 x76.788924 y119.6862
g1 x76.761599 y119.800127
g1 x76.752369 y119.917221
g1 x76.761581 y120.034236
g1 x76.78888 y120.147607
g1 x76.83413 y120.256966
g1 x76.895564 y120.357358
g1 x76.970777 y120.445535
g1 x77.059558 y120.520909
g1 x77.161839 y120.583567
g1 x77.269018 y120.62843
g1 x77.382473 y120.655195
g1 x77.50012 y120.664719
g1 x77.617594 y120.655201
g1 x77.731074 y120.62843
g1 x77.83833 y120.583534
g1 x77.940609 y120.520909
g1 x78.02934 y120.445535
g1 x78.104692 y120.357254
g1 x78.165984 y120.257092
g1 x78.211237 y120.147606
g1 x78.238586 y120.034235
g1 x78.247748 y119.917221
g1 x78.238568 y119.800127
g1 x78.211193 y119.6862
g1 x78.166237 y119.577723
g1 x78.104822 y119.477466
g1 x78.028769 y119.388378
g1 x77.939838 y119.312461
g1 x77.839352 y119.250939
g1 x77.730928 y119.205953
g1 x77.616972 y119.178622
g1 x77.500121 y119.169403
g1 x77.383095 y119.178628
g0 z30
(Block-name: path4)
(Block-expand: 0)
(Block-enable: 0)

(End cutting path id: path4)


(Start cutting path id: path4)
(Change tool to Default tool)

G00 Z30.000000
G00 X52.265446 Y118.435577

G01 Z-1.000000 F100.0(Penetrate)
G01 X52.036546 Y118.490477 Z-1.000000 F400.000000
G01 X51.819146 Y118.580677 Z-1.000000
G01 X51.618346 Y118.703677 Z-1.000000
G01 X51.439346 Y118.856397 Z-1.000000
G01 X51.286646 Y119.035387 Z-1.000000
G01 X51.163646 Y119.236177 Z-1.000000
G01 X51.073446 Y119.453587 Z-1.000000
G01 X51.018546 Y119.682477 Z-1.000000
G01 X51.000046 Y119.917187 Z-1.000000
G01 X51.018546 Y120.152187 Z-1.000000
G01 X51.073446 Y120.380187 Z-1.000000
G01 X51.163646 Y120.598177 Z-1.000000
G01 X51.286646 Y120.799177 Z-1.000000
G01 X51.439346 Y120.978197 Z-1.000000
G01 X51.618346 Y121.130167 Z-1.000000
G01 X51.819146 Y121.253177 Z-1.000000
G01 X52.036546 Y121.344177 Z-1.000000
G01 X52.265446 Y121.398177 Z-1.000000
G01 X52.500146 Y121.417177 Z-1.000000
G01 X52.734646 Y121.398177 Z-1.000000
G01 X52.963546 Y121.344177 Z-1.000000
G01 X53.180946 Y121.253177 Z-1.000000
G01 X53.381846 Y121.130167 Z-1.000000
G01 X53.560746 Y120.978197 Z-1.000000
G01 X53.713646 Y120.799177 Z-1.000000
G01 X53.836646 Y120.598177 Z-1.000000
G01 X53.926646 Y120.380187 Z-1.000000
G01 X53.981646 Y120.152187 Z-1.000000
G01 X54.000046 Y119.917187 Z-1.000000
G01 X53.981646 Y119.682477 Z-1.000000
G01 X53.926646 Y119.453587 Z-1.000000
G01 X53.836646 Y119.236177 Z-1.000000
G01 X53.713646 Y119.035387 Z-1.000000
G01 X53.560746 Y118.856397 Z-1.000000
G01 X53.381846 Y118.703677 Z-1.000000
G01 X53.180946 Y118.580677 Z-1.000000
G01 X52.963546 Y118.490477 Z-1.000000
G01 X52.734646 Y118.435577 Z-1.000000
G01 X52.500146 Y118.417077 Z-1.000000
G01 X52.265446 Y118.435577 Z-1.000000
G00 Z30.000000
(Block-name: path4 [in,cut])
(Block-expand: 0)
(Block-enable: 1)
g0 x52.383095 y119.17863
g1 z-1 f300
g1 x52.269164 y119.205955 f650
g1 x52.160818 y119.250909
g1 x52.060329 y119.312463
g1 x51.971348 y119.38838
g1 x51.895434 y119.477364
g1 x51.833878 y119.577851
g1 x51.788924 y119.686202
g1 x51.761599 y119.800129
g1 x51.752369 y119.917223
g1 x51.761581 y120.034238
g1 x51.78888 y120.147609
g1 x51.83413 y120.256968
g1 x51.895564 y120.35736
g1 x51.970777 y120.445537
g1 x52.059558 y120.520911
g1 x52.161839 y120.583569
g1 x52.269018 y120.628432
g1 x52.382473 y120.655197
g1 x52.50012 y120.664721
g1 x52.617594 y120.655203
g1 x52.731074 y120.628432
g1 x52.83833 y120.583536
g1 x52.940609 y120.520911
g1 x53.029433 y120.445458
g1 x53.104855 y120.357152
g1 x53.166007 y120.257221
g1 x53.211203 y120.147752
g1 x53.238586 y120.034237
g1 x53.247748 y119.917223
g1 x53.238568 y119.800129
g1 x53.211158 y119.686058
g1 x53.16626 y119.577598
g1 x53.104986 y119.477572
g1 x53.028862 y119.388459
g1 x52.939838 y119.312463
g1 x52.839352 y119.250941
g1 x52.730928 y119.205955
g1 x52.616972 y119.178624
g1 x52.500121 y119.169405
g1 x52.383095 y119.17863
g1 z-2 f300
g1 x52.269164 y119.205955 f650
g1 x52.160818 y119.250909
g1 x52.060329 y119.312463
g1 x51.971348 y119.38838
g1 x51.895434 y119.477364
g1 x51.833878 y119.577851
g1 x51.788924 y119.686202
g1 x51.761599 y119.800129
g1 x51.752369 y119.917223
g1 x51.761581 y120.034238
g1 x51.78888 y120.147609
g1 x51.83413 y120.256968
g1 x51.895564 y120.35736
g1 x51.970777 y120.445537
g1 x52.059558 y120.520911
g1 x52.161839 y120.583569
g1 x52.269018 y120.628432
g1 x52.382473 y120.655197
g1 x52.50012 y120.664721
g1 x52.617594 y120.655203
g1 x52.731074 y120.628432
g1 x52.83833 y120.583536
g1 x52.940609 y120.520911
g1 x53.029433 y120.445458
g1 x53.104855 y120.357152
g1 x53.166007 y120.257221
g1 x53.211203 y120.147752
g1 x53.238586 y120.034237
g1 x53.247748 y119.917223
g1 x53.238568 y119.800129
g1 x53.211158 y119.686058
g1 x53.16626 y119.577598
g1 x53.104986 y119.477572
g1 x53.028862 y119.388459
g1 x52.939838 y119.312463
g1 x52.839352 y119.250941
g1 x52.730928 y119.205955
g1 x52.616972 y119.178624
g1 x52.500121 y119.169405
g1 x52.383095 y119.17863
g0 z30
(Block-name: path4)
(Block-expand: 0)
(Block-enable: 0)

(End cutting path id: path4)


(Start cutting path id: path4)
(Change tool to Default tool)

G00 Z30.000000
G00 X60.598743 Y88.435586

G01 Z-1.000000 F100.0(Penetrate)
G01 X60.369843 Y88.490486 Z-1.000000 F400.000000
G01 X60.152443 Y88.580686 Z-1.000000
G01 X59.951743 Y88.703696 Z-1.000000
G01 X59.772743 Y88.856386 Z-1.000000
G01 X59.619943 Y89.035406 Z-1.000000
G01 X59.496943 Y89.236196 Z-1.000000
G01 X59.406843 Y89.453606 Z-1.000000
G01 X59.351943 Y89.682496 Z-1.000000
G01 X59.333343 Y89.917206 Z-1.000000
G01 X59.351943 Y90.151706 Z-1.000000
G01 X59.406843 Y90.380596 Z-1.000000
G01 X59.496943 Y90.598006 Z-1.000000
G01 X59.619943 Y90.798906 Z-1.000000
G01 X59.772743 Y90.977786 Z-1.000000
G01 X59.951743 Y91.130686 Z-1.000000
G01 X60.152443 Y91.253696 Z-1.000000
G01 X60.369843 Y91.343696 Z-1.000000
G01 X60.598743 Y91.398696 Z-1.000000
G01 X60.833443 Y91.417196 Z-1.000000
G01 X61.068143 Y91.398696 Z-1.000000
G01 X61.296943 Y91.343696 Z-1.000000
G01 X61.514433 Y91.253696 Z-1.000000
G01 X61.715043 Y91.130686 Z-1.000000
G01 X61.894043 Y90.977786 Z-1.000000
G01 X62.046943 Y90.798906 Z-1.000000
G01 X62.169933 Y90.598006 Z-1.000000
G01 X62.259933 Y90.380596 Z-1.000000
G01 X62.314933 Y90.151706 Z-1.000000
G01 X62.333333 Y89.917206 Z-1.000000
G01 X62.314933 Y89.682496 Z-1.000000
G01 X62.259933 Y89.453606 Z-1.000000
G01 X62.169933 Y89.236196 Z-1.000000
G01 X62.046943 Y89.035406 Z-1.000000
G01 X61.894043 Y88.856386 Z-1.000000
G01 X61.715043 Y88.703696 Z-1.000000
G01 X61.514433 Y88.580686 Z-1.000000
G01 X61.296943 Y88.490486 Z-1.000000
G01 X61.068143 Y88.435586 Z-1.000000
G01 X60.833443 Y88.417086 Z-1.000000
G01 X60.598743 Y88.435586 Z-1.000000
G00 Z30.000000
(Block-name: path4 [in,cut])
(Block-expand: 0)
(Block-enable: 1)
g0 x60.716392 y89.178639
g1 z-1 f300
g1 x60.602461 y89.205964 f650
g1 x60.494204 y89.25088
g1 x60.393769 y89.312438
g1 x60.304653 y89.388455
g1 x60.228683 y89.477461
g1 x60.167252 y89.577744
g1 x60.122356 y89.686077
g1 x60.094958 y89.800303
g1 x60.085696 y89.917179
g1 x60.094952 y90.033873
g1 x60.122356 y90.148125
g1 x60.167287 y90.256543
g1 x60.228667 y90.356797
g1 x60.304708 y90.445817
g1 x60.393987 y90.522078
g1 x60.493952 y90.583347
g1 x60.602317 y90.628208
g1 x60.716548 y90.655655
g1 x60.833443 y90.66487
g1 x60.950301 y90.655658
g1 x61.064489 y90.62821
g1 x61.172901 y90.583347
g1 x61.272742 y90.522127
g1 x61.362171 y90.445738
g1 x61.438274 y90.356703
g1 x61.499506 y90.256682
g1 x61.544445 y90.148125
g1 x61.571861 y90.034029
g1 x61.58103 y89.91718
g1 x61.571855 y89.800148
g1 x61.544445 y89.686077
g1 x61.499541 y89.577605
g1 x61.438257 y89.477554
g1 x61.362226 y89.388535
g1 x61.27296 y89.312389
g1 x61.172649 y89.25088
g1 x61.064345 y89.205963
g1 x60.950456 y89.178636
g1 x60.833443 y89.169412
g1 x60.716392 y89.178639
g1 z-2 f300
g1 x60.602461 y89.205964 f650
g1 x60.494204 y89.25088
g1 x60.393769 y89.312438
g1 x60.304653 y89.388455
g1 x60.228683 y89.477461
g1 x60.167252 y89.577744
g1 x60.122356 y89.686077
g1 x60.094958 y89.800303
g1 x60.085696 y89.917179
g1 x60.094952 y90.033873
g1 x60.122356 y90.148125
g1 x60.167287 y90.256543
g1 x60.228667 y90.356797
g1 x60.304708 y90.445817
g1 x60.393987 y90.522078
g1 x60.493952 y90.583347
g1 x60.602317 y90.628208
g1 x60.716548 y90.655655
g1 x60.833443 y90.66487
g1 x60.950301 y90.655658
g1 x61.064489 y90.62821
g1 x61.172901 y90.583347
g1 x61.272742 y90.522127
g1 x61.362171 y90.445738
g1 x61.438274 y90.356703
g1 x61.499506 y90.256682
g1 x61.544445 y90.148125
g1 x61.571861 y90.034029
g1 x61.58103 y89.91718
g1 x61.571855 y89.800148
g1 x61.544445 y89.686077
g1 x61.499541 y89.577605
g1 x61.438257 y89.477554
g1 x61.362226 y89.388535
g1 x61.27296 y89.312389
g1 x61.172649 y89.25088
g1 x61.064345 y89.205963
g1 x60.950456 y89.178636
g1 x60.833443 y89.169412
g1 x60.716392 y89.178639
g0 z30
(Block-name: path4)
(Block-expand: 0)
(Block-enable: 0)

(End cutting path id: path4)


(Start cutting path id: path4)
(Change tool to Default tool)

G00 Z30.000000
G00 X52.265440 Y58.435586

G01 Z-1.000000 F100.0(Penetrate)
G01 X52.036540 Y58.490486 Z-1.000000 F400.000000
G01 X51.819140 Y58.580686 Z-1.000000
G01 X51.618340 Y58.703686 Z-1.000000
G01 X51.439340 Y58.856386 Z-1.000000
G01 X51.286640 Y59.035376 Z-1.000000
G01 X51.163640 Y59.236186 Z-1.000000
G01 X51.073440 Y59.453576 Z-1.000000
G01 X51.018540 Y59.682486 Z-1.000000
G01 X51.000040 Y59.917176 Z-1.000000
G01 X51.018540 Y60.151676 Z-1.000000
G01 X51.073440 Y60.380596 Z-1.000000
G01 X51.163640 Y60.597976 Z-1.000000
G01 X51.286640 Y60.798876 Z-1.000000
G01 X51.439340 Y60.977786 Z-1.000000
G01 X51.618340 Y61.130686 Z-1.000000
G01 X51.819140 Y61.253696 Z-1.000000
G01 X52.036540 Y61.343696 Z-1.000000
G01 X52.265440 Y61.398696 Z-1.000000
G01 X52.500140 Y61.417196 Z-1.000000
G01 X52.734640 Y61.398696 Z-1.000000
G01 X52.963540 Y61.343696 Z-1.000000
G01 X53.180940 Y61.253696 Z-1.000000
G01 X53.381840 Y61.130686 Z-1.000000
G01 X53.560740 Y60.977786 Z-1.000000
G01 X53.713640 Y60.798876 Z-1.000000
G01 X53.836640 Y60.597976 Z-1.000000
G01 X53.926640 Y60.380596 Z-1.000000
G01 X53.981640 Y60.151676 Z-1.000000
G01 X54.000040 Y59.917176 Z-1.000000
G01 X53.981640 Y59.682486 Z-1.000000
G01 X53.926640 Y59.453576 Z-1.000000
G01 X53.836640 Y59.236186 Z-1.000000
G01 X53.713640 Y59.035376 Z-1.000000
G01 X53.560740 Y58.856386 Z-1.000000
G01 X53.381840 Y58.703686 Z-1.000000
G01 X53.180940 Y58.580686 Z-1.000000
G01 X52.963540 Y58.490486 Z-1.000000
G01 X52.734640 Y58.435586 Z-1.000000
G01 X52.500140 Y58.417086 Z-1.000000
G01 X52.265440 Y58.435586 Z-1.000000
G00 Z30.000000
(Block-name: path4 [in,cut])
(Block-expand: 0)
(Block-enable: 1)
g0 x52.383089 y59.178639
g1 z-1 f300
g1 x52.269158 y59.205964 f650
g1 x52.160812 y59.250918
g1 x52.060302 y59.312485
g1 x51.971327 y59.388387
g1 x51.895439 y59.477341
g1 x51.833872 y59.577855
g1 x51.788918 y59.686196
g1 x51.761593 y59.800133
g1 x51.752368 y59.917152
g1 x51.761587 y60.03401
g1 x51.788918 y60.147973
g1 x51.833897 y60.256371
g1 x51.895444 y60.356898
g1 x51.971422 y60.445916
g1 x52.06052 y60.522024
g1 x52.160572 y60.583315
g1 x52.269014 y60.628208
g1 x52.383245 y60.655655
g1 x52.500115 y60.664868
g1 x52.616811 y60.655661
g1 x52.731066 y60.628208
g1 x52.839586 y60.583283
g1 x52.939634 y60.522024
g1 x53.028776 y60.445837
g1 x53.104963 y60.35669
g1 x53.166228 y60.256624
g1 x53.211152 y60.148117
g1 x53.238567 y60.03401
g1 x53.247737 y59.917152
g1 x53.238562 y59.800133
g1 x53.211152 y59.686052
g1 x53.166254 y59.577602
g1 x53.104969 y59.477549
g1 x53.028871 y59.388466
g1 x52.939853 y59.312485
g1 x52.839346 y59.25095
g1 x52.730922 y59.205964
g1 x52.616966 y59.178633
g1 x52.500115 y59.169414
g1 x52.383089 y59.178639
g1 z-2 f300
g1 x52.269158 y59.205964 f650
g1 x52.160812 y59.250918
g1 x52.060302 y59.312485
g1 x51.971327 y59.388387
g1 x51.895439 y59.477341
g1 x51.833872 y59.577855
g1 x51.788918 y59.686196
g1 x51.761593 y59.800133
g1 x51.752368 y59.917152
g1 x51.761587 y60.03401
g1 x51.788918 y60.147973
g1 x51.833897 y60.256371
g1 x51.895444 y60.356898
g1 x51.971422 y60.445916
g1 x52.06052 y60.522024
g1 x52.160572 y60.583315
g1 x52.269014 y60.628208
g1 x52.383245 y60.655655
g1 x52.500115 y60.664868
g1 x52.616811 y60.655661
g1 x52.731066 y60.628208
g1 x52.839586 y60.583283
g1 x52.939634 y60.522024
g1 x53.028776 y60.445837
g1 x53.104963 y60.35669
g1 x53.166228 y60.256624
g1 x53.211152 y60.148117
g1 x53.238567 y60.03401
g1 x53.247737 y59.917152
g1 x53.238562 y59.800133
g1 x53.211152 y59.686052
g1 x53.166254 y59.577602
g1 x53.104969 y59.477549
g1 x53.028871 y59.388466
g1 x52.939853 y59.312485
g1 x52.839346 y59.25095
g1 x52.730922 y59.205964
g1 x52.616966 y59.178633
g1 x52.500115 y59.169414
g1 x52.383089 y59.178639
g0 z30
(Block-name: path4)
(Block-expand: 0)
(Block-enable: 0)

(End cutting path id: path4)


(Start cutting path id: path4)
(Change tool to Default tool)

G00 Z30.000000
G00 X117.265444 Y118.435571

G01 Z-1.000000 F100.0(Penetrate)
G01 X117.036544 Y118.490471 Z-1.000000 F400.000000
G01 X116.819144 Y118.580671 Z-1.000000
G01 X116.618344 Y118.703671 Z-1.000000
G01 X116.439344 Y118.856391 Z-1.000000
G01 X116.286644 Y119.035381 Z-1.000000
G01 X116.163644 Y119.236171 Z-1.000000
G01 X116.073444 Y119.453581 Z-1.000000
G01 X116.018544 Y119.682471 Z-1.000000
G01 X116.000044 Y119.917181 Z-1.000000
G01 X116.018544 Y120.152181 Z-1.000000
G01 X116.073444 Y120.380181 Z-1.000000
G01 X116.163644 Y120.598171 Z-1.000000
G01 X116.286644 Y120.799171 Z-1.000000
G01 X116.439344 Y120.978191 Z-1.000000
G01 X116.618344 Y121.130161 Z-1.000000
G01 X116.819144 Y121.253171 Z-1.000000
G01 X117.036544 Y121.344171 Z-1.000000
G01 X117.265444 Y121.398171 Z-1.000000
G01 X117.500144 Y121.417171 Z-1.000000
G01 X117.735144 Y121.398171 Z-1.000000
G01 X117.963144 Y121.344171 Z-1.000000
G01 X118.181144 Y121.253171 Z-1.000000
G01 X118.382144 Y121.130161 Z-1.000000
G01 X118.561144 Y120.978191 Z-1.000000
G01 X118.713144 Y120.799171 Z-1.000000
G01 X118.836144 Y120.598171 Z-1.000000
G01 X118.927144 Y120.380181 Z-1.000000
G01 X118.981144 Y120.152181 Z-1.000000
G01 X119.000144 Y119.917181 Z-1.000000
G01 X118.981144 Y119.682471 Z-1.000000
G01 X118.927144 Y119.453581 Z-1.000000
G01 X118.836144 Y119.236171 Z-1.000000
G01 X118.713144 Y119.035381 Z-1.000000
G01 X118.561144 Y118.856391 Z-1.000000
G01 X118.382144 Y118.703671 Z-1.000000
G01 X118.181144 Y118.580671 Z-1.000000
G01 X117.963144 Y118.490471 Z-1.000000
G01 X117.735144 Y118.435571 Z-1.000000
G01 X117.500144 Y118.417071 Z-1.000000
G01 X117.265444 Y118.435571 Z-1.000000
G00 Z30.000000
(Block-name: path4 [in,cut])
(Block-expand: 0)
(Block-enable: 1)
g0 x117.383093 y119.178624
g1 z-1 f300
g1 x117.269162 y119.205949 f650
g1 x117.160816 y119.250903
g1 x117.060327 y119.312457
g1 x116.971346 y119.388374
g1 x116.895432 y119.477358
g1 x116.833876 y119.577845
g1 x116.788922 y119.686196
g1 x116.761597 y119.800123
g1 x116.752367 y119.917217
g1 x116.761579 y120.034232
g1 x116.788878 y120.147603
g1 x116.834128 y120.256962
g1 x116.895562 y120.357354
g1 x116.970775 y120.445531
g1 x117.059556 y120.520905
g1 x117.161837 y120.583563
g1 x117.269016 y120.628426
g1 x117.382471 y120.655191
g1 x117.500183 y120.664721
g1 x117.617823 y120.655209
g1 x117.730725 y120.628469
g1 x117.838921 y120.583305
g1 x117.94106 y120.520797
g1 x118.02906 y120.446085
g1 x118.103779 y120.358084
g1 x118.166276 y120.255955
g1 x118.211444 y120.147756
g1 x118.238182 y120.03486
g1 x118.247694 y119.917218
g1 x118.238164 y119.7995
g1 x118.211399 y119.686051
g1 x118.16653 y119.578854
g1 x118.103909 y119.476629
g1 x118.028491 y119.387818
g1 x117.940288 y119.312565
g1 x117.839941 y119.251159
g1 x117.730572 y119.205906
g1 x117.617195 y119.178606
g1 x117.500182 y119.169394
g1 x117.383093 y119.178624
g1 z-2 f300
g1 x117.269162 y119.205949 f650
g1 x117.160816 y119.250903
g1 x117.060327 y119.312457
g1 x116.971346 y119.388374
g1 x116.895432 y119.477358
g1 x116.833876 y119.577845
g1 x116.788922 y119.686196
g1 x116.761597 y119.800123
g1 x116.752367 y119.917217
g1 x116.761579 y120.034232
g1 x116.788878 y120.147603
g1 x116.834128 y120.256962
g1 x116.895562 y120.357354
g1 x116.970775 y120.445531
g1 x117.059556 y120.520905
g1 x117.161837 y120.583563
g1 x117.269016 y120.628426
g1 x117.382471 y120.655191
g1 x117.500183 y120.664721
g1 x117.617823 y120.655209
g1 x117.730725 y120.628469
g1 x117.838921 y120.583305
g1 x117.94106 y120.520797
g1 x118.02906 y120.446085
g1 x118.103779 y120.358084
g1 x118.166276 y120.255955
g1 x118.211444 y120.147756
g1 x118.238182 y120.03486
g1 x118.247694 y119.917218
g1 x118.238164 y119.7995
g1 x118.211399 y119.686051
g1 x118.16653 y119.578854
g1 x118.103909 y119.476629
g1 x118.028491 y119.387818
g1 x117.940288 y119.312565
g1 x117.839941 y119.251159
g1 x117.730572 y119.205906
g1 x117.617195 y119.178606
g1 x117.500182 y119.169394
g1 x117.383093 y119.178624
g0 z30
(Block-name: path4)
(Block-expand: 0)
(Block-enable: 0)

(End cutting path id: path4)


(Start cutting path id: path4)
(Change tool to Default tool)

G00 Z30.000000
G00 X92.265446 Y118.435573

G01 Z-1.000000 F100.0(Penetrate)
G01 X92.036546 Y118.490473 Z-1.000000 F400.000000
G01 X91.819146 Y118.580673 Z-1.000000
G01 X91.618346 Y118.703673 Z-1.000000
G01 X91.439347 Y118.856393 Z-1.000000
G01 X91.286647 Y119.035383 Z-1.000000
G01 X91.163647 Y119.236173 Z-1.000000
G01 X91.073447 Y119.453583 Z-1.000000
G01 X91.018547 Y119.682473 Z-1.000000
G01 X91.000047 Y119.917183 Z-1.000000
G01 X91.018547 Y120.152183 Z-1.000000
G01 X91.073447 Y120.380183 Z-1.000000
G01 X91.163647 Y120.598173 Z-1.000000
G01 X91.286647 Y120.799173 Z-1.000000
G01 X91.439347 Y120.978193 Z-1.000000
G01 X91.618347 Y121.130163 Z-1.000000
G01 X91.819147 Y121.253173 Z-1.000000
G01 X92.036547 Y121.344173 Z-1.000000
G01 X92.265447 Y121.398173 Z-1.000000
G01 X92.500147 Y121.417173 Z-1.000000
G01 X92.734647 Y121.398173 Z-1.000000
G01 X92.963547 Y121.344173 Z-1.000000
G01 X93.180947 Y121.253173 Z-1.000000
G01 X93.381847 Y121.130163 Z-1.000000
G01 X93.560747 Y120.978193 Z-1.000000
G01 X93.713647 Y120.799173 Z-1.000000
G01 X93.836647 Y120.598173 Z-1.000000
G01 X93.926647 Y120.380183 Z-1.000000
G01 X93.981647 Y120.152183 Z-1.000000
G01 X94.000047 Y119.917183 Z-1.000000
G01 X93.981647 Y119.682473 Z-1.000000
G01 X93.926647 Y119.453583 Z-1.000000
G01 X93.836647 Y119.236173 Z-1.000000
G01 X93.713647 Y119.035383 Z-1.000000
G01 X93.560747 Y118.856393 Z-1.000000
G01 X93.381847 Y118.703673 Z-1.000000
G01 X93.180947 Y118.580673 Z-1.000000
G01 X92.963547 Y118.490473 Z-1.000000
G01 X92.734646 Y118.435573 Z-1.000000
G01 X92.500146 Y118.417073 Z-1.000000
G01 X92.265446 Y118.435573 Z-1.000000
G00 Z30.000000
(Block-name: path4 [in,cut])
(Block-expand: 0)
(Block-enable: 1)
g0 x92.383095 y119.178626
g1 z-1 f300
g1 x92.269164 y119.205951 f650
g1 x92.160818 y119.250905
g1 x92.06033 y119.312458
g1 x91.97135 y119.388375
g1 x91.895435 y119.47736
g1 x91.833879 y119.577847
g1 x91.788925 y119.686198
g1 x91.7616 y119.800125
g1 x91.75237 y119.917219
g1 x91.761582 y120.034234
g1 x91.788881 y120.147605
g1 x91.834131 y120.256964
g1 x91.895565 y120.357356
g1 x91.970778 y120.445533
g1 x92.059559 y120.520907
g1 x92.16184 y120.583565
g1 x92.269019 y120.628428
g1 x92.382474 y120.655193
g1 x92.500121 y120.664717
g1 x92.617595 y120.655199
g1 x92.731075 y120.628428
g1 x92.838331 y120.583532
g1 x92.94061 y120.520907
g1 x93.029434 y120.445454
g1 x93.104856 y120.357148
g1 x93.166008 y120.257217
g1 x93.211204 y120.147748
g1 x93.238587 y120.034233
g1 x93.247749 y119.917219
g1 x93.238569 y119.800125
g1 x93.211159 y119.686054
g1 x93.166261 y119.577594
g1 x93.104987 y119.477568
g1 x93.028863 y119.388455
g1 x92.939839 y119.312459
g1 x92.839353 y119.250937
g1 x92.73093 y119.205952
g1 x92.616973 y119.17862
g1 x92.500121 y119.169401
g1 x92.383095 y119.178626
g1 z-2 f300
g1 x92.269164 y119.205951 f650
g1 x92.160818 y119.250905
g1 x92.06033 y119.312458
g1 x91.97135 y119.388375
g1 x91.895435 y119.47736
g1 x91.833879 y119.577847
g1 x91.788925 y119.686198
g1 x91.7616 y119.800125
g1 x91.75237 y119.917219
g1 x91.761582 y120.034234
g1 x91.788881 y120.147605
g1 x91.834131 y120.256964
g1 x91.895565 y120.357356
g1 x91.970778 y120.445533
g1 x92.059559 y120.520907
g1 x92.16184 y120.583565
g1 x92.269019 y120.628428
g1 x92.382474 y120.655193
g1 x92.500121 y120.664717
g1 x92.617595 y120.655199
g1 x92.731075 y120.628428
g1 x92.838331 y120.583532
g1 x92.94061 y120.520907
g1 x93.029434 y120.445454
g1 x93.104856 y120.357148
g1 x93.166008 y120.257217
g1 x93.211204 y120.147748
g1 x93.238587 y120.034233
g1 x93.247749 y119.917219
g1 x93.238569 y119.800125
g1 x93.211159 y119.686054
g1 x93.166261 y119.577594
g1 x93.104987 y119.477568
g1 x93.028863 y119.388455
g1 x92.939839 y119.312459
g1 x92.839353 y119.250937
g1 x92.73093 y119.205952
g1 x92.616973 y119.17862
g1 x92.500121 y119.169401
g1 x92.383095 y119.178626
g0 z30
(Block-name: path4)
(Block-expand: 0)
(Block-enable: 0)

(End cutting path id: path4)


(Start cutting path id: path4)
(Change tool to Default tool)

G00 Z30.000000
G00 X100.598741 Y88.435582

G01 Z-1.000000 F100.0(Penetrate)
G01 X100.369841 Y88.490482 Z-1.000000 F400.000000
G01 X100.152441 Y88.580682 Z-1.000000
G01 X99.951744 Y88.703692 Z-1.000000
G01 X99.772744 Y88.856382 Z-1.000000
G01 X99.619944 Y89.035402 Z-1.000000
G01 X99.496944 Y89.236192 Z-1.000000
G01 X99.406844 Y89.453602 Z-1.000000
G01 X99.351944 Y89.682492 Z-1.000000
G01 X99.333344 Y89.917202 Z-1.000000
G01 X99.351944 Y90.151702 Z-1.000000
G01 X99.406844 Y90.380592 Z-1.000000
G01 X99.496944 Y90.598002 Z-1.000000
G01 X99.619944 Y90.798902 Z-1.000000
G01 X99.772744 Y90.977782 Z-1.000000
G01 X99.951744 Y91.130682 Z-1.000000
G01 X100.152441 Y91.253692 Z-1.000000
G01 X100.369841 Y91.343692 Z-1.000000
G01 X100.598741 Y91.398692 Z-1.000000
G01 X100.833441 Y91.417192 Z-1.000000
G01 X101.068141 Y91.398692 Z-1.000000
G01 X101.296941 Y91.343692 Z-1.000000
G01 X101.514441 Y91.253692 Z-1.000000
G01 X101.715041 Y91.130682 Z-1.000000
G01 X101.894041 Y90.977782 Z-1.000000
G01 X102.046941 Y90.798902 Z-1.000000
G01 X102.169941 Y90.598002 Z-1.000000
G01 X102.259941 Y90.380592 Z-1.000000
G01 X102.314941 Y90.151702 Z-1.000000
G01 X102.333341 Y89.917202 Z-1.000000
G01 X102.314941 Y89.682492 Z-1.000000
G01 X102.259941 Y89.453602 Z-1.000000
G01 X102.169941 Y89.236192 Z-1.000000
G01 X102.046941 Y89.035402 Z-1.000000
G01 X101.894041 Y88.856382 Z-1.000000
G01 X101.715041 Y88.703692 Z-1.000000
G01 X101.514441 Y88.580682 Z-1.000000
G01 X101.296941 Y88.490482 Z-1.000000
G01 X101.068141 Y88.435582 Z-1.000000
G01 X100.833441 Y88.417082 Z-1.000000
G01 X100.598741 Y88.435582 Z-1.000000
G00 Z30.000000
(Block-name: path4 [in,cut])
(Block-expand: 0)
(Block-enable: 1)
g0 x100.71639 y89.178635
g1 z-1 f300
g1 x100.602459 y89.20596 f650
g1 x100.494205 y89.250875
g1 x100.393772 y89.312432
g1 x100.304654 y89.388451
g1 x100.228684 y89.477457
g1 x100.167253 y89.57774
g1 x100.122357 y89.686073
g1 x100.094959 y89.800299
g1 x100.085697 y89.917175
g1 x100.094953 y90.033869
g1 x100.122357 y90.148121
g1 x100.167288 y90.256539
g1 x100.228668 y90.356793
g1 x100.304709 y90.445813
g1 x100.39399 y90.522076
g1 x100.493952 y90.583344
g1 x100.602315 y90.628204
g1 x100.716546 y90.655651
g1 x100.833441 y90.664866
g1 x100.950299 y90.655654
g1 x101.064492 y90.628204
g1 x101.172907 y90.583343
g1 x101.272733 y90.522128
g1 x101.362169 y90.445734
g1 x101.438281 y90.356689
g1 x101.499519 y90.256666
g1 x101.544453 y90.148121
g1 x101.571869 y90.034025
g1 x101.581038 y89.917176
g1 x101.571863 y89.800144
g1 x101.544453 y89.686073
g1 x101.499555 y89.577613
g1 x101.438264 y89.477561
g1 x101.362224 y89.388531
g1 x101.272951 y89.312379
g1 x101.172654 y89.250876
g1 x101.064349 y89.20596
g1 x100.950454 y89.178632
g1 x100.833441 y89.169408
g1 x100.71639 y89.178635
g1 z-2 f300
g1 x100.602459 y89.20596 f650
g1 x100.494205 y89.250875
g1 x100.393772 y89.312432
g1 x100.304654 y89.388451
g1 x100.228684 y89.477457
g1 x100.167253 y89.57774
g1 x100.122357 y89.686073
g1 x100.094959 y89.800299
g1 x100.085697 y89.917175
g1 x100.094953 y90.033869
g1 x100.122357 y90.148121
g1 x100.167288 y90.256539
g1 x100.228668 y90.356793
g1 x100.304709 y90.445813
g1 x100.39399 y90.522076
g1 x100.493952 y90.583344
g1 x100.602315 y90.628204
g1 x100.716546 y90.655651
g1 x100.833441 y90.664866
g1 x100.950299 y90.655654
g1 x101.064492 y90.628204
g1 x101.172907 y90.583343
g1 x101.272733 y90.522128
g1 x101.362169 y90.445734
g1 x101.438281 y90.356689
g1 x101.499519 y90.256666
g1 x101.544453 y90.148121
g1 x101.571869 y90.034025
g1 x101.581038 y89.917176
g1 x101.571863 y89.800144
g1 x101.544453 y89.686073
g1 x101.499555 y89.577613
g1 x101.438264 y89.477561
g1 x101.362224 y89.388531
g1 x101.272951 y89.312379
g1 x101.172654 y89.250876
g1 x101.064349 y89.20596
g1 x100.950454 y89.178632
g1 x100.833441 y89.169408
g1 x100.71639 y89.178635
g0 z30
(Block-name: path4)
(Block-expand: 0)
(Block-enable: 0)

(End cutting path id: path4)


(Start cutting path id: path4)
(Change tool to Default tool)

G00 Z30.000000
G00 X92.265441 Y58.435582

G01 Z-1.000000 F100.0(Penetrate)
G01 X92.036541 Y58.490482 Z-1.000000 F400.000000
G01 X91.819141 Y58.580682 Z-1.000000
G01 X91.618341 Y58.703682 Z-1.000000
G01 X91.439341 Y58.856382 Z-1.000000
G01 X91.286641 Y59.035372 Z-1.000000
G01 X91.163641 Y59.236182 Z-1.000000
G01 X91.073441 Y59.453572 Z-1.000000
G01 X91.018541 Y59.682482 Z-1.000000
G01 X91.000041 Y59.917172 Z-1.000000
G01 X91.018541 Y60.151672 Z-1.000000
G01 X91.073441 Y60.380592 Z-1.000000
G01 X91.163641 Y60.597972 Z-1.000000
G01 X91.286641 Y60.798872 Z-1.000000
G01 X91.439341 Y60.977782 Z-1.000000
G01 X91.618341 Y61.130682 Z-1.000000
G01 X91.819141 Y61.253692 Z-1.000000
G01 X92.036541 Y61.343692 Z-1.000000
G01 X92.265441 Y61.398692 Z-1.000000
G01 X92.500141 Y61.417192 Z-1.000000
G01 X92.734641 Y61.398692 Z-1.000000
G01 X92.963541 Y61.343692 Z-1.000000
G01 X93.180941 Y61.253692 Z-1.000000
G01 X93.381841 Y61.130682 Z-1.000000
G01 X93.560741 Y60.977782 Z-1.000000
G01 X93.713641 Y60.798872 Z-1.000000
G01 X93.836641 Y60.597972 Z-1.000000
G01 X93.926641 Y60.380592 Z-1.000000
G01 X93.981641 Y60.151672 Z-1.000000
G01 X94.000041 Y59.917172 Z-1.000000
G01 X93.981641 Y59.682482 Z-1.000000
G01 X93.926641 Y59.453572 Z-1.000000
G01 X93.836641 Y59.236182 Z-1.000000
G01 X93.713641 Y59.035372 Z-1.000000
G01 X93.560741 Y58.856382 Z-1.000000
G01 X93.381841 Y58.703682 Z-1.000000
G01 X93.180941 Y58.580682 Z-1.000000
G01 X92.963541 Y58.490482 Z-1.000000
G01 X92.734641 Y58.435582 Z-1.000000
G01 X92.500141 Y58.417082 Z-1.000000
G01 X92.265441 Y58.435582 Z-1.000000
G00 Z30.000000
(Block-name: path4 [in,cut])
(Block-expand: 0)
(Block-enable: 1)
g0 x92.38309 y59.178635
g1 z-1 f300
g1 x92.269159 y59.20596 f650
g1 x92.160813 y59.250914
g1 x92.060303 y59.312481
g1 x91.971328 y59.388383
g1 x91.89544 y59.477337
g1 x91.833873 y59.577851
g1 x91.788919 y59.686192
g1 x91.761594 y59.800129
g1 x91.752369 y59.917148
g1 x91.761588 y60.034006
g1 x91.788919 y60.147969
g1 x91.833898 y60.256367
g1 x91.895445 y60.356894
g1 x91.971423 y60.445912
g1 x92.060521 y60.52202
g1 x92.160573 y60.583311
g1 x92.269015 y60.628204
g1 x92.383246 y60.655651
g1 x92.500116 y60.664864
g1 x92.616812 y60.655657
g1 x92.731067 y60.628204
g1 x92.839587 y60.583279
g1 x92.939635 y60.52202
g1 x93.028777 y60.445833
g1 x93.104964 y60.356686
g1 x93.166229 y60.25662
g1 x93.211153 y60.148113
g1 x93.238568 y60.034006
g1 x93.247738 y59.917148
g1 x93.238563 y59.800129
g1 x93.211153 y59.686048
g1 x93.166255 y59.577598
g1 x93.10497 y59.477545
g1 x93.028872 y59.388462
g1 x92.939854 y59.312481
g1 x92.839347 y59.250946
g1 x92.730923 y59.20596
g1 x92.616967 y59.178629
g1 x92.500116 y59.16941
g1 x92.38309 y59.178635
g1 z-2 f300
g1 x92.269159 y59.20596 f650
g1 x92.160813 y59.250914
g1 x92.060303 y59.312481
g1 x91.971328 y59.388383
g1 x91.89544 y59.477337
g1 x91.833873 y59.577851
g1 x91.788919 y59.686192
g1 x91.761594 y59.800129
g1 x91.752369 y59.917148
g1 x91.761588 y60.034006
g1 x91.788919 y60.147969
g1 x91.833898 y60.256367
g1 x91.895445 y60.356894
g1 x91.971423 y60.445912
g1 x92.060521 y60.52202
g1 x92.160573 y60.583311
g1 x92.269015 y60.628204
g1 x92.383246 y60.655651
g1 x92.500116 y60.664864
g1 x92.616812 y60.655657
g1 x92.731067 y60.628204
g1 x92.839587 y60.583279
g1 x92.939635 y60.52202
g1 x93.028777 y60.445833
g1 x93.104964 y60.356686
g1 x93.166229 y60.25662
g1 x93.211153 y60.148113
g1 x93.238568 y60.034006
g1 x93.247738 y59.917148
g1 x93.238563 y59.800129
g1 x93.211153 y59.686048
g1 x93.166255 y59.577598
g1 x93.10497 y59.477545
g1 x93.028872 y59.388462
g1 x92.939854 y59.312481
g1 x92.839347 y59.250946
g1 x92.730923 y59.20596
g1 x92.616967 y59.178629
g1 x92.500116 y59.16941
g1 x92.38309 y59.178635
g0 z30
(Block-name: path4)
(Block-expand: 0)
(Block-enable: 0)

(End cutting path id: path4)


(Start cutting path id: path4)
(Change tool to Default tool)

G00 Z30.000000
G00 X147.265143 Y106.435578

G01 Z-1.000000 F100.0(Penetrate)
G01 X147.036143 Y106.490478 Z-1.000000 F400.000000
G01 X146.819143 Y106.580578 Z-1.000000
G01 X146.618143 Y106.703478 Z-1.000000
G01 X146.439143 Y106.856378 Z-1.000000
G01 X146.286143 Y107.035398 Z-1.000000
G01 X146.163143 Y107.236078 Z-1.000000
G01 X146.073143 Y107.453678 Z-1.000000
G01 X146.018144 Y107.682378 Z-1.000000
G01 X146.000144 Y107.917088 Z-1.000000
G01 X146.018144 Y108.151778 Z-1.000000
G01 X146.073144 Y108.380588 Z-1.000000
G01 X146.163144 Y108.598078 Z-1.000000
G01 X146.286144 Y108.798688 Z-1.000000
G01 X146.439144 Y108.977678 Z-1.000000
G01 X146.618144 Y109.130578 Z-1.000000
G01 X146.819144 Y109.253578 Z-1.000000
G01 X147.036144 Y109.343778 Z-1.000000
G01 X147.265144 Y109.398678 Z-1.000000
G01 X147.500144 Y109.417178 Z-1.000000
G01 X147.735144 Y109.398678 Z-1.000000
G01 X147.963144 Y109.343778 Z-1.000000
G01 X148.181144 Y109.253578 Z-1.000000
G01 X148.382144 Y109.130578 Z-1.000000
G01 X148.561144 Y108.977678 Z-1.000000
G01 X148.713144 Y108.798688 Z-1.000000
G01 X148.836144 Y108.598078 Z-1.000000
G01 X148.927144 Y108.380588 Z-1.000000
G01 X148.981144 Y108.151778 Z-1.000000
G01 X149.000144 Y107.917088 Z-1.000000
G01 X148.981144 Y107.682378 Z-1.000000
G01 X148.927144 Y107.453678 Z-1.000000
G01 X148.836144 Y107.236078 Z-1.000000
G01 X148.713143 Y107.035398 Z-1.000000
G01 X148.561143 Y106.856378 Z-1.000000
G01 X148.382143 Y106.703478 Z-1.000000
G01 X148.181143 Y106.580578 Z-1.000000
G01 X147.963143 Y106.490478 Z-1.000000
G01 X147.735143 Y106.435578 Z-1.000000
G01 X147.500143 Y106.417078 Z-1.000000
G01 X147.265143 Y106.435578 Z-1.000000
G00 Z30.000000
(Block-name: path4 [in,cut])
(Block-expand: 0)
(Block-enable: 1)
g0 x147.382718 y107.178642
g1 z-1 f300
g1 x147.268821 y107.205948 f650
g1 x147.160617 y107.250875
g1 x147.060082 y107.312347
g1 x146.971034 y107.388411
g1 x146.894696 y107.477731
g1 x146.833555 y107.577485
g1 x146.788632 y107.6861
g1 x146.761366 y107.799478
g1 x146.752346 y107.917086
g1 x146.761368 y108.034715
g1 x146.788632 y108.148137
g1 x146.833498 y108.256559
g1 x146.894643 y108.356284
g1 x146.971011 y108.445625
g1 x147.060187 y108.521798
g1 x147.160871 y108.583411
g1 x147.268966 y108.628343
g1 x147.382719 y108.655614
g1 x147.500144 y108.664858
g1 x147.617195 y108.655643
g1 x147.730572 y108.628343
g1 x147.839941 y108.58309
g1 x147.940101 y108.521798
g1 x148.028348 y108.446418
g1 x148.104007 y108.357325
g1 x148.166563 y108.255298
g1 x148.211399 y108.148139
g1 x148.238167 y108.034717
g1 x148.24769 y107.917085
g1 x148.23817 y107.799477
g1 x148.211399 y107.686098
g1 x148.166505 y107.578747
g1 x148.103952 y107.47669
g1 x148.028324 y107.387618
g1 x147.940204 y107.312347
g1 x147.840192 y107.251195
g1 x147.730715 y107.205948
g1 x147.617194 y107.178613
g1 x147.500143 y107.169398
g1 x147.382718 y107.178642
g1 z-2 f300
g1 x147.268821 y107.205948 f650
g1 x147.160617 y107.250875
g1 x147.060082 y107.312347
g1 x146.971034 y107.388411
g1 x146.894696 y107.477731
g1 x146.833555 y107.577485
g1 x146.788632 y107.6861
g1 x146.761366 y107.799478
g1 x146.752346 y107.917086
g1 x146.761368 y108.034715
g1 x146.788632 y108.148137
g1 x146.833498 y108.256559
g1 x146.894643 y108.356284
g1 x146.971011 y108.445625
g1 x147.060187 y108.521798
g1 x147.160871 y108.583411
g1 x147.268966 y108.628343
g1 x147.382719 y108.655614
g1 x147.500144 y108.664858
g1 x147.617195 y108.655643
g1 x147.730572 y108.628343
g1 x147.839941 y108.58309
g1 x147.940101 y108.521798
g1 x148.028348 y108.446418
g1 x148.104007 y108.357325
g1 x148.166563 y108.255298
g1 x148.211399 y108.148139
g1 x148.238167 y108.034717
g1 x148.24769 y107.917085
g1 x148.23817 y107.799477
g1 x148.211399 y107.686098
g1 x148.166505 y107.578747
g1 x148.103952 y107.47669
g1 x148.028324 y107.387618
g1 x147.940204 y107.312347
g1 x147.840192 y107.251195
g1 x147.730715 y107.205948
g1 x147.617194 y107.178613
g1 x147.500143 y107.169398
g1 x147.382718 y107.178642
g0 z30
(Block-name: path4)
(Block-expand: 0)
(Block-enable: 0)

(End cutting path id: path4)


(Start cutting path id: path4)
(Change tool to Default tool)

G00 Z30.000000
G00 X137.343142 Y98.929478

G01 Z-1.000000 F100.0(Penetrate)
G01 X137.191142 Y98.966078 Z-1.000000 F400.000000
G01 X137.046142 Y99.026079 Z-1.000000
G01 X136.912142 Y99.108179 Z-1.000000
G01 X136.793142 Y99.209959 Z-1.000000
G01 X136.691142 Y99.329259 Z-1.000000
G01 X136.609143 Y99.463059 Z-1.000000
G01 X136.549143 Y99.608079 Z-1.000000
G01 X136.512143 Y99.760589 Z-1.000000
G01 X136.500143 Y99.917169 Z-1.000000
G01 X136.512143 Y100.073559 Z-1.000000
G01 X136.549143 Y100.226179 Z-1.000000
G01 X136.609143 Y100.371089 Z-1.000000
G01 X136.691143 Y100.504969 Z-1.000000
G01 X136.793143 Y100.624269 Z-1.000000
G01 X136.912143 Y100.726079 Z-1.000000
G01 X137.046143 Y100.808179 Z-1.000000
G01 X137.191143 Y100.868079 Z-1.000000
G01 X137.343143 Y100.904679 Z-1.000000
G01 X137.500143 Y100.917079 Z-1.000000
G01 X137.656143 Y100.904678 Z-1.000000
G01 X137.809143 Y100.868078 Z-1.000000
G01 X137.954143 Y100.808178 Z-1.000000
G01 X138.088143 Y100.726078 Z-1.000000
G01 X138.207143 Y100.624268 Z-1.000000
G01 X138.309143 Y100.504968 Z-1.000000
G01 X138.391143 Y100.371088 Z-1.000000
G01 X138.451143 Y100.226178 Z-1.000000
G01 X138.488143 Y100.073558 Z-1.000000
G01 X138.500143 Y99.917168 Z-1.000000
G01 X138.488143 Y99.760588 Z-1.000000
G01 X138.451143 Y99.608078 Z-1.000000
G01 X138.391143 Y99.463058 Z-1.000000
G01 X138.309143 Y99.329258 Z-1.000000
G01 X138.207143 Y99.209958 Z-1.000000
G01 X138.088143 Y99.108178 Z-1.000000
G01 X137.954142 Y99.026078 Z-1.000000
G01 X137.809142 Y98.966078 Z-1.000000
G01 X137.656142 Y98.929478 Z-1.000000
G01 X137.500142 Y98.917078 Z-1.000000
G01 X137.343142 Y98.929478 Z-1.000000
G00 Z30.000000
(Block-name: path4 [in,cut])
(Block-expand: 0)
(Block-enable: 1)
g0 x137.461185 y99.67249
g1 z-1 f300
g1 x137.423726 y99.68151 f650
g1 x137.387545 y99.696482
g1 x137.354546 y99.7167
g1 x137.325134 y99.741856
g1 x137.299669 y99.771639
g1 x137.27954 y99.804485
g1 x137.264332 y99.841242
g1 x137.255312 y99.878424
g1 x137.252345 y99.917134
g1 x137.255308 y99.955752
g1 x137.264332 y99.992976
g1 x137.279525 y100.029667
g1 x137.299734 y100.062663
g1 x137.32517 y100.092413
g1 x137.354594 y100.117587
g1 x137.387355 y100.137659
g1 x137.423509 y100.152594
g1 x137.461186 y100.161667
g1 x137.499951 y100.164728
g1 x137.538473 y100.161666
g1 x137.577296 y100.152379
g1 x137.612931 y100.137658
g1 x137.645692 y100.117586
g1 x137.675116 y100.092412
g1 x137.700552 y100.062662
g1 x137.720761 y100.029666
g1 x137.735954 y99.992975
g1 x137.744978 y99.955751
g1 x137.747941 y99.917133
g1 x137.744974 y99.878423
g1 x137.735954 y99.841241
g1 x137.720747 y99.804486
g1 x137.700617 y99.77164
g1 x137.675151 y99.741855
g1 x137.64574 y99.7167
g1 x137.612742 y99.696482
g1 x137.577079 y99.681725
g1 x137.538474 y99.67249
g1 x137.499953 y99.669429
g1 x137.461185 y99.67249
g1 z-2 f300
g1 x137.423726 y99.68151 f650
g1 x137.387545 y99.696482
g1 x137.354546 y99.7167
g1 x137.325134 y99.741856
g1 x137.299669 y99.771639
g1 x137.27954 y99.804485
g1 x137.264332 y99.841242
g1 x137.255312 y99.878424
g1 x137.252345 y99.917134
g1 x137.255308 y99.955752
g1 x137.264332 y99.992976
g1 x137.279525 y100.029667
g1 x137.299734 y100.062663
g1 x137.32517 y100.092413
g1 x137.354594 y100.117587
g1 x137.387355 y100.137659
g1 x137.423509 y100.152594
g1 x137.461186 y100.161667
g1 x137.499951 y100.164728
g1 x137.538473 y100.161666
g1 x137.577296 y100.152379
g1 x137.612931 y100.137658
g1 x137.645692 y100.117586
g1 x137.675116 y100.092412
g1 x137.700552 y100.062662
g1 x137.720761 y100.029666
g1 x137.735954 y99.992975
g1 x137.744978 y99.955751
g1 x137.747941 y99.917133
g1 x137.744974 y99.878423
g1 x137.735954 y99.841241
g1 x137.720747 y99.804486
g1 x137.700617 y99.77164
g1 x137.675151 y99.741855
g1 x137.64574 y99.7167
g1 x137.612742 y99.696482
g1 x137.577079 y99.681725
g1 x137.538474 y99.67249
g1 x137.499953 y99.669429
g1 x137.461185 y99.67249
g0 z30
(Block-name: path4)
(Block-expand: 0)
(Block-enable: 0)

(End cutting path id: path4)


(Start cutting path id: path4)
(Change tool to Default tool)

G00 Z30.000000
G00 X141.344143 Y98.929478

G01 Z-1.000000 F100.0(Penetrate)
G01 X141.191143 Y98.966078 Z-1.000000 F400.000000
G01 X141.046143 Y99.026078 Z-1.000000
G01 X140.912143 Y99.108178 Z-1.000000
G01 X140.793143 Y99.209958 Z-1.000000
G01 X140.691143 Y99.329258 Z-1.000000
G01 X140.609143 Y99.463058 Z-1.000000
G01 X140.549143 Y99.608078 Z-1.000000
G01 X140.512143 Y99.760588 Z-1.000000
G01 X140.500143 Y99.917168 Z-1.000000
G01 X140.512143 Y100.073558 Z-1.000000
G01 X140.549143 Y100.226178 Z-1.000000
G01 X140.609143 Y100.371088 Z-1.000000
G01 X140.691143 Y100.504968 Z-1.000000
G01 X140.793143 Y100.624268 Z-1.000000
G01 X140.912143 Y100.726078 Z-1.000000
G01 X141.046143 Y100.808178 Z-1.000000
G01 X141.191143 Y100.868078 Z-1.000000
G01 X141.344143 Y100.904678 Z-1.000000
G01 X141.500143 Y100.917078 Z-1.000000
G01 X141.656143 Y100.904678 Z-1.000000
G01 X141.809143 Y100.868078 Z-1.000000
G01 X141.954143 Y100.808178 Z-1.000000
G01 X142.088143 Y100.726078 Z-1.000000
G01 X142.207143 Y100.624268 Z-1.000000
G01 X142.309143 Y100.504968 Z-1.000000
G01 X142.391143 Y100.371088 Z-1.000000
G01 X142.451143 Y100.226178 Z-1.000000
G01 X142.488143 Y100.073558 Z-1.000000
G01 X142.500143 Y99.917168 Z-1.000000
G01 X142.488143 Y99.760588 Z-1.000000
G01 X142.451143 Y99.608078 Z-1.000000
G01 X142.391143 Y99.463058 Z-1.000000
G01 X142.309143 Y99.329258 Z-1.000000
G01 X142.207143 Y99.209958 Z-1.000000
G01 X142.088143 Y99.108178 Z-1.000000
G01 X141.954143 Y99.026078 Z-1.000000
G01 X141.809143 Y98.966078 Z-1.000000
G01 X141.656143 Y98.929478 Z-1.000000
G01 X141.500143 Y98.917078 Z-1.000000
G01 X141.344143 Y98.929478 Z-1.000000
G00 Z30.000000
(Block-name: path4 [in,cut])
(Block-expand: 0)
(Block-enable: 1)
g0 x141.461811 y99.67249
g1 z-1 f300
g1 x141.423206 y99.681725 f650
g1 x141.387544 y99.696482
g1 x141.354547 y99.716699
g1 x141.325135 y99.741855
g1 x141.299669 y99.77164
g1 x141.279539 y99.804486
g1 x141.264332 y99.841241
g1 x141.255312 y99.878423
g1 x141.252345 y99.917133
g1 x141.255308 y99.955751
g1 x141.264332 y99.992975
g1 x141.279525 y100.029666
g1 x141.299734 y100.062662
g1 x141.32517 y100.092412
g1 x141.354594 y100.117586
g1 x141.387355 y100.137658
g1 x141.42299 y100.152379
g1 x141.461811 y100.161666
g1 x141.500143 y100.164712
g1 x141.538475 y100.161666
g1 x141.577296 y100.152379
g1 x141.612931 y100.137658
g1 x141.645692 y100.117586
g1 x141.675116 y100.092412
g1 x141.700552 y100.062662
g1 x141.720761 y100.029666
g1 x141.735954 y99.992975
g1 x141.744978 y99.955751
g1 x141.747941 y99.917133
g1 x141.744974 y99.878423
g1 x141.735954 y99.841241
g1 x141.720747 y99.804486
g1 x141.700617 y99.77164
g1 x141.675151 y99.741855
g1 x141.645739 y99.716699
g1 x141.612742 y99.696482
g1 x141.57708 y99.681725
g1 x141.538475 y99.67249
g1 x141.500143 y99.669444
g1 x141.461811 y99.67249
g1 z-2 f300
g1 x141.423206 y99.681725 f650
g1 x141.387544 y99.696482
g1 x141.354547 y99.716699
g1 x141.325135 y99.741855
g1 x141.299669 y99.77164
g1 x141.279539 y99.804486
g1 x141.264332 y99.841241
g1 x141.255312 y99.878423
g1 x141.252345 y99.917133
g1 x141.255308 y99.955751
g1 x141.264332 y99.992975
g1 x141.279525 y100.029666
g1 x141.299734 y100.062662
g1 x141.32517 y100.092412
g1 x141.354594 y100.117586
g1 x141.387355 y100.137658
g1 x141.42299 y100.152379
g1 x141.461811 y100.161666
g1 x141.500143 y100.164712
g1 x141.538475 y100.161666
g1 x141.577296 y100.152379
g1 x141.612931 y100.137658
g1 x141.645692 y100.117586
g1 x141.675116 y100.092412
g1 x141.700552 y100.062662
g1 x141.720761 y100.029666
g1 x141.735954 y99.992975
g1 x141.744978 y99.955751
g1 x141.747941 y99.917133
g1 x141.744974 y99.878423
g1 x141.735954 y99.841241
g1 x141.720747 y99.804486
g1 x141.700617 y99.77164
g1 x141.675151 y99.741855
g1 x141.645739 y99.716699
g1 x141.612742 y99.696482
g1 x141.57708 y99.681725
g1 x141.538475 y99.67249
g1 x141.500143 y99.669444
g1 x141.461811 y99.67249
g0 z30
(Block-name: path4)
(Block-expand: 0)
(Block-enable: 0)

(End cutting path id: path4)


(Start cutting path id: path4)
(Change tool to Default tool)

G00 Z30.000000
G00 X147.265142 Y90.435477

G01 Z-1.000000 F100.0(Penetrate)
G01 X147.036142 Y90.490477 Z-1.000000 F400.000000
G01 X146.819142 Y90.580677 Z-1.000000
G01 X146.618142 Y90.703577 Z-1.000000
G01 X146.439142 Y90.856487 Z-1.000000
G01 X146.286142 Y91.035477 Z-1.000000
G01 X146.163142 Y91.236187 Z-1.000000
G01 X146.073142 Y91.453567 Z-1.000000
G01 X146.018142 Y91.682487 Z-1.000000
G01 X146.000142 Y91.917167 Z-1.000000
G01 X146.018142 Y92.151777 Z-1.000000
G01 X146.073142 Y92.380667 Z-1.000000
G01 X146.163142 Y92.598187 Z-1.000000
G01 X146.286142 Y92.798767 Z-1.000000
G01 X146.439142 Y92.977777 Z-1.000000
G01 X146.618142 Y93.130687 Z-1.000000
G01 X146.819142 Y93.253657 Z-1.000000
G01 X147.036142 Y93.343657 Z-1.000000
G01 X147.265142 Y93.398557 Z-1.000000
G01 X147.500142 Y93.417057 Z-1.000000
G01 X147.735142 Y93.398557 Z-1.000000
G01 X147.963142 Y93.343657 Z-1.000000
G01 X148.181142 Y93.253657 Z-1.000000
G01 X148.382142 Y93.130687 Z-1.000000
G01 X148.561142 Y92.977777 Z-1.000000
G01 X148.713142 Y92.798767 Z-1.000000
G01 X148.836142 Y92.598187 Z-1.000000
G01 X148.927142 Y92.380667 Z-1.000000
G01 X148.981142 Y92.151777 Z-1.000000
G01 X149.000142 Y91.917167 Z-1.000000
G01 X148.981142 Y91.682487 Z-1.000000
G01 X148.927142 Y91.453567 Z-1.000000
G01 X148.836142 Y91.236187 Z-1.000000
G01 X148.713142 Y91.035477 Z-1.000000
G01 X148.561142 Y90.856487 Z-1.000000
G01 X148.382142 Y90.703577 Z-1.000000
G01 X148.181142 Y90.580677 Z-1.000000
G01 X147.963142 Y90.490477 Z-1.000000
G01 X147.735142 Y90.435477 Z-1.000000
G01 X147.500142 Y90.416977 Z-1.000000
G01 X147.265142 Y90.435477 Z-1.000000
G00 Z30.000000
(Block-name: path4 [in,cut])
(Block-expand: 0)
(Block-enable: 1)
g0 x147.382873 y91.178529
g1 z-1 f300
g1 x147.269108 y91.205853 f650
g1 x147.160743 y91.250897
g1 x147.060091 y91.312439
g1 x146.971017 y91.388531
g1 x146.894695 y91.477817
g1 x146.833493 y91.577686
g1 x146.78863 y91.686046
g1 x146.761369 y91.79951
g1 x146.752346 y91.917158
g1 x146.761366 y92.034735
g1 x146.788646 y92.148262
g1 x146.833496 y92.256661
g1 x146.894635 y92.356362
g1 x146.971033 y92.445747
g1 x147.060164 y92.521887
g1 x147.160578 y92.583319
g1 x147.268676 y92.628152
g1 x147.382717 y92.655493
g1 x147.500142 y92.664737
g1 x147.617193 y92.655522
g1 x147.730857 y92.628153
g1 x147.840229 y92.582999
g1 x147.94012 y92.521887
g1 x148.028323 y92.44654
g1 x148.10401 y92.357403
g1 x148.166561 y92.2554
g1 x148.211381 y92.148263
g1 x148.238165 y92.034735
g1 x148.247687 y91.917158
g1 x148.238162 y91.799509
g1 x148.211397 y91.686045
g1 x148.166564 y91.578947
g1 x148.103951 y91.476776
g1 x148.028339 y91.387738
g1 x147.940193 y91.312439
g1 x147.840065 y91.251217
g1 x147.730425 y91.205852
g1 x147.617037 y91.1785
g1 x147.500142 y91.169297
g1 x147.382873 y91.178529
g1 z-2 f300
g1 x147.269108 y91.205853 f650
g1 x147.160743 y91.250897
g1 x147.060091 y91.312439
g1 x146.971017 y91.388531
g1 x146.894695 y91.477817
g1 x146.833493 y91.577686
g1 x146.78863 y91.686046
g1 x146.761369 y91.79951
g1 x146.752346 y91.917158
g1 x146.761366 y92.034735
g1 x146.788646 y92.148262
g1 x146.833496 y92.256661
g1 x146.894635 y92.356362
g1 x146.971033 y92.445747
g1 x147.060164 y92.521887
g1 x147.160578 y92.583319
g1 x147.268676 y92.628152
g1 x147.382717 y92.655493
g1 x147.500142 y92.664737
g1 x147.617193 y92.655522
g1 x147.730857 y92.628153
g1 x147.840229 y92.582999
g1 x147.94012 y92.521887
g1 x148.028323 y92.44654
g1 x148.10401 y92.357403
g1 x148.166561 y92.2554
g1 x148.211381 y92.148263
g1 x148.238165 y92.034735
g1 x148.247687 y91.917158
g1 x148.238162 y91.799509
g1 x148.211397 y91.686045
g1 x148.166564 y91.578947
g1 x148.103951 y91.476776
g1 x148.028339 y91.387738
g1 x147.940193 y91.312439
g1 x147.840065 y91.251217
g1 x147.730425 y91.205852
g1 x147.617037 y91.1785
g1 x147.500142 y91.169297
g1 x147.382873 y91.178529
g0 z30
(Block-name: path4)
(Block-expand: 0)
(Block-enable: 0)

(End cutting path id: path4)


(Start cutting path id: path4)
(Change tool to Default tool)

G00 Z30.000000
G00 X82.265442 Y78.435573

G01 Z-1.000000 F100.0(Penetrate)
G01 X82.036542 Y78.490474 Z-1.000000 F400.000000
G01 X81.819142 Y78.580674 Z-1.000000
G01 X81.618342 Y78.703674 Z-1.000000
G01 X81.439342 Y78.856394 Z-1.000000
G01 X81.286642 Y79.035384 Z-1.000000
G01 X81.163642 Y79.236174 Z-1.000000
G01 X81.073442 Y79.453584 Z-1.000000
G01 X81.018542 Y79.682474 Z-1.000000
G01 X81.000042 Y79.917184 Z-1.000000
G01 X81.018542 Y80.151684 Z-1.000000
G01 X81.073443 Y80.380574 Z-1.000000
G01 X81.163643 Y80.597984 Z-1.000000
G01 X81.286643 Y80.798884 Z-1.000000
G01 X81.439343 Y80.977764 Z-1.000000
G01 X81.618343 Y81.130594 Z-1.000000
G01 X81.819143 Y81.253574 Z-1.000000
G01 X82.036543 Y81.343674 Z-1.000000
G01 X82.265443 Y81.398674 Z-1.000000
G01 X82.500143 Y81.417174 Z-1.000000
G01 X82.734643 Y81.398673 Z-1.000000
G01 X82.963543 Y81.343673 Z-1.000000
G01 X83.180943 Y81.253573 Z-1.000000
G01 X83.381843 Y81.130593 Z-1.000000
G01 X83.560743 Y80.977763 Z-1.000000
G01 X83.713543 Y80.798883 Z-1.000000
G01 X83.836543 Y80.597983 Z-1.000000
G01 X83.926643 Y80.380573 Z-1.000000
G01 X83.981643 Y80.151683 Z-1.000000
G01 X84.000043 Y79.917183 Z-1.000000
G01 X83.981643 Y79.682473 Z-1.000000
G01 X83.926642 Y79.453583 Z-1.000000
G01 X83.836542 Y79.236173 Z-1.000000
G01 X83.713542 Y79.035383 Z-1.000000
G01 X83.560742 Y78.856393 Z-1.000000
G01 X83.381842 Y78.703673 Z-1.000000
G01 X83.180942 Y78.580673 Z-1.000000
G01 X82.963542 Y78.490473 Z-1.000000
G01 X82.734642 Y78.435573 Z-1.000000
G01 X82.500142 Y78.417073 Z-1.000000
G01 X82.265442 Y78.435573 Z-1.000000
G00 Z30.000000
(Block-name: path4 [in,cut])
(Block-expand: 0)
(Block-enable: 1)
g0 x82.383093 y79.178626
g1 z-1 f300
g1 x82.269161 y79.205952 f650
g1 x82.160814 y79.250906
g1 x82.060325 y79.31246
g1 x81.971344 y79.388377
g1 x81.89543 y79.477361
g1 x81.833874 y79.577848
g1 x81.78892 y79.686199
g1 x81.761595 y79.800126
g1 x81.75237 y79.917158
g1 x81.761588 y80.034005
g1 x81.788921 y80.147957
g1 x81.83391 y80.256395
g1 x81.895431 y80.356879
g1 x81.971345 y80.445809
g1 x82.06042 y80.52186
g1 x82.160663 y80.583255
g1 x82.269161 y80.628221
g1 x82.383248 y80.655633
g1 x82.500116 y80.664846
g1 x82.616812 y80.655639
g1 x82.730925 y80.62822
g1 x82.8395 y80.583222
g1 x82.939741 y80.521859
g1 x83.028766 y80.445808
g1 x83.104819 y80.356774
g1 x83.166199 y80.25652
g1 x83.21119 y80.147958
g1 x83.238571 y80.034006
g1 x83.24774 y79.917157
g1 x83.238565 y79.800126
g1 x83.211189 y79.6862
g1 x83.166233 y79.577721
g1 x83.104818 y79.477464
g1 x83.028765 y79.388376
g1 x82.939834 y79.312459
g1 x82.839348 y79.250937
g1 x82.730924 y79.205951
g1 x82.616968 y79.17862
g1 x82.500117 y79.169401
g1 x82.383093 y79.178626
g1 z-2 f300
g1 x82.269161 y79.205952 f650
g1 x82.160814 y79.250906
g1 x82.060325 y79.31246
g1 x81.971344 y79.388377
g1 x81.89543 y79.477361
g1 x81.833874 y79.577848
g1 x81.78892 y79.686199
g1 x81.761595 y79.800126
g1 x81.75237 y79.917158
g1 x81.761588 y80.034005
g1 x81.788921 y80.147957
g1 x81.83391 y80.256395
g1 x81.895431 y80.356879
g1 x81.971345 y80.445809
g1 x82.06042 y80.52186
g1 x82.160663 y80.583255
g1 x82.269161 y80.628221
g1 x82.383248 y80.655633
g1 x82.500116 y80.664846
g1 x82.616812 y80.655639
g1 x82.730925 y80.62822
g1 x82.8395 y80.583222
g1 x82.939741 y80.521859
g1 x83.028766 y80.445808
g1 x83.104819 y80.356774
g1 x83.166199 y80.25652
g1 x83.21119 y80.147958
g1 x83.238571 y80.034006
g1 x83.24774 y79.917157
g1 x83.238565 y79.800126
g1 x83.211189 y79.6862
g1 x83.166233 y79.577721
g1 x83.104818 y79.477464
g1 x83.028765 y79.388376
g1 x82.939834 y79.312459
g1 x82.839348 y79.250937
g1 x82.730924 y79.205951
g1 x82.616968 y79.17862
g1 x82.500117 y79.169401
g1 x82.383093 y79.178626
g0 z30
(Block-name: path4)
(Block-expand: 0)
(Block-enable: 0)

(End cutting path id: path4)


(Start cutting path id: path4)
(Change tool to Default tool)

G00 Z30.000000
G00 X73.932039 Y48.435534

G01 Z-1.000000 F100.0(Penetrate)
G01 X73.703139 Y48.490434 Z-1.000000 F400.000000
G01 X73.485739 Y48.580634 Z-1.000000
G01 X73.285039 Y48.703654 Z-1.000000
G01 X73.106039 Y48.856344 Z-1.000000
G01 X72.953139 Y49.035364 Z-1.000000
G01 X72.830139 Y49.236154 Z-1.000000
G01 X72.740139 Y49.453564 Z-1.000000
G01 X72.685239 Y49.682454 Z-1.000000
G01 X72.666739 Y49.917134 Z-1.000000
G01 X72.685239 Y50.151634 Z-1.000000
G01 X72.740139 Y50.380554 Z-1.000000
G01 X72.830139 Y50.597964 Z-1.000000
G01 X72.953139 Y50.798874 Z-1.000000
G01 X73.106039 Y50.977754 Z-1.000000
G01 X73.285039 Y51.130554 Z-1.000000
G01 X73.485740 Y51.253554 Z-1.000000
G01 X73.703140 Y51.343654 Z-1.000000
G01 X73.932040 Y51.398654 Z-1.000000
G01 X74.166740 Y51.417154 Z-1.000000
G01 X74.401340 Y51.398654 Z-1.000000
G01 X74.630240 Y51.343654 Z-1.000000
G01 X74.847740 Y51.253554 Z-1.000000
G01 X75.048340 Y51.130554 Z-1.000000
G01 X75.227340 Y50.977754 Z-1.000000
G01 X75.380239 Y50.798874 Z-1.000000
G01 X75.503239 Y50.597964 Z-1.000000
G01 X75.593239 Y50.380554 Z-1.000000
G01 X75.648339 Y50.151634 Z-1.000000
G01 X75.666839 Y49.917134 Z-1.000000
G01 X75.648339 Y49.682454 Z-1.000000
G01 X75.593239 Y49.453564 Z-1.000000
G01 X75.503239 Y49.236154 Z-1.000000
G01 X75.380239 Y49.035364 Z-1.000000
G01 X75.227339 Y48.856344 Z-1.000000
G01 X75.048339 Y48.703654 Z-1.000000
G01 X74.847739 Y48.580634 Z-1.000000
G01 X74.630239 Y48.490434 Z-1.000000
G01 X74.401339 Y48.435534 Z-1.000000
G01 X74.166739 Y48.417034 Z-1.000000
G01 X73.932039 Y48.435534 Z-1.000000
G00 Z30.000000
(Block-name: path4 [in,cut])
(Block-expand: 0)
(Block-enable: 1)
g0 x74.049688 y49.178587
g1 z-1 f300
g1 x73.935757 y49.205912 f650
g1 x73.827513 y49.250823
g1 x73.727075 y49.312387
g1 x73.637856 y49.388493
g1 x73.561816 y49.477523
g1 x73.500525 y49.577575
g1 x73.455687 y49.685891
g1 x73.428291 y49.800109
g1 x73.419068 y49.917111
g1 x73.428286 y50.033968
g1 x73.455691 y50.148237
g1 x73.500564 y50.256635
g1 x73.561805 y50.356667
g1 x73.637832 y50.445613
g1 x73.727168 y50.521873
g1 x73.827362 y50.583277
g1 x73.935758 y50.628201
g1 x74.049845 y50.655613
g1 x74.166727 y50.664827
g1 x74.283523 y50.655616
g1 x74.397682 y50.628186
g1 x74.506092 y50.583277
g1 x74.606146 y50.521928
g1 x74.695546 y50.445614
g1 x74.771573 y50.356668
g1 x74.832814 y50.256635
g1 x74.877806 y50.147949
g1 x74.905316 y50.033657
g1 x74.91451 y49.917111
g1 x74.905312 y49.80042
g1 x74.877811 y49.686179
g1 x74.832853 y49.577575
g1 x74.771562 y49.477523
g1 x74.695522 y49.388493
g1 x74.606239 y49.312333
g1 x74.50594 y49.250823
g1 x74.397681 y49.205927
g1 x74.283677 y49.178584
g1 x74.166726 y49.169361
g1 x74.049688 y49.178587
g1 z-2 f300
g1 x73.935757 y49.205912 f650
g1 x73.827513 y49.250823
g1 x73.727075 y49.312387
g1 x73.637856 y49.388493
g1 x73.561816 y49.477523
g1 x73.500525 y49.577575
g1 x73.455687 y49.685891
g1 x73.428291 y49.800109
g1 x73.419068 y49.917111
g1 x73.428286 y50.033968
g1 x73.455691 y50.148237
g1 x73.500564 y50.256635
g1 x73.561805 y50.356667
g1 x73.637832 y50.445613
g1 x73.727168 y50.521873
g1 x73.827362 y50.583277
g1 x73.935758 y50.628201
g1 x74.049845 y50.655613
g1 x74.166727 y50.664827
g1 x74.283523 y50.655616
g1 x74.397682 y50.628186
g1 x74.506092 y50.583277
g1 x74.606146 y50.521928
g1 x74.695546 y50.445614
g1 x74.771573 y50.356668
g1 x74.832814 y50.256635
g1 x74.877806 y50.147949
g1 x74.905316 y50.033657
g1 x74.91451 y49.917111
g1 x74.905312 y49.80042
g1 x74.877811 y49.686179
g1 x74.832853 y49.577575
g1 x74.771562 y49.477523
g1 x74.695522 y49.388493
g1 x74.606239 y49.312333
g1 x74.50594 y49.250823
g1 x74.397681 y49.205927
g1 x74.283677 y49.178584
g1 x74.166726 y49.169361
g1 x74.049688 y49.178587
g0 z30
(Block-name: path4)
(Block-expand: 0)
(Block-enable: 0)

(End cutting path id: path4)


(Start cutting path id: path4)
(Change tool to Default tool)

G00 Z30.000000
G00 X57.265436 Y18.435635

G01 Z-1.000000 F100.0(Penetrate)
G01 X57.036536 Y18.490535 Z-1.000000 F400.000000
G01 X56.819136 Y18.580735 Z-1.000000
G01 X56.618336 Y18.703715 Z-1.000000
G01 X56.439336 Y18.856455 Z-1.000000
G01 X56.286636 Y19.035455 Z-1.000000
G01 X56.163636 Y19.236245 Z-1.000000
G01 X56.073436 Y19.453705 Z-1.000000
G01 X56.018536 Y19.682565 Z-1.000000
G01 X56.000036 Y19.917095 Z-1.000000
G01 X56.018536 Y20.151625 Z-1.000000
G01 X56.073436 Y20.380515 Z-1.000000
G01 X56.163636 Y20.597945 Z-1.000000
G01 X56.286636 Y20.798765 Z-1.000000
G01 X56.439336 Y20.977735 Z-1.000000
G01 X56.618336 Y21.130475 Z-1.000000
G01 X56.819136 Y21.253455 Z-1.000000
G01 X57.036536 Y21.343655 Z-1.000000
G01 X57.265436 Y21.398555 Z-1.000000
G01 X57.500136 Y21.417055 Z-1.000000
G01 X57.734636 Y21.398555 Z-1.000000
G01 X57.963536 Y21.343655 Z-1.000000
G01 X58.180936 Y21.253455 Z-1.000000
G01 X58.381836 Y21.130475 Z-1.000000
G01 X58.560736 Y20.977735 Z-1.000000
G01 X58.713536 Y20.798765 Z-1.000000
G01 X58.836536 Y20.597945 Z-1.000000
G01 X58.926636 Y20.380515 Z-1.000000
G01 X58.981636 Y20.151625 Z-1.000000
G01 X59.000036 Y19.917095 Z-1.000000
G01 X58.981636 Y19.682565 Z-1.000000
G01 X58.926636 Y19.453705 Z-1.000000
G01 X58.836536 Y19.236245 Z-1.000000
G01 X58.713536 Y19.035455 Z-1.000000
G01 X58.560736 Y18.856455 Z-1.000000
G01 X58.381836 Y18.703715 Z-1.000000
G01 X58.180936 Y18.580735 Z-1.000000
G01 X57.963536 Y18.490535 Z-1.000000
G01 X57.734636 Y18.435635 Z-1.000000
G01 X57.500136 Y18.417135 Z-1.000000
G01 X57.265436 Y18.435635 Z-1.000000
G00 Z30.000000
(Block-name: path4 [in,cut])
(Block-expand: 0)
(Block-enable: 1)
g0 x57.383085 y19.178688
g1 z-1 f300
g1 x57.269154 y19.206013 f650
g1 x57.160782 y19.250977
g1 x57.060319 y19.312506
g1 x56.971362 y19.388412
g1 x56.895429 y19.477423
g1 x56.833884 y19.577893
g1 x56.788917 y19.686301
g1 x56.761583 y19.80025
g1 x56.752366 y19.917095
g1 x56.761583 y20.033951
g1 x56.788917 y20.147912
g1 x56.833884 y20.256305
g1 x56.895429 y20.356789
g1 x56.971338 y20.445757
g1 x57.060319 y20.521684
g1 x57.160782 y20.583213
g1 x57.269154 y20.628177
g1 x57.383085 y20.655502
g1 x57.500111 y20.664727
g1 x57.616962 y20.655508
g1 x57.730918 y20.628177
g1 x57.839367 y20.583181
g1 x57.939828 y20.521684
g1 x58.028759 y20.445757
g1 x58.104807 y20.356685
g1 x58.166211 y20.256431
g1 x58.21118 y20.147912
g1 x58.238563 y20.033951
g1 x58.247731 y19.917095
g1 x58.238564 y19.80025
g1 x58.21118 y19.686301
g1 x58.166211 y19.577767
g1 x58.104807 y19.477527
g1 x58.028735 y19.388412
g1 x57.939828 y19.312506
g1 x57.839367 y19.251009
g1 x57.730918 y19.206013
g1 x57.616962 y19.178682
g1 x57.500111 y19.169463
g1 x57.383085 y19.178688
g1 z-2 f300
g1 x57.269154 y19.206013 f650
g1 x57.160782 y19.250977
g1 x57.060319 y19.312506
g1 x56.971362 y19.388412
g1 x56.895429 y19.477423
g1 x56.833884 y19.577893
g1 x56.788917 y19.686301
g1 x56.761583 y19.80025
g1 x56.752366 y19.917095
g1 x56.761583 y20.033951
g1 x56.788917 y20.147912
g1 x56.833884 y20.256305
g1 x56.895429 y20.356789
g1 x56.971338 y20.445757
g1 x57.060319 y20.521684
g1 x57.160782 y20.583213
g1 x57.269154 y20.628177
g1 x57.383085 y20.655502
g1 x57.500111 y20.664727
g1 x57.616962 y20.655508
g1 x57.730918 y20.628177
g1 x57.839367 y20.583181
g1 x57.939828 y20.521684
g1 x58.028759 y20.445757
g1 x58.104807 y20.356685
g1 x58.166211 y20.256431
g1 x58.21118 y20.147912
g1 x58.238563 y20.033951
g1 x58.247731 y19.917095
g1 x58.238564 y19.80025
g1 x58.21118 y19.686301
g1 x58.166211 y19.577767
g1 x58.104807 y19.477527
g1 x58.028735 y19.388412
g1 x57.939828 y19.312506
g1 x57.839367 y19.251009
g1 x57.730918 y19.206013
g1 x57.616962 y19.178682
g1 x57.500111 y19.169463
g1 x57.383085 y19.178688
g0 z30
(Block-name: path4)
(Block-expand: 0)
(Block-enable: 0)

(End cutting path id: path4)


(Start cutting path id: path4)
(Change tool to Default tool)

G00 Z30.000000
G00 X82.265436 Y18.435632

G01 Z-1.000000 F100.0(Penetrate)
G01 X82.036536 Y18.490532 Z-1.000000 F400.000000
G01 X81.819136 Y18.580732 Z-1.000000
G01 X81.618336 Y18.703712 Z-1.000000
G01 X81.439336 Y18.856452 Z-1.000000
G01 X81.286636 Y19.035452 Z-1.000000
G01 X81.163637 Y19.236242 Z-1.000000
G01 X81.073437 Y19.453702 Z-1.000000
G01 X81.018537 Y19.682562 Z-1.000000
G01 X81.000037 Y19.917092 Z-1.000000
G01 X81.018537 Y20.151622 Z-1.000000
G01 X81.073437 Y20.380512 Z-1.000000
G01 X81.163637 Y20.597942 Z-1.000000
G01 X81.286637 Y20.798762 Z-1.000000
G01 X81.439337 Y20.977732 Z-1.000000
G01 X81.618337 Y21.130472 Z-1.000000
G01 X81.819137 Y21.253452 Z-1.000000
G01 X82.036537 Y21.343652 Z-1.000000
G01 X82.265437 Y21.398552 Z-1.000000
G01 X82.500137 Y21.417052 Z-1.000000
G01 X82.734637 Y21.398552 Z-1.000000
G01 X82.963537 Y21.343652 Z-1.000000
G01 X83.180937 Y21.253452 Z-1.000000
G01 X83.381837 Y21.130472 Z-1.000000
G01 X83.560737 Y20.977732 Z-1.000000
G01 X83.713537 Y20.798762 Z-1.000000
G01 X83.836537 Y20.597942 Z-1.000000
G01 X83.926637 Y20.380512 Z-1.000000
G01 X83.981637 Y20.151622 Z-1.000000
G01 X84.000037 Y19.917092 Z-1.000000
G01 X83.981637 Y19.682562 Z-1.000000
G01 X83.926637 Y19.453702 Z-1.000000
G01 X83.836537 Y19.236242 Z-1.000000
G01 X83.713537 Y19.035452 Z-1.000000
G01 X83.560737 Y18.856452 Z-1.000000
G01 X83.381837 Y18.703712 Z-1.000000
G01 X83.180936 Y18.580732 Z-1.000000
G01 X82.963536 Y18.490532 Z-1.000000
G01 X82.734636 Y18.435632 Z-1.000000
G01 X82.500136 Y18.417132 Z-1.000000
G01 X82.265436 Y18.435632 Z-1.000000
G00 Z30.000000
(Block-name: path4 [in,cut])
(Block-expand: 0)
(Block-enable: 1)
g0 x82.383085 y19.178685
g1 z-1 f300
g1 x82.269154 y19.20601 f650
g1 x82.160782 y19.250974
g1 x82.060319 y19.312503
g1 x81.971362 y19.388409
g1 x81.89543 y19.477419
g1 x81.833885 y19.577889
g1 x81.788918 y19.686298
g1 x81.761584 y19.800247
g1 x81.752367 y19.917092
g1 x81.761584 y20.033948
g1 x81.788918 y20.147909
g1 x81.833885 y20.256302
g1 x81.89543 y20.356786
g1 x81.971339 y20.445754
g1 x82.06032 y20.521681
g1 x82.160783 y20.58321
g1 x82.269155 y20.628174
g1 x82.383086 y20.655499
g1 x82.500112 y20.664724
g1 x82.616963 y20.655505
g1 x82.730919 y20.628174
g1 x82.839368 y20.583178
g1 x82.939829 y20.521681
g1 x83.02876 y20.445754
g1 x83.104808 y20.356682
g1 x83.166212 y20.256428
g1 x83.211181 y20.147909
g1 x83.238564 y20.033948
g1 x83.247732 y19.917092
g1 x83.238565 y19.800247
g1 x83.211181 y19.686298
g1 x83.166212 y19.577764
g1 x83.104808 y19.477524
g1 x83.028736 y19.388409
g1 x82.93983 y19.312503
g1 x82.839368 y19.251006
g1 x82.730918 y19.20601
g1 x82.616962 y19.178679
g1 x82.500111 y19.16946
g1 x82.383085 y19.178685
g1 z-2 f300
g1 x82.269154 y19.20601 f650
g1 x82.160782 y19.250974
g1 x82.060319 y19.312503
g1 x81.971362 y19.388409
g1 x81.89543 y19.477419
g1 x81.833885 y19.577889
g1 x81.788918 y19.686298
g1 x81.761584 y19.800247
g1 x81.752367 y19.917092
g1 x81.761584 y20.033948
g1 x81.788918 y20.147909
g1 x81.833885 y20.256302
g1 x81.89543 y20.356786
g1 x81.971339 y20.445754
g1 x82.06032 y20.521681
g1 x82.160783 y20.58321
g1 x82.269155 y20.628174
g1 x82.383086 y20.655499
g1 x82.500112 y20.664724
g1 x82.616963 y20.655505
g1 x82.730919 y20.628174
g1 x82.839368 y20.583178
g1 x82.939829 y20.521681
g1 x83.02876 y20.445754
g1 x83.104808 y20.356682
g1 x83.166212 y20.256428
g1 x83.211181 y20.147909
g1 x83.238564 y20.033948
g1 x83.247732 y19.917092
g1 x83.238565 y19.800247
g1 x83.211181 y19.686298
g1 x83.166212 y19.577764
g1 x83.104808 y19.477524
g1 x83.028736 y19.388409
g1 x82.93983 y19.312503
g1 x82.839368 y19.251006
g1 x82.730918 y19.20601
g1 x82.616962 y19.178679
g1 x82.500111 y19.16946
g1 x82.383085 y19.178685
g0 z30
(Block-name: path4)
(Block-expand: 0)
(Block-enable: 0)

(End cutting path id: path4)


(Start cutting path id: path4)
(Change tool to Default tool)

G00 Z30.000000
G00 X42.265442 Y78.435577

G01 Z-1.000000 F100.0(Penetrate)
G01 X42.036532 Y78.490477 Z-1.000000 F400.000000
G01 X41.819132 Y78.580677 Z-1.000000
G01 X41.618342 Y78.703677 Z-1.000000
G01 X41.439342 Y78.856398 Z-1.000000
G01 X41.286642 Y79.035388 Z-1.000000
G01 X41.163632 Y79.236178 Z-1.000000
G01 X41.073432 Y79.453588 Z-1.000000
G01 X41.018532 Y79.682478 Z-1.000000
G01 X41.000032 Y79.917188 Z-1.000000
G01 X41.018532 Y80.151688 Z-1.000000
G01 X41.073432 Y80.380578 Z-1.000000
G01 X41.163632 Y80.597988 Z-1.000000
G01 X41.286642 Y80.798888 Z-1.000000
G01 X41.439342 Y80.977768 Z-1.000000
G01 X41.618342 Y81.130598 Z-1.000000
G01 X41.819132 Y81.253578 Z-1.000000
G01 X42.036532 Y81.343677 Z-1.000000
G01 X42.265442 Y81.398677 Z-1.000000
G01 X42.500142 Y81.417177 Z-1.000000
G01 X42.734642 Y81.398677 Z-1.000000
G01 X42.963542 Y81.343677 Z-1.000000
G01 X43.180942 Y81.253577 Z-1.000000
G01 X43.381842 Y81.130597 Z-1.000000
G01 X43.560742 Y80.977767 Z-1.000000
G01 X43.713542 Y80.798887 Z-1.000000
G01 X43.836542 Y80.597987 Z-1.000000
G01 X43.926642 Y80.380577 Z-1.000000
G01 X43.981642 Y80.151687 Z-1.000000
G01 X44.000042 Y79.917187 Z-1.000000
G01 X43.981642 Y79.682477 Z-1.000000
G01 X43.926642 Y79.453587 Z-1.000000
G01 X43.836542 Y79.236177 Z-1.000000
G01 X43.713542 Y79.035387 Z-1.000000
G01 X43.560742 Y78.856397 Z-1.000000
G01 X43.381842 Y78.703677 Z-1.000000
G01 X43.180942 Y78.580677 Z-1.000000
G01 X42.963542 Y78.490477 Z-1.000000
G01 X42.734642 Y78.435577 Z-1.000000
G01 X42.500142 Y78.417077 Z-1.000000
G01 X42.265442 Y78.435577 Z-1.000000
G00 Z30.000000
(Block-name: path4 [in,cut])
(Block-expand: 0)
(Block-enable: 1)
g0 x42.383088 y79.17863
g1 z-1 f300
g1 x42.269146 y79.205957 f650
g1 x42.160811 y79.250905
g1 x42.060332 y79.312457
g1 x41.971345 y79.38838
g1 x41.895421 y79.477376
g1 x41.833858 y79.577865
g1 x41.78891 y79.686203
g1 x41.761585 y79.80013
g1 x41.75236 y79.917162
g1 x41.761579 y80.03401
g1 x41.78891 y80.147963
g1 x41.833894 y80.256386
g1 x41.895421 y80.356873
g1 x41.971344 y80.445813
g1 x42.060425 y80.52187
g1 x42.160658 y80.583261
g1 x42.269145 y80.628222
g1 x42.383243 y80.655636
g1 x42.500117 y80.664849
g1 x42.616813 y80.655642
g1 x42.730924 y80.628224
g1 x42.839499 y80.583226
g1 x42.93974 y80.521863
g1 x43.028765 y80.445812
g1 x43.104818 y80.356778
g1 x43.166198 y80.256524
g1 x43.211189 y80.147962
g1 x43.23857 y80.03401
g1 x43.247739 y79.917161
g1 x43.238564 y79.800129
g1 x43.211189 y79.686202
g1 x43.166233 y79.577725
g1 x43.104818 y79.477468
g1 x43.028765 y79.38838
g1 x42.939834 y79.312463
g1 x42.839348 y79.250941
g1 x42.730924 y79.205955
g1 x42.616968 y79.178624
g1 x42.500117 y79.169405
g1 x42.383088 y79.17863
g1 z-2 f300
g1 x42.269146 y79.205957 f650
g1 x42.160811 y79.250905
g1 x42.060332 y79.312457
g1 x41.971345 y79.38838
g1 x41.895421 y79.477376
g1 x41.833858 y79.577865
g1 x41.78891 y79.686203
g1 x41.761585 y79.80013
g1 x41.75236 y79.917162
g1 x41.761579 y80.03401
g1 x41.78891 y80.147963
g1 x41.833894 y80.256386
g1 x41.895421 y80.356873
g1 x41.971344 y80.445813
g1 x42.060425 y80.52187
g1 x42.160658 y80.583261
g1 x42.269145 y80.628222
g1 x42.383243 y80.655636
g1 x42.500117 y80.664849
g1 x42.616813 y80.655642
g1 x42.730924 y80.628224
g1 x42.839499 y80.583226
g1 x42.93974 y80.521863
g1 x43.028765 y80.445812
g1 x43.104818 y80.356778
g1 x43.166198 y80.256524
g1 x43.211189 y80.147962
g1 x43.23857 y80.03401
g1 x43.247739 y79.917161
g1 x43.238564 y79.800129
g1 x43.211189 y79.686202
g1 x43.166233 y79.577725
g1 x43.104818 y79.477468
g1 x43.028765 y79.38838
g1 x42.939834 y79.312463
g1 x42.839348 y79.250941
g1 x42.730924 y79.205955
g1 x42.616968 y79.178624
g1 x42.500117 y79.169405
g1 x42.383088 y79.17863
g0 z30
(Block-name: path4)
(Block-expand: 0)
(Block-enable: 0)

(End cutting path id: path4)


(Start cutting path id: path4)
(Change tool to Default tool)

G00 Z30.000000
G00 X33.932038 Y48.435538

G01 Z-1.000000 F100.0(Penetrate)
G01 X33.703138 Y48.490438 Z-1.000000 F400.000000
G01 X33.485738 Y48.580638 Z-1.000000
G01 X33.285038 Y48.703658 Z-1.000000
G01 X33.106038 Y48.856348 Z-1.000000
G01 X32.953138 Y49.035368 Z-1.000000
G01 X32.830138 Y49.236158 Z-1.000000
G01 X32.740139 Y49.453568 Z-1.000000
G01 X32.685239 Y49.682458 Z-1.000000
G01 X32.666739 Y49.917138 Z-1.000000
G01 X32.685239 Y50.151638 Z-1.000000
G01 X32.740139 Y50.380558 Z-1.000000
G01 X32.830139 Y50.597968 Z-1.000000
G01 X32.953139 Y50.798878 Z-1.000000
G01 X33.106039 Y50.977758 Z-1.000000
G01 X33.285039 Y51.130558 Z-1.000000
G01 X33.485739 Y51.253558 Z-1.000000
G01 X33.703139 Y51.343658 Z-1.000000
G01 X33.932039 Y51.398658 Z-1.000000
G01 X34.166739 Y51.417158 Z-1.000000
G01 X34.401339 Y51.398658 Z-1.000000
G01 X34.630239 Y51.343658 Z-1.000000
G01 X34.847739 Y51.253558 Z-1.000000
G01 X35.048339 Y51.130558 Z-1.000000
G01 X35.227339 Y50.977758 Z-1.000000
G01 X35.380239 Y50.798878 Z-1.000000
G01 X35.503239 Y50.597968 Z-1.000000
G01 X35.593239 Y50.380558 Z-1.000000
G01 X35.648339 Y50.151637 Z-1.000000
G01 X35.666839 Y49.917137 Z-1.000000
G01 X35.648339 Y49.682457 Z-1.000000
G01 X35.593239 Y49.453567 Z-1.000000
G01 X35.503239 Y49.236157 Z-1.000000
G01 X35.380239 Y49.035368 Z-1.000000
G01 X35.227339 Y48.856348 Z-1.000000
G01 X35.048338 Y48.703658 Z-1.000000
G01 X34.847738 Y48.580638 Z-1.000000
G01 X34.630238 Y48.490438 Z-1.000000
G01 X34.401338 Y48.435538 Z-1.000000
G01 X34.166738 Y48.417038 Z-1.000000
G01 X33.932038 Y48.435538 Z-1.000000
G00 Z30.000000
(Block-name: path4 [in,cut])
(Block-expand: 0)
(Block-enable: 1)
g0 x34.049687 y49.178591
g1 z-1 f300
g1 x33.935756 y49.205916 f650
g1 x33.827512 y49.250827
g1 x33.727074 y49.312391
g1 x33.637855 y49.388497
g1 x33.561815 y49.477527
g1 x33.500525 y49.577578
g1 x33.455687 y49.685894
g1 x33.428291 y49.800113
g1 x33.419068 y49.917115
g1 x33.428286 y50.033972
g1 x33.455691 y50.148241
g1 x33.500564 y50.256639
g1 x33.561805 y50.356671
g1 x33.637832 y50.445617
g1 x33.727169 y50.521877
g1 x33.827362 y50.583281
g1 x33.935757 y50.628205
g1 x34.049844 y50.655617
g1 x34.166726 y50.664831
g1 x34.283522 y50.65562
g1 x34.397681 y50.62819
g1 x34.506091 y50.583281
g1 x34.606145 y50.521932
g1 x34.695546 y50.445617
g1 x34.771573 y50.356671
g1 x34.832814 y50.256639
g1 x34.877806 y50.147954
g1 x34.905316 y50.03366
g1 x34.91451 y49.917114
g1 x34.905312 y49.800423
g1 x34.877811 y49.686182
g1 x34.832853 y49.577579
g1 x34.771563 y49.477527
g1 x34.695523 y49.388497
g1 x34.606239 y49.312337
g1 x34.505939 y49.250827
g1 x34.39768 y49.205931
g1 x34.283676 y49.178588
g1 x34.166725 y49.169365
g1 x34.049687 y49.178591
g1 z-2 f300
g1 x33.935756 y49.205916 f650
g1 x33.827512 y49.250827
g1 x33.727074 y49.312391
g1 x33.637855 y49.388497
g1 x33.561815 y49.477527
g1 x33.500525 y49.577578
g1 x33.455687 y49.685894
g1 x33.428291 y49.800113
g1 x33.419068 y49.917115
g1 x33.428286 y50.033972
g1 x33.455691 y50.148241
g1 x33.500564 y50.256639
g1 x33.561805 y50.356671
g1 x33.637832 y50.445617
g1 x33.727169 y50.521877
g1 x33.827362 y50.583281
g1 x33.935757 y50.628205
g1 x34.049844 y50.655617
g1 x34.166726 y50.664831
g1 x34.283522 y50.65562
g1 x34.397681 y50.62819
g1 x34.506091 y50.583281
g1 x34.606145 y50.521932
g1 x34.695546 y50.445617
g1 x34.771573 y50.356671
g1 x34.832814 y50.256639
g1 x34.877806 y50.147954
g1 x34.905316 y50.03366
g1 x34.91451 y49.917114
g1 x34.905312 y49.800423
g1 x34.877811 y49.686182
g1 x34.832853 y49.577579
g1 x34.771563 y49.477527
g1 x34.695523 y49.388497
g1 x34.606239 y49.312337
g1 x34.505939 y49.250827
g1 x34.39768 y49.205931
g1 x34.283676 y49.178588
g1 x34.166725 y49.169365
g1 x34.049687 y49.178591
g0 z30
(Block-name: path4)
(Block-expand: 0)
(Block-enable: 0)

(End cutting path id: path4)


(Start cutting path id: path4)
(Change tool to Default tool)

G00 Z30.000000
G00 X17.265605 Y18.435639

G01 Z-1.000000 F100.0(Penetrate)
G01 X17.036725 Y18.490539 Z-1.000000 F400.000000
G01 X16.819285 Y18.580739 Z-1.000000
G01 X16.618475 Y18.703719 Z-1.000000
G01 X16.439495 Y18.856459 Z-1.000000
G01 X16.286755 Y19.035459 Z-1.000000
G01 X16.163775 Y19.236249 Z-1.000000
G01 X16.073575 Y19.453709 Z-1.000000
G01 X16.018675 Y19.682569 Z-1.000000
G01 X16.000175 Y19.917099 Z-1.000000
G01 X16.018675 Y20.151629 Z-1.000000
G01 X16.073575 Y20.380519 Z-1.000000
G01 X16.163775 Y20.597949 Z-1.000000
G01 X16.286755 Y20.798769 Z-1.000000
G01 X16.439495 Y20.977739 Z-1.000000
G01 X16.618475 Y21.130479 Z-1.000000
G01 X16.819285 Y21.253459 Z-1.000000
G01 X17.036725 Y21.343659 Z-1.000000
G01 X17.265605 Y21.398559 Z-1.000000
G01 X17.500135 Y21.417059 Z-1.000000
G01 X17.734655 Y21.398559 Z-1.000000
G01 X17.963535 Y21.343659 Z-1.000000
G01 X18.180975 Y21.253459 Z-1.000000
G01 X18.381785 Y21.130479 Z-1.000000
G01 X18.560775 Y20.977739 Z-1.000000
G01 X18.713515 Y20.798769 Z-1.000000
G01 X18.836495 Y20.597949 Z-1.000000
G01 X18.926695 Y20.380519 Z-1.000000
G01 X18.981595 Y20.151629 Z-1.000000
G01 X19.000095 Y19.917099 Z-1.000000
G01 X18.981595 Y19.682569 Z-1.000000
G01 X18.926695 Y19.453709 Z-1.000000
G01 X18.836495 Y19.236249 Z-1.000000
G01 X18.713515 Y19.035459 Z-1.000000
G01 X18.560775 Y18.856459 Z-1.000000
G01 X18.381785 Y18.703719 Z-1.000000
G01 X18.180975 Y18.580739 Z-1.000000
G01 X17.963535 Y18.490539 Z-1.000000
G01 X17.734655 Y18.435639 Z-1.000000
G01 X17.500135 Y18.417139 Z-1.000000
G01 X17.265605 Y18.435639 Z-1.000000
G00 Z30.000000
(Block-name: path4 [in,cut])
(Block-expand: 0)
(Block-enable: 1)
g0 x17.383283 y19.178686
g1 z-1 f300
g1 x17.269326 y19.20602 f650
g1 x17.160903 y19.250997
g1 x17.060469 y19.312504
g1 x16.971498 y19.388432
g1 x16.89554 y19.477448
g1 x16.834033 y19.577872
g1 x16.789056 y19.686305
g1 x16.761722 y19.800254
g1 x16.752505 y19.917099
g1 x16.761722 y20.033955
g1 x16.789056 y20.147916
g1 x16.834033 y20.256334
g1 x16.89554 y20.356772
g1 x16.971474 y20.445746
g1 x17.060469 y20.521694
g1 x17.160903 y20.583201
g1 x17.269326 y20.628178
g1 x17.383283 y20.655512
g1 x17.500134 y20.664729
g1 x17.616976 y20.655512
g1 x17.730934 y20.628178
g1 x17.839357 y20.583201
g1 x17.9398 y20.521688
g1 x18.028803 y20.445738
g1 x18.10473 y20.356772
g1 x18.166237 y20.256334
g1 x18.211214 y20.147916
g1 x18.238548 y20.033955
g1 x18.247765 y19.917099
g1 x18.238548 y19.800254
g1 x18.211214 y19.686305
g1 x18.166237 y19.577872
g1 x18.10473 y19.477448
g1 x18.028779 y19.38844
g1 x17.9398 y19.31251
g1 x17.839357 y19.250997
g1 x17.730934 y19.20602
g1 x17.616976 y19.178686
g1 x17.500134 y19.169469
g1 x17.383283 y19.178686
g1 z-2 f300
g1 x17.269326 y19.20602 f650
g1 x17.160903 y19.250997
g1 x17.060469 y19.312504
g1 x16.971498 y19.388432
g1 x16.89554 y19.477448
g1 x16.834033 y19.577872
g1 x16.789056 y19.686305
g1 x16.761722 y19.800254
g1 x16.752505 y19.917099
g1 x16.761722 y20.033955
g1 x16.789056 y20.147916
g1 x16.834033 y20.256334
g1 x16.89554 y20.356772
g1 x16.971474 y20.445746
g1 x17.060469 y20.521694
g1 x17.160903 y20.583201
g1 x17.269326 y20.628178
g1 x17.383283 y20.655512
g1 x17.500134 y20.664729
g1 x17.616976 y20.655512
g1 x17.730934 y20.628178
g1 x17.839357 y20.583201
g1 x17.9398 y20.521688
g1 x18.028803 y20.445738
g1 x18.10473 y20.356772
g1 x18.166237 y20.256334
g1 x18.211214 y20.147916
g1 x18.238548 y20.033955
g1 x18.247765 y19.917099
g1 x18.238548 y19.800254
g1 x18.211214 y19.686305
g1 x18.166237 y19.577872
g1 x18.10473 y19.477448
g1 x18.028779 y19.38844
g1 x17.9398 y19.31251
g1 x17.839357 y19.250997
g1 x17.730934 y19.20602
g1 x17.616976 y19.178686
g1 x17.500134 y19.169469
g1 x17.383283 y19.178686
g0 z30
(Block-name: path4)
(Block-expand: 0)
(Block-enable: 0)

(End cutting path id: path4)


(Start cutting path id: path4)
(Change tool to Default tool)

G00 Z30.000000
G00 X42.265436 Y18.435636

G01 Z-1.000000 F100.0(Penetrate)
G01 X42.036526 Y18.490536 Z-1.000000 F400.000000
G01 X41.819126 Y18.580736 Z-1.000000
G01 X41.618336 Y18.703716 Z-1.000000
G01 X41.439336 Y18.856456 Z-1.000000
G01 X41.286636 Y19.035456 Z-1.000000
G01 X41.163626 Y19.236246 Z-1.000000
G01 X41.073426 Y19.453706 Z-1.000000
G01 X41.018526 Y19.682566 Z-1.000000
G01 X41.000026 Y19.917096 Z-1.000000
G01 X41.018526 Y20.151626 Z-1.000000
G01 X41.073426 Y20.380516 Z-1.000000
G01 X41.163626 Y20.597946 Z-1.000000
G01 X41.286636 Y20.798766 Z-1.000000
G01 X41.439336 Y20.977736 Z-1.000000
G01 X41.618336 Y21.130476 Z-1.000000
G01 X41.819126 Y21.253456 Z-1.000000
G01 X42.036526 Y21.343656 Z-1.000000
G01 X42.265436 Y21.398556 Z-1.000000
G01 X42.500136 Y21.417056 Z-1.000000
G01 X42.734636 Y21.398556 Z-1.000000
G01 X42.963536 Y21.343656 Z-1.000000
G01 X43.180936 Y21.253456 Z-1.000000
G01 X43.381836 Y21.130476 Z-1.000000
G01 X43.560736 Y20.977736 Z-1.000000
G01 X43.713536 Y20.798766 Z-1.000000
G01 X43.836536 Y20.597946 Z-1.000000
G01 X43.926636 Y20.380516 Z-1.000000
G01 X43.981636 Y20.151626 Z-1.000000
G01 X44.000036 Y19.917096 Z-1.000000
G01 X43.981636 Y19.682566 Z-1.000000
G01 X43.926636 Y19.453706 Z-1.000000
G01 X43.836536 Y19.236246 Z-1.000000
G01 X43.713536 Y19.035456 Z-1.000000
G01 X43.560736 Y18.856456 Z-1.000000
G01 X43.381836 Y18.703716 Z-1.000000
G01 X43.180936 Y18.580736 Z-1.000000
G01 X42.963536 Y18.490536 Z-1.000000
G01 X42.734636 Y18.435636 Z-1.000000
G01 X42.500136 Y18.417136 Z-1.000000
G01 X42.265436 Y18.435636 Z-1.000000
G00 Z30.000000
(Block-name: path4 [in,cut])
(Block-expand: 0)
(Block-enable: 1)
g0 x42.383082 y19.178689
g1 z-1 f300
g1 x42.26914 y19.206016 f650
g1 x42.16078 y19.250975
g1 x42.060325 y19.312501
g1 x41.971362 y19.388413
g1 x41.89542 y19.477435
g1 x41.833868 y19.577906
g1 x41.788907 y19.686302
g1 x41.761573 y19.800251
g1 x41.752356 y19.917096
g1 x41.761573 y20.033952
g1 x41.788907 y20.147913
g1 x41.833868 y20.256293
g1 x41.89542 y20.35678
g1 x41.971338 y20.445758
g1 x42.060325 y20.521691
g1 x42.16078 y20.583217
g1 x42.26914 y20.628176
g1 x42.383082 y20.655503
g1 x42.500111 y20.664728
g1 x42.616962 y20.655509
g1 x42.730918 y20.628178
g1 x42.839367 y20.583182
g1 x42.939828 y20.521685
g1 x43.028759 y20.445758
g1 x43.104807 y20.356686
g1 x43.166211 y20.256432
g1 x43.21118 y20.147913
g1 x43.238563 y20.033952
g1 x43.247731 y19.917096
g1 x43.238564 y19.800251
g1 x43.21118 y19.686302
g1 x43.166211 y19.577768
g1 x43.104807 y19.477528
g1 x43.028735 y19.388413
g1 x42.939828 y19.312507
g1 x42.839367 y19.25101
g1 x42.730918 y19.206014
g1 x42.616962 y19.178683
g1 x42.500111 y19.169464
g1 x42.383082 y19.178689
g1 z-2 f300
g1 x42.26914 y19.206016 f650
g1 x42.16078 y19.250975
g1 x42.060325 y19.312501
g1 x41.971362 y19.388413
g1 x41.89542 y19.477435
g1 x41.833868 y19.577906
g1 x41.788907 y19.686302
g1 x41.761573 y19.800251
g1 x41.752356 y19.917096
g1 x41.761573 y20.033952
g1 x41.788907 y20.147913
g1 x41.833868 y20.256293
g1 x41.89542 y20.35678
g1 x41.971338 y20.445758
g1 x42.060325 y20.521691
g1 x42.16078 y20.583217
g1 x42.26914 y20.628176
g1 x42.383082 y20.655503
g1 x42.500111 y20.664728
g1 x42.616962 y20.655509
g1 x42.730918 y20.628178
g1 x42.839367 y20.583182
g1 x42.939828 y20.521685
g1 x43.028759 y20.445758
g1 x43.104807 y20.356686
g1 x43.166211 y20.256432
g1 x43.21118 y20.147913
g1 x43.238563 y20.033952
g1 x43.247731 y19.917096
g1 x43.238564 y19.800251
g1 x43.21118 y19.686302
g1 x43.166211 y19.577768
g1 x43.104807 y19.477528
g1 x43.028735 y19.388413
g1 x42.939828 y19.312507
g1 x42.839367 y19.25101
g1 x42.730918 y19.206014
g1 x42.616962 y19.178683
g1 x42.500111 y19.169464
g1 x42.383082 y19.178689
g0 z30
(Block-name: path4)
(Block-expand: 0)
(Block-enable: 0)

(End cutting path id: path4)


(Start cutting path id: path4)
(Change tool to Default tool)

G00 Z30.000000
G00 X149.843139 Y65.179467

G01 Z-1.000000 F100.0(Penetrate)
G01 X149.691139 Y65.216067 Z-1.000000 F400.000000
G01 X149.546139 Y65.276067 Z-1.000000
G01 X149.412139 Y65.358167 Z-1.000000
G01 X149.293139 Y65.459977 Z-1.000000
G01 X149.191139 Y65.579277 Z-1.000000
G01 X149.109139 Y65.713077 Z-1.000000
G01 X149.049139 Y65.858067 Z-1.000000
G01 X149.012139 Y66.010577 Z-1.000000
G01 X149.000139 Y66.167177 Z-1.000000
G01 X149.012139 Y66.323577 Z-1.000000
G01 X149.049140 Y66.476157 Z-1.000000
G01 X149.109140 Y66.621077 Z-1.000000
G01 X149.191140 Y66.754977 Z-1.000000
G01 X149.293140 Y66.874277 Z-1.000000
G01 X149.412140 Y66.976067 Z-1.000000
G01 X149.546140 Y67.058167 Z-1.000000
G01 X149.691140 Y67.118067 Z-1.000000
G01 X149.843140 Y67.154667 Z-1.000000
G01 X150.000140 Y67.167067 Z-1.000000
G01 X150.156140 Y67.154667 Z-1.000000
G01 X150.309140 Y67.118067 Z-1.000000
G01 X150.454140 Y67.058167 Z-1.000000
G01 X150.588140 Y66.976067 Z-1.000000
G01 X150.707140 Y66.874277 Z-1.000000
G01 X150.809140 Y66.754977 Z-1.000000
G01 X150.891140 Y66.621077 Z-1.000000
G01 X150.951140 Y66.476156 Z-1.000000
G01 X150.988140 Y66.323576 Z-1.000000
G01 X151.000140 Y66.167176 Z-1.000000
G01 X150.988140 Y66.010576 Z-1.000000
G01 X150.951139 Y65.858066 Z-1.000000
G01 X150.891139 Y65.713076 Z-1.000000
G01 X150.809139 Y65.579276 Z-1.000000
G01 X150.707139 Y65.459976 Z-1.000000
G01 X150.588139 Y65.358167 Z-1.000000
G01 X150.454139 Y65.276067 Z-1.000000
G01 X150.309139 Y65.216067 Z-1.000000
G01 X150.156139 Y65.179467 Z-1.000000
G01 X150.000139 Y65.167067 Z-1.000000
G01 X149.843139 Y65.179467 Z-1.000000
G00 Z30.000000
(Block-name: path4 [in,cut])
(Block-expand: 0)
(Block-enable: 1)
g0 x149.961182 y65.922479
g1 z-1 f300
g1 x149.923721 y65.9315 f650
g1 x149.88754 y65.946471
g1 x149.85459 y65.966659
g1 x149.825166 y65.991833
g1 x149.799665 y66.021659
g1 x149.779521 y66.054529
g1 x149.764322 y66.091257
g1 x149.755309 y66.128409
g1 x149.752341 y66.16714
g1 x149.755303 y66.205747
g1 x149.764322 y66.242939
g1 x149.779536 y66.279686
g1 x149.799748 y66.31269
g1 x149.825143 y66.342394
g1 x149.85456 y66.367555
g1 x149.887352 y66.387647
g1 x149.923506 y66.402582
g1 x149.961183 y66.411655
g1 x149.999951 y66.414716
g1 x150.038472 y66.411655
g1 x150.077293 y66.402368
g1 x150.112928 y66.387647
g1 x150.14572 y66.367555
g1 x150.175137 y66.342394
g1 x150.200532 y66.31269
g1 x150.220744 y66.279687
g1 x150.235957 y66.242941
g1 x150.244976 y66.205748
g1 x150.247938 y66.167139
g1 x150.244971 y66.12841
g1 x150.235957 y66.091258
g1 x150.220757 y66.054528
g1 x150.200613 y66.021658
g1 x150.175113 y65.991833
g1 x150.14569 y65.96666
g1 x150.112738 y65.946471
g1 x150.077076 y65.931714
g1 x150.038471 y65.922479
g1 x149.99995 y65.919418
g1 x149.961182 y65.922479
g1 z-2 f300
g1 x149.923721 y65.9315 f650
g1 x149.88754 y65.946471
g1 x149.85459 y65.966659
g1 x149.825166 y65.991833
g1 x149.799665 y66.021659
g1 x149.779521 y66.054529
g1 x149.764322 y66.091257
g1 x149.755309 y66.128409
g1 x149.752341 y66.16714
g1 x149.755303 y66.205747
g1 x149.764322 y66.242939
g1 x149.779536 y66.279686
g1 x149.799748 y66.31269
g1 x149.825143 y66.342394
g1 x149.85456 y66.367555
g1 x149.887352 y66.387647
g1 x149.923506 y66.402582
g1 x149.961183 y66.411655
g1 x149.999951 y66.414716
g1 x150.038472 y66.411655
g1 x150.077293 y66.402368
g1 x150.112928 y66.387647
g1 x150.14572 y66.367555
g1 x150.175137 y66.342394
g1 x150.200532 y66.31269
g1 x150.220744 y66.279687
g1 x150.235957 y66.242941
g1 x150.244976 y66.205748
g1 x150.247938 y66.167139
g1 x150.244971 y66.12841
g1 x150.235957 y66.091258
g1 x150.220757 y66.054528
g1 x150.200613 y66.021658
g1 x150.175113 y65.991833
g1 x150.14569 y65.96666
g1 x150.112738 y65.946471
g1 x150.077076 y65.931714
g1 x150.038471 y65.922479
g1 x149.99995 y65.919418
g1 x149.961182 y65.922479
g0 z30
(Block-name: path4)
(Block-expand: 0)
(Block-enable: 0)

(End cutting path id: path4)


(Start cutting path id: path4)
(Change tool to Default tool)

G00 Z30.000000
G00 X143.900137 Y40.866997

G01 Z-1.000000 F100.0(Penetrate)
G01 X143.900139 Y63.967167 Z-1.000000 F400.000000
G01 X156.100139 Y63.967166 Z-1.000000
G01 X156.100137 Y40.866995 Z-1.000000
G01 X143.900137 Y40.866997 Z-1.000000
G00 Z30.000000
(Block-name: path4 [in,cut])
(Block-expand: 0)
(Block-enable: 1)
g0 x144.650137 y41.616997
g1 z-1 f300
g1 x144.650139 y63.217167 f650
g1 x155.350139 y63.217166
g1 x155.350137 y41.616995
g1 x144.650137 y41.616997
g1 z-2 f300
g1 x144.650139 y63.217167 f650
g1 x155.350139 y63.217166
g1 x155.350137 y41.616995
g1 x144.650137 y41.616997
g0 z30
(Block-name: path4)
(Block-expand: 0)
(Block-enable: 0)

(End cutting path id: path4)


(Start cutting path id: path4)
(Change tool to Default tool)

G00 Z30.000000
G00 X137.265138 Y48.435527

G01 Z-1.000000 F100.0(Penetrate)
G01 X137.036138 Y48.490428 Z-1.000000 F400.000000
G01 X136.819138 Y48.580628 Z-1.000000
G01 X136.618138 Y48.703648 Z-1.000000
G01 X136.439138 Y48.856338 Z-1.000000
G01 X136.286138 Y49.035358 Z-1.000000
G01 X136.163138 Y49.236148 Z-1.000000
G01 X136.073138 Y49.453558 Z-1.000000
G01 X136.018138 Y49.682448 Z-1.000000
G01 X136.000138 Y49.917128 Z-1.000000
G01 X136.018138 Y50.151628 Z-1.000000
G01 X136.073138 Y50.380548 Z-1.000000
G01 X136.163138 Y50.597958 Z-1.000000
G01 X136.286138 Y50.798868 Z-1.000000
G01 X136.439138 Y50.977748 Z-1.000000
G01 X136.618138 Y51.130548 Z-1.000000
G01 X136.819138 Y51.253548 Z-1.000000
G01 X137.036138 Y51.343648 Z-1.000000
G01 X137.265138 Y51.398648 Z-1.000000
G01 X137.500138 Y51.417148 Z-1.000000
G01 X137.735138 Y51.398647 Z-1.000000
G01 X137.963138 Y51.343647 Z-1.000000
G01 X138.181138 Y51.253547 Z-1.000000
G01 X138.382138 Y51.130547 Z-1.000000
G01 X138.561138 Y50.977747 Z-1.000000
G01 X138.714138 Y50.798867 Z-1.000000
G01 X138.837138 Y50.597957 Z-1.000000
G01 X138.927138 Y50.380547 Z-1.000000
G01 X138.981138 Y50.151627 Z-1.000000
G01 X139.000138 Y49.917127 Z-1.000000
G01 X138.981138 Y49.682447 Z-1.000000
G01 X138.927138 Y49.453557 Z-1.000000
G01 X138.837138 Y49.236147 Z-1.000000
G01 X138.714138 Y49.035357 Z-1.000000
G01 X138.561138 Y48.856337 Z-1.000000
G01 X138.382138 Y48.703647 Z-1.000000
G01 X138.181138 Y48.580627 Z-1.000000
G01 X137.963138 Y48.490427 Z-1.000000
G01 X137.735138 Y48.435527 Z-1.000000
G01 X137.500138 Y48.417027 Z-1.000000
G01 X137.265138 Y48.435527 Z-1.000000
G00 Z30.000000
(Block-name: path4 [in,cut])
(Block-expand: 0)
(Block-enable: 1)
g0 x137.382715 y49.178591
g1 z-1 f300
g1 x137.268962 y49.205863 f650
g1 x137.16089 y49.250785
g1 x137.059983 y49.312544
g1 x136.970862 y49.388566
g1 x136.894751 y49.477621
g1 x136.833524 y49.577569
g1 x136.788626 y49.686029
g1 x136.761364 y49.799482
g1 x136.752343 y49.917106
g1 x136.76136 y50.034584
g1 x136.78863 y50.148087
g1 x136.833563 y50.256629
g1 x136.89474 y50.356557
g1 x136.970838 y50.445528
g1 x137.060077 y50.521704
g1 x137.160738 y50.583303
g1 x137.26896 y50.628238
g1 x137.382869 y50.655596
g1 x137.500136 y50.664827
g1 x137.617031 y50.655625
g1 x137.730565 y50.628237
g1 x137.840061 y50.582982
g1 x137.940199 y50.521703
g1 x138.029438 y50.445527
g1 x138.105536 y50.356556
g1 x138.166713 y50.256628
g1 x138.211049 y50.149528
g1 x138.238164 y50.034582
g1 x138.247682 y49.917104
g1 x138.238159 y49.79948
g1 x138.211053 y49.684586
g1 x138.166752 y49.577568
g1 x138.105525 y49.47762
g1 x138.029414 y49.388565
g1 x137.940293 y49.312543
g1 x137.839909 y49.251104
g1 x137.730566 y49.205862
g1 x137.617189 y49.178562
g1 x137.500138 y49.169347
g1 x137.382715 y49.178591
g1 z-2 f300
g1 x137.268962 y49.205863 f650
g1 x137.16089 y49.250785
g1 x137.059983 y49.312544
g1 x136.970862 y49.388566
g1 x136.894751 y49.477621
g1 x136.833524 y49.577569
g1 x136.788626 y49.686029
g1 x136.761364 y49.799482
g1 x136.752343 y49.917106
g1 x136.76136 y50.034584
g1 x136.78863 y50.148087
g1 x136.833563 y50.256629
g1 x136.89474 y50.356557
g1 x136.970838 y50.445528
g1 x137.060077 y50.521704
g1 x137.160738 y50.583303
g1 x137.26896 y50.628238
g1 x137.382869 y50.655596
g1 x137.500136 y50.664827
g1 x137.617031 y50.655625
g1 x137.730565 y50.628237
g1 x137.840061 y50.582982
g1 x137.940199 y50.521703
g1 x138.029438 y50.445527
g1 x138.105536 y50.356556
g1 x138.166713 y50.256628
g1 x138.211049 y50.149528
g1 x138.238164 y50.034582
g1 x138.247682 y49.917104
g1 x138.238159 y49.79948
g1 x138.211053 y49.684586
g1 x138.166752 y49.577568
g1 x138.105525 y49.47762
g1 x138.029414 y49.388565
g1 x137.940293 y49.312543
g1 x137.839909 y49.251104
g1 x137.730566 y49.205862
g1 x137.617189 y49.178562
g1 x137.500138 y49.169347
g1 x137.382715 y49.178591
g0 z30
(Block-name: path4)
(Block-expand: 0)
(Block-enable: 0)

(End cutting path id: path4)


(Start cutting path id: path4)
(Change tool to Default tool)

G00 Z30.000000
G00 X162.265138 Y48.435525

G01 Z-1.000000 F100.0(Penetrate)
G01 X162.036138 Y48.490425 Z-1.000000 F400.000000
G01 X161.819138 Y48.580625 Z-1.000000
G01 X161.618138 Y48.703645 Z-1.000000
G01 X161.439138 Y48.856335 Z-1.000000
G01 X161.286138 Y49.035355 Z-1.000000
G01 X161.163138 Y49.236145 Z-1.000000
G01 X161.073138 Y49.453555 Z-1.000000
G01 X161.018138 Y49.682445 Z-1.000000
G01 X161.000138 Y49.917125 Z-1.000000
G01 X161.018138 Y50.151625 Z-1.000000
G01 X161.073138 Y50.380545 Z-1.000000
G01 X161.163138 Y50.597955 Z-1.000000
G01 X161.286138 Y50.798865 Z-1.000000
G01 X161.439138 Y50.977745 Z-1.000000
G01 X161.618138 Y51.130545 Z-1.000000
G01 X161.819138 Y51.253545 Z-1.000000
G01 X162.036138 Y51.343645 Z-1.000000
G01 X162.265138 Y51.398645 Z-1.000000
G01 X162.500138 Y51.417145 Z-1.000000
G01 X162.735138 Y51.398645 Z-1.000000
G01 X162.963138 Y51.343645 Z-1.000000
G01 X163.181138 Y51.253545 Z-1.000000
G01 X163.382138 Y51.130545 Z-1.000000
G01 X163.561138 Y50.977745 Z-1.000000
G01 X163.714138 Y50.798865 Z-1.000000
G01 X163.837138 Y50.597955 Z-1.000000
G01 X163.927138 Y50.380545 Z-1.000000
G01 X163.981138 Y50.151625 Z-1.000000
G01 X164.000138 Y49.917125 Z-1.000000
G01 X163.981138 Y49.682445 Z-1.000000
G01 X163.927138 Y49.453555 Z-1.000000
G01 X163.837138 Y49.236145 Z-1.000000
G01 X163.714138 Y49.035355 Z-1.000000
G01 X163.561138 Y48.856335 Z-1.000000
G01 X163.382138 Y48.703645 Z-1.000000
G01 X163.181138 Y48.580625 Z-1.000000
G01 X162.963138 Y48.490425 Z-1.000000
G01 X162.735138 Y48.435525 Z-1.000000
G01 X162.500138 Y48.417025 Z-1.000000
G01 X162.265138 Y48.435525 Z-1.000000
G00 Z30.000000
(Block-name: path4 [in,cut])
(Block-expand: 0)
(Block-enable: 1)
g0 x162.382713 y49.178589
g1 z-1 f300
g1 x162.26896 y49.20586 f650
g1 x162.16089 y49.250782
g1 x162.059983 y49.312541
g1 x161.970862 y49.388563
g1 x161.894751 y49.477618
g1 x161.833524 y49.577566
g1 x161.788626 y49.686026
g1 x161.761364 y49.799479
g1 x161.752343 y49.917103
g1 x161.76136 y50.034581
g1 x161.78863 y50.148084
g1 x161.833563 y50.256626
g1 x161.89474 y50.356554
g1 x161.970838 y50.445525
g1 x162.060077 y50.521701
g1 x162.160738 y50.5833
g1 x162.26896 y50.628235
g1 x162.382869 y50.655593
g1 x162.500138 y50.664825
g1 x162.617033 y50.655622
g1 x162.730565 y50.628235
g1 x162.840061 y50.58298
g1 x162.940199 y50.521701
g1 x163.029438 y50.445525
g1 x163.105536 y50.356554
g1 x163.166713 y50.256626
g1 x163.211049 y50.149526
g1 x163.238164 y50.03458
g1 x163.247682 y49.917102
g1 x163.238159 y49.799478
g1 x163.211053 y49.684584
g1 x163.166752 y49.577566
g1 x163.105525 y49.477618
g1 x163.029414 y49.388563
g1 x162.940293 y49.312541
g1 x162.839909 y49.251102
g1 x162.730566 y49.20586
g1 x162.617189 y49.17856
g1 x162.500138 y49.169345
g1 x162.382713 y49.178589
g1 z-2 f300
g1 x162.26896 y49.20586 f650
g1 x162.16089 y49.250782
g1 x162.059983 y49.312541
g1 x161.970862 y49.388563
g1 x161.894751 y49.477618
g1 x161.833524 y49.577566
g1 x161.788626 y49.686026
g1 x161.761364 y49.799479
g1 x161.752343 y49.917103
g1 x161.76136 y50.034581
g1 x161.78863 y50.148084
g1 x161.833563 y50.256626
g1 x161.89474 y50.356554
g1 x161.970838 y50.445525
g1 x162.060077 y50.521701
g1 x162.160738 y50.5833
g1 x162.26896 y50.628235
g1 x162.382869 y50.655593
g1 x162.500138 y50.664825
g1 x162.617033 y50.655622
g1 x162.730565 y50.628235
g1 x162.840061 y50.58298
g1 x162.940199 y50.521701
g1 x163.029438 y50.445525
g1 x163.105536 y50.356554
g1 x163.166713 y50.256626
g1 x163.211049 y50.149526
g1 x163.238164 y50.03458
g1 x163.247682 y49.917102
g1 x163.238159 y49.799478
g1 x163.211053 y49.684584
g1 x163.166752 y49.577566
g1 x163.105525 y49.477618
g1 x163.029414 y49.388563
g1 x162.940293 y49.312541
g1 x162.839909 y49.251102
g1 x162.730566 y49.20586
g1 x162.617189 y49.17856
g1 x162.500138 y49.169345
g1 x162.382713 y49.178589
g0 z30
(Block-name: path4)
(Block-expand: 0)
(Block-enable: 0)

(End cutting path id: path4)


(Start cutting path id: path4)
(Change tool to Default tool)

G00 Z30.000000
G00 X149.843137 Y37.579316

G01 Z-1.000000 F100.0(Penetrate)
G01 X149.691137 Y37.615916 Z-1.000000 F400.000000
G01 X149.546137 Y37.676016 Z-1.000000
G01 X149.412137 Y37.758016 Z-1.000000
G01 X149.293137 Y37.859906 Z-1.000000
G01 X149.191137 Y37.979206 Z-1.000000
G01 X149.109137 Y38.113106 Z-1.000000
G01 X149.049137 Y38.258026 Z-1.000000
G01 X149.012137 Y38.410606 Z-1.000000
G01 X149.000137 Y38.567006 Z-1.000000
G01 X149.012137 Y38.723426 Z-1.000000
G01 X149.049137 Y38.876006 Z-1.000000
G01 X149.109137 Y39.021006 Z-1.000000
G01 X149.191137 Y39.154806 Z-1.000000
G01 X149.293137 Y39.274106 Z-1.000000
G01 X149.412137 Y39.376016 Z-1.000000
G01 X149.546137 Y39.458016 Z-1.000000
G01 X149.691137 Y39.518116 Z-1.000000
G01 X149.843137 Y39.554716 Z-1.000000
G01 X150.000137 Y39.567116 Z-1.000000
G01 X150.156137 Y39.554716 Z-1.000000
G01 X150.309137 Y39.518116 Z-1.000000
G01 X150.454137 Y39.458016 Z-1.000000
G01 X150.588137 Y39.376016 Z-1.000000
G01 X150.707137 Y39.274106 Z-1.000000
G01 X150.809137 Y39.154806 Z-1.000000
G01 X150.891137 Y39.021006 Z-1.000000
G01 X150.951137 Y38.876006 Z-1.000000
G01 X150.988137 Y38.723426 Z-1.000000
G01 X151.000137 Y38.567006 Z-1.000000
G01 X150.988137 Y38.410606 Z-1.000000
G01 X150.951137 Y38.258026 Z-1.000000
G01 X150.891137 Y38.113106 Z-1.000000
G01 X150.809137 Y37.979206 Z-1.000000
G01 X150.707137 Y37.859906 Z-1.000000
G01 X150.588137 Y37.758016 Z-1.000000
G01 X150.454137 Y37.676016 Z-1.000000
G01 X150.309137 Y37.615916 Z-1.000000
G01 X150.156137 Y37.579316 Z-1.000000
G01 X150.000137 Y37.567116 Z-1.000000
G01 X149.843137 Y37.579316 Z-1.000000
G00 Z30.000000
(Block-name: path4 [in,cut])
(Block-expand: 0)
(Block-enable: 1)
g0 x149.960716 y38.32244
g1 z-1 f300
g1 x149.923935 y38.331297 f650
g1 x149.887539 y38.346382
g1 x149.854557 y38.366565
g1 x149.825259 y38.39165
g1 x149.799745 y38.421493
g1 x149.779533 y38.454497
g1 x149.76432 y38.491241
g1 x149.755301 y38.528434
g1 x149.752341 y38.56701
g1 x149.755302 y38.605602
g1 x149.764337 y38.642862
g1 x149.779523 y38.679562
g1 x149.799663 y38.712424
g1 x149.825283 y38.74239
g1 x149.854588 y38.767486
g1 x149.887539 y38.78765
g1 x149.923935 y38.802735
g1 x149.96118 y38.811704
g1 x149.999948 y38.814765
g1 x150.038469 y38.811704
g1 x150.076858 y38.80252
g1 x150.112735 y38.78765
g1 x150.145686 y38.767486
g1 x150.174991 y38.74239
g1 x150.200611 y38.712424
g1 x150.220751 y38.679562
g1 x150.235937 y38.642862
g1 x150.244972 y38.605602
g1 x150.247933 y38.56701
g1 x150.244973 y38.528434
g1 x150.235954 y38.491241
g1 x150.220741 y38.454497
g1 x150.200529 y38.421493
g1 x150.175015 y38.39165
g1 x150.145717 y38.366565
g1 x150.112735 y38.346382
g1 x150.076858 y38.331512
g1 x150.038936 y38.32244
g1 x149.999951 y38.319391
g1 x149.960716 y38.32244
g1 z-2 f300
g1 x149.923935 y38.331297 f650
g1 x149.887539 y38.346382
g1 x149.854557 y38.366565
g1 x149.825259 y38.39165
g1 x149.799745 y38.421493
g1 x149.779533 y38.454497
g1 x149.76432 y38.491241
g1 x149.755301 y38.528434
g1 x149.752341 y38.56701
g1 x149.755302 y38.605602
g1 x149.764337 y38.642862
g1 x149.779523 y38.679562
g1 x149.799663 y38.712424
g1 x149.825283 y38.74239
g1 x149.854588 y38.767486
g1 x149.887539 y38.78765
g1 x149.923935 y38.802735
g1 x149.96118 y38.811704
g1 x149.999948 y38.814765
g1 x150.038469 y38.811704
g1 x150.076858 y38.80252
g1 x150.112735 y38.78765
g1 x150.145686 y38.767486
g1 x150.174991 y38.74239
g1 x150.200611 y38.712424
g1 x150.220751 y38.679562
g1 x150.235937 y38.642862
g1 x150.244972 y38.605602
g1 x150.247933 y38.56701
g1 x150.244973 y38.528434
g1 x150.235954 y38.491241
g1 x150.220741 y38.454497
g1 x150.200529 y38.421493
g1 x150.175015 y38.39165
g1 x150.145717 y38.366565
g1 x150.112735 y38.346382
g1 x150.076858 y38.331512
g1 x150.038936 y38.32244
g1 x149.999951 y38.319391
g1 x149.960716 y38.32244
g0 z30
(Block-name: path4)
(Block-expand: 0)
(Block-enable: 0)

(End cutting path id: path4)


(Start cutting path id: path4)
(Change tool to Default tool)

G00 Z30.000000
G00 X137.265135 Y23.435487

G01 Z-1.000000 F100.0(Penetrate)
G01 X137.036135 Y23.490387 Z-1.000000 F400.000000
G01 X136.819135 Y23.580587 Z-1.000000
G01 X136.618135 Y23.703597 Z-1.000000
G01 X136.439135 Y23.856337 Z-1.000000
G01 X136.286135 Y24.035307 Z-1.000000
G01 X136.163135 Y24.236127 Z-1.000000
G01 X136.073135 Y24.453557 Z-1.000000
G01 X136.018135 Y24.682447 Z-1.000000
G01 X136.000135 Y24.917137 Z-1.000000
G01 X136.018135 Y25.151657 Z-1.000000
G01 X136.073135 Y25.380527 Z-1.000000
G01 X136.163135 Y25.597987 Z-1.000000
G01 X136.286135 Y25.798777 Z-1.000000
G01 X136.439135 Y25.977767 Z-1.000000
G01 X136.618135 Y26.130517 Z-1.000000
G01 X136.819135 Y26.253487 Z-1.000000
G01 X137.036135 Y26.343687 Z-1.000000
G01 X137.265135 Y26.398687 Z-1.000000
G01 X137.500135 Y26.417187 Z-1.000000
G01 X137.735135 Y26.398687 Z-1.000000
G01 X137.963135 Y26.343687 Z-1.000000
G01 X138.181135 Y26.253487 Z-1.000000
G01 X138.382135 Y26.130517 Z-1.000000
G01 X138.561135 Y25.977767 Z-1.000000
G01 X138.714135 Y25.798777 Z-1.000000
G01 X138.837135 Y25.597987 Z-1.000000
G01 X138.927135 Y25.380527 Z-1.000000
G01 X138.981135 Y25.151657 Z-1.000000
G01 X139.000135 Y24.917137 Z-1.000000
G01 X138.981135 Y24.682447 Z-1.000000
G01 X138.927135 Y24.453557 Z-1.000000
G01 X138.837135 Y24.236127 Z-1.000000
G01 X138.714135 Y24.035307 Z-1.000000
G01 X138.561135 Y23.856337 Z-1.000000
G01 X138.382135 Y23.703597 Z-1.000000
G01 X138.181135 Y23.580587 Z-1.000000
G01 X137.963135 Y23.490387 Z-1.000000
G01 X137.735135 Y23.435487 Z-1.000000
G01 X137.500135 Y23.416987 Z-1.000000
G01 X137.265135 Y23.435487 Z-1.000000
G00 Z30.000000
(Block-name: path4 [in,cut])
(Block-expand: 0)
(Block-enable: 1)
g0 x137.38271 y24.178551
g1 z-1 f300
g1 x137.268957 y24.205822 f650
g1 x137.160875 y24.250749
g1 x137.060022 y24.31247
g1 x136.970859 y24.388552
g1 x136.894737 y24.477595
g1 x136.833537 y24.577515
g1 x136.788626 y24.686016
g1 x136.761362 y24.79948
g1 x136.752339 y24.917116
g1 x136.761356 y25.034597
g1 x136.788627 y25.148079
g1 x136.833537 y25.256592
g1 x136.894732 y25.356488
g1 x136.970883 y25.445575
g1 x137.059991 y25.521615
g1 x137.160824 y25.583304
g1 x137.269101 y25.628311
g1 x137.382866 y25.655635
g1 x137.500135 y25.664867
g1 x137.61703 y25.655664
g1 x137.730418 y25.628312
g1 x137.839969 y25.582984
g1 x137.940279 y25.521615
g1 x138.029387 y25.445575
g1 x138.105538 y25.356488
g1 x138.166733 y25.256592
g1 x138.211046 y25.149521
g1 x138.238161 y25.034596
g1 x138.247679 y24.917115
g1 x138.238156 y24.799479
g1 x138.211047 y24.684574
g1 x138.166733 y24.577515
g1 x138.105533 y24.477595
g1 x138.029411 y24.388552
g1 x137.940248 y24.31247
g1 x137.839919 y24.251069
g1 x137.730563 y24.205822
g1 x137.617186 y24.178522
g1 x137.500135 y24.169307
g1 x137.38271 y24.178551
g1 z-2 f300
g1 x137.268957 y24.205822 f650
g1 x137.160875 y24.250749
g1 x137.060022 y24.31247
g1 x136.970859 y24.388552
g1 x136.894737 y24.477595
g1 x136.833537 y24.577515
g1 x136.788626 y24.686016
g1 x136.761362 y24.79948
g1 x136.752339 y24.917116
g1 x136.761356 y25.034597
g1 x136.788627 y25.148079
g1 x136.833537 y25.256592
g1 x136.894732 y25.356488
g1 x136.970883 y25.445575
g1 x137.059991 y25.521615
g1 x137.160824 y25.583304
g1 x137.269101 y25.628311
g1 x137.382866 y25.655635
g1 x137.500135 y25.664867
g1 x137.61703 y25.655664
g1 x137.730418 y25.628312
g1 x137.839969 y25.582984
g1 x137.940279 y25.521615
g1 x138.029387 y25.445575
g1 x138.105538 y25.356488
g1 x138.166733 y25.256592
g1 x138.211046 y25.149521
g1 x138.238161 y25.034596
g1 x138.247679 y24.917115
g1 x138.238156 y24.799479
g1 x138.211047 y24.684574
g1 x138.166733 y24.577515
g1 x138.105533 y24.477595
g1 x138.029411 y24.388552
g1 x137.940248 y24.31247
g1 x137.839919 y24.251069
g1 x137.730563 y24.205822
g1 x137.617186 y24.178522
g1 x137.500135 y24.169307
g1 x137.38271 y24.178551
g0 z30
(Block-name: path4)
(Block-expand: 0)
(Block-enable: 0)

(End cutting path id: path4)


(Start cutting path id: path4)
(Change tool to Default tool)

G00 Z30.000000
G00 X162.265136 Y23.435485

G01 Z-1.000000 F100.0(Penetrate)
G01 X162.036136 Y23.490385 Z-1.000000 F400.000000
G01 X161.819136 Y23.580585 Z-1.000000
G01 X161.618136 Y23.703595 Z-1.000000
G01 X161.439136 Y23.856335 Z-1.000000
G01 X161.286136 Y24.035305 Z-1.000000
G01 X161.163136 Y24.236125 Z-1.000000
G01 X161.073136 Y24.453555 Z-1.000000
G01 X161.018136 Y24.682445 Z-1.000000
G01 X161.000136 Y24.917135 Z-1.000000
G01 X161.018136 Y25.151655 Z-1.000000
G01 X161.073136 Y25.380525 Z-1.000000
G01 X161.163136 Y25.597985 Z-1.000000
G01 X161.286136 Y25.798775 Z-1.000000
G01 X161.439136 Y25.977765 Z-1.000000
